;FLAVOR:Marlin
;TIME:13249
;Filament used: 18.8823m
;Layer height: 0.4
;MINX:14.457
;MINY:12.037
;MINZ:0.3
;MAXX:202.37
;MAXY:199.949
;MAXZ:16.3
;Generated with Cura_SteamEngine 4.5.0
M140 S60
M105
M190 S60
M104 S200
M105
M109 S200
M82 ;absolute extrusion mode
G28 ;Home
G29 ;ABL
G1 Z15.0 F2000 ;Move the platform
G92 E0
G92 E0
G1 F1500 E-6.5
;LAYER_COUNT:41
;LAYER:0
M107
M204 S1000
G0 F7500 X16.742 Y97.33 Z0.3
;TYPE:SKIRT
G1 F1500 E0
G1 X99.752 Y14.32 E5.8568
G1 X100.338 Y13.79 E5.89622
G1 X100.974 Y13.323 E5.93559
G1 X101.654 Y12.922 E5.97497
G1 X102.372 Y12.592 E6.0144
G1 X103.119 Y12.337 E6.05378
G1 X103.888 Y12.158 E6.09317
G1 X104.672 Y12.058 E6.1326
G1 X105.461 Y12.037 E6.17198
G1 X106.248 Y12.097 E6.21135
G1 X107.026 Y12.236 E6.25078
G1 X107.785 Y12.453 E6.29017
G1 X108.519 Y12.745 E6.32958
G1 X109.219 Y13.11 E6.36896
G1 X109.879 Y13.544 E6.40837
G1 X110.769 Y14.306 E6.46683
G1 X139.727 Y43.126 E8.50511
G1 X165.768 Y17.083 E10.34251
G1 X166.354 Y16.553 E10.38193
G1 X166.991 Y16.086 E10.42133
G1 X167.671 Y15.685 E10.46072
G1 X168.389 Y15.355 E10.50014
G1 X169.136 Y15.1 E10.53952
G1 X169.905 Y14.921 E10.57891
G1 X170.688 Y14.821 E10.6183
G1 X171.284 Y14.798 E10.64805
G1 X171.45 Y14.798 E10.65633
G1 X172.239 Y14.838 E10.69575
G1 X173.019 Y14.957 E10.73511
G1 X173.784 Y15.155 E10.77454
G1 X174.524 Y15.429 E10.8139
G1 X175.233 Y15.777 E10.85331
G1 X175.904 Y16.195 E10.89275
G1 X176.528 Y16.678 E10.93212
G1 X176.965 Y17.083 E10.96184
G1 X180.037 Y20.155 E11.17859
G1 X180.567 Y20.741 E11.21801
G1 X181.034 Y21.377 E11.25737
G1 X181.435 Y22.057 E11.29676
G1 X181.765 Y22.775 E11.33618
G1 X182.02 Y23.522 E11.37556
G1 X182.199 Y24.291 E11.41495
G1 X182.299 Y25.075 E11.45438
G1 X182.322 Y25.67 E11.48409
G1 X182.322 Y25.836 E11.49237
G1 X182.282 Y26.625 E11.53178
G1 X182.163 Y27.405 E11.57115
G1 X181.965 Y28.17 E11.61057
G1 X181.691 Y28.91 E11.64994
G1 X181.343 Y29.619 E11.68934
G1 X180.925 Y30.29 E11.72879
G1 X180.442 Y30.914 E11.76815
G1 X180.037 Y31.352 E11.79791
G1 X154.007 Y57.381 E13.63444
G1 X159.175 Y62.549 E13.99907
G1 X185.204 Y36.518 E15.83562
G1 X185.79 Y35.988 E15.87504
G1 X186.427 Y35.521 E15.91445
G1 X187.107 Y35.12 E15.95383
G1 X187.825 Y34.79 E15.99326
G1 X188.572 Y34.535 E16.03264
G1 X189.341 Y34.356 E16.07203
G1 X190.124 Y34.256 E16.11141
G1 X190.72 Y34.233 E16.14117
G1 X190.886 Y34.233 E16.14945
G1 X191.675 Y34.273 E16.18886
G1 X192.455 Y34.392 E16.22823
G1 X193.22 Y34.59 E16.26765
G1 X193.96 Y34.864 E16.30702
G1 X194.669 Y35.212 E16.34642
G1 X195.34 Y35.63 E16.38586
G1 X195.964 Y36.113 E16.42523
G1 X196.401 Y36.518 E16.45496
G1 X200.085 Y40.202 E16.71488
G1 X200.615 Y40.788 E16.7543
G1 X201.082 Y41.424 E16.79367
G1 X201.483 Y42.104 E16.83305
G1 X201.813 Y42.822 E16.87248
G1 X202.068 Y43.569 E16.91185
G1 X202.247 Y44.338 E16.95125
G1 X202.347 Y45.122 E16.99068
G1 X202.37 Y45.717 E17.02038
G1 X202.37 Y45.883 E17.02867
G1 X202.33 Y46.672 E17.06808
G1 X202.211 Y47.452 E17.10744
G1 X202.013 Y48.217 E17.14687
G1 X201.739 Y48.957 E17.18624
G1 X201.391 Y49.666 E17.22564
G1 X200.973 Y50.337 E17.26508
G1 X200.49 Y50.961 E17.30445
G1 X200.086 Y51.398 E17.33414
G1 X196.387 Y55.098 E17.59516
G1 X53.821 Y197.664 E27.65396
G1 X53.236 Y198.194 E27.69334
G1 X52.599 Y198.661 E27.73275
G1 X51.919 Y199.062 E27.77213
G1 X51.201 Y199.392 E27.81156
G1 X50.454 Y199.647 E27.85094
G1 X49.685 Y199.826 E27.89033
G1 X48.901 Y199.926 E27.92976
G1 X48.306 Y199.949 E27.95946
G1 X48.14 Y199.949 E27.96775
G1 X47.351 Y199.909 E28.00716
G1 X46.571 Y199.79 E28.04653
G1 X45.806 Y199.592 E28.08595
G1 X45.066 Y199.318 E28.12532
G1 X44.357 Y198.97 E28.16472
G1 X43.686 Y198.552 E28.20416
G1 X43.062 Y198.069 E28.24353
G1 X42.625 Y197.664 E28.27325
G1 X38.94 Y193.979 E28.53325
G1 X38.41 Y193.393 E28.57267
G1 X37.943 Y192.757 E28.61204
G1 X37.542 Y192.077 E28.65142
G1 X37.212 Y191.359 E28.69084
G1 X36.957 Y190.612 E28.73022
G1 X36.778 Y189.843 E28.76961
G1 X36.678 Y189.059 E28.80905
G1 X36.655 Y188.464 E28.83875
G1 X36.655 Y188.298 E28.84703
G1 X36.695 Y187.509 E28.88645
G1 X36.814 Y186.729 E28.92581
G1 X37.012 Y185.964 E28.96524
G1 X37.286 Y185.224 E29.0046
G1 X37.634 Y184.515 E29.04401
G1 X38.052 Y183.844 E29.08345
G1 X38.535 Y183.22 E29.12282
G1 X38.94 Y182.782 E29.15258
G1 X64.971 Y156.753 E30.98914
G1 X59.803 Y151.585 E31.35377
G1 X33.774 Y177.615 E33.19029
G1 X33.188 Y178.145 E33.22971
G1 X32.551 Y178.612 E33.26911
G1 X31.871 Y179.013 E33.3085
G1 X31.153 Y179.343 E33.34792
G1 X30.406 Y179.598 E33.3873
G1 X29.637 Y179.777 E33.42669
G1 X28.854 Y179.877 E33.46607
G1 X28.258 Y179.9 E33.49583
G1 X28.092 Y179.9 E33.50411
G1 X27.303 Y179.86 E33.54353
G1 X26.523 Y179.741 E33.58289
G1 X25.758 Y179.543 E33.62231
G1 X25.018 Y179.269 E33.66168
G1 X24.309 Y178.921 E33.70109
G1 X23.638 Y178.503 E33.74053
G1 X23.014 Y178.02 E33.77989
G1 X22.577 Y177.615 E33.80962
G1 X19.505 Y174.543 E34.02637
G1 X18.975 Y173.957 E34.06578
G1 X18.508 Y173.321 E34.10515
G1 X18.107 Y172.641 E34.14453
G1 X17.777 Y171.923 E34.18396
G1 X17.522 Y171.176 E34.22334
G1 X17.343 Y170.407 E34.26273
G1 X17.243 Y169.623 E34.30216
G1 X17.22 Y169.028 E34.33187
G1 X17.22 Y168.862 E34.34015
G1 X17.26 Y168.073 E34.37956
G1 X17.379 Y167.293 E34.41893
G1 X17.577 Y166.528 E34.45835
G1 X17.851 Y165.788 E34.49772
G1 X18.199 Y165.079 E34.53712
G1 X18.617 Y164.408 E34.57656
G1 X19.1 Y163.784 E34.61593
G1 X19.505 Y163.346 E34.64569
G1 X45.535 Y137.318 E36.48218
G1 X16.742 Y108.527 E38.51361
G1 X16.212 Y107.941 E38.55303
G1 X15.745 Y107.304 E38.59244
G1 X15.344 Y106.624 E38.63182
G1 X15.014 Y105.906 E38.67124
G1 X14.759 Y105.159 E38.71062
G1 X14.58 Y104.39 E38.75001
G1 X14.48 Y103.607 E38.7894
G1 X14.457 Y103.011 E38.81915
G1 X14.457 Y102.845 E38.82743
G1 X14.497 Y102.056 E38.86685
G1 X14.616 Y101.276 E38.90621
G1 X14.814 Y100.511 E38.94564
G1 X15.088 Y99.771 E38.985
G1 X15.436 Y99.062 E39.02441
G1 X15.854 Y98.391 E39.06385
G1 X16.337 Y97.767 E39.10322
G1 X16.742 Y97.33 E39.13294
G0 F7500 X17.024 Y97.612
G1 F1500 X100.034 Y14.602 E44.98975
G1 X100.606 Y14.088 E45.02811
G1 X101.228 Y13.635 E45.0665
G1 X101.893 Y13.249 E45.10486
G1 X102.595 Y12.934 E45.14325
G1 X103.326 Y12.694 E45.18163
G1 X104.077 Y12.531 E45.21997
G1 X104.842 Y12.447 E45.25837
G1 X105.611 Y12.443 E45.29674
G1 X106.376 Y12.519 E45.33509
G1 X107.13 Y12.673 E45.37348
G1 X107.863 Y12.905 E45.41184
G1 X108.568 Y13.212 E45.4502
G1 X109.238 Y13.591 E45.48861
G1 X109.865 Y14.037 E45.527
G1 X110.487 Y14.59 E45.56852
G1 X139.727 Y43.691 E47.62666
G1 X166.051 Y17.366 E49.484
G1 X166.623 Y16.851 E49.5224
G1 X167.244 Y16.398 E49.56074
G1 X167.91 Y16.012 E49.59915
G1 X168.612 Y15.697 E49.63754
G1 X169.342 Y15.457 E49.67587
G1 X170.094 Y15.294 E49.71426
G1 X170.859 Y15.21 E49.75266
G1 X171.45 Y15.198 E49.78215
G1 X172.218 Y15.238 E49.82052
G1 X172.978 Y15.357 E49.8589
G1 X173.721 Y15.555 E49.89726
G1 X174.44 Y15.829 E49.93564
G1 X175.126 Y16.176 E49.974
G1 X175.773 Y16.592 E50.01237
G1 X176.373 Y17.073 E50.05074
G1 X176.683 Y17.365 E50.07199
G1 X179.755 Y20.437 E50.28873
G1 X180.269 Y21.009 E50.3271
G1 X180.722 Y21.631 E50.36549
G1 X181.108 Y22.296 E50.40385
G1 X181.423 Y22.998 E50.44224
G1 X181.663 Y23.729 E50.48062
G1 X181.826 Y24.48 E50.51896
G1 X181.91 Y25.245 E50.55736
G1 X181.922 Y25.836 E50.58685
G1 X181.882 Y26.604 E50.62522
G1 X181.763 Y27.364 E50.66359
G1 X181.565 Y28.107 E50.70196
G1 X181.291 Y28.826 E50.74034
G1 X180.944 Y29.512 E50.7787
G1 X180.528 Y30.159 E50.81707
G1 X180.047 Y30.759 E50.85544
G1 X179.754 Y31.069 E50.87672
G1 X153.442 Y57.38 E52.73314
G1 X159.176 Y63.114 E53.1377
G1 X185.487 Y36.801 E54.99416
G1 X186.059 Y36.286 E55.03256
G1 X186.68 Y35.833 E55.0709
G1 X187.346 Y35.447 E55.10931
G1 X188.048 Y35.132 E55.1477
G1 X188.778 Y34.892 E55.18603
G1 X189.53 Y34.729 E55.22442
G1 X190.294 Y34.645 E55.26277
G1 X190.886 Y34.633 E55.29231
G1 X191.654 Y34.673 E55.33068
G1 X192.414 Y34.792 E55.36906
G1 X193.157 Y34.99 E55.40742
G1 X193.876 Y35.264 E55.4458
G1 X194.562 Y35.611 E55.48416
G1 X195.209 Y36.027 E55.52253
G1 X195.809 Y36.508 E55.5609
G1 X196.119 Y36.8 E55.58215
G1 X199.803 Y40.484 E55.84207
G1 X200.317 Y41.056 E55.88044
G1 X200.77 Y41.678 E55.91883
G1 X201.156 Y42.343 E55.95719
G1 X201.471 Y43.045 E55.99558
G1 X201.711 Y43.776 E56.03396
G1 X201.874 Y44.527 E56.0723
G1 X201.958 Y45.292 E56.1107
G1 X201.97 Y45.883 E56.14019
G1 X201.93 Y46.651 E56.17856
G1 X201.811 Y47.411 E56.21693
G1 X201.613 Y48.154 E56.2553
G1 X201.339 Y48.873 E56.29368
G1 X200.992 Y49.559 E56.33204
G1 X200.576 Y50.206 E56.37041
G1 X200.095 Y50.806 E56.40878
G1 X199.803 Y51.115 E56.42999
G1 X196.104 Y54.815 E56.69101
G1 X53.539 Y197.381 E66.74977
G1 X52.968 Y197.896 E66.78814
G1 X52.346 Y198.349 E66.82653
G1 X51.681 Y198.735 E66.86489
G1 X50.979 Y199.049 E66.90325
G1 X50.248 Y199.29 E66.94166
G1 X49.497 Y199.453 E66.97999
G1 X48.732 Y199.537 E67.01839
G1 X48.14 Y199.549 E67.04793
G1 X47.372 Y199.509 E67.0863
G1 X46.612 Y199.39 E67.12468
G1 X45.869 Y199.192 E67.16304
G1 X45.15 Y198.918 E67.20143
G1 X44.464 Y198.571 E67.23978
G1 X43.817 Y198.155 E67.27816
G1 X43.217 Y197.674 E67.31652
G1 X42.907 Y197.382 E67.33777
G1 X39.222 Y193.697 E67.59777
G1 X38.708 Y193.125 E67.63613
G1 X38.255 Y192.503 E67.67452
G1 X37.869 Y191.838 E67.71288
G1 X37.554 Y191.136 E67.75127
G1 X37.314 Y190.405 E67.78965
G1 X37.151 Y189.654 E67.82799
G1 X37.067 Y188.889 E67.86639
G1 X37.055 Y188.298 E67.89588
G1 X37.095 Y187.53 E67.93425
G1 X37.214 Y186.77 E67.97263
G1 X37.412 Y186.027 E68.01099
G1 X37.686 Y185.308 E68.04938
G1 X38.033 Y184.622 E68.08773
G1 X38.449 Y183.975 E68.12611
G1 X38.93 Y183.375 E68.16447
G1 X39.223 Y183.065 E68.18575
G1 X65.536 Y156.754 E70.04221
G1 X59.802 Y151.02 E70.44677
G1 X33.491 Y177.332 E72.30319
G1 X32.919 Y177.847 E72.34159
G1 X32.298 Y178.3 E72.37994
G1 X31.632 Y178.686 E72.41834
G1 X30.93 Y179.001 E72.45673
G1 X30.2 Y179.241 E72.49507
G1 X29.448 Y179.404 E72.53346
G1 X28.683 Y179.488 E72.57185
G1 X28.092 Y179.5 E72.60134
G1 X27.324 Y179.46 E72.63971
G1 X26.564 Y179.341 E72.67809
G1 X25.821 Y179.143 E72.71645
G1 X25.102 Y178.869 E72.75484
G1 X24.416 Y178.522 E72.79319
G1 X23.769 Y178.106 E72.83157
G1 X23.169 Y177.625 E72.86993
G1 X22.859 Y177.333 E72.89118
G1 X19.787 Y174.261 E73.10793
G1 X19.273 Y173.689 E73.14629
G1 X18.82 Y173.067 E73.18468
G1 X18.434 Y172.402 E73.22304
G1 X18.119 Y171.7 E73.26143
G1 X17.879 Y170.969 E73.29981
G1 X17.716 Y170.218 E73.33815
G1 X17.632 Y169.453 E73.37655
G1 X17.62 Y168.862 E73.40604
G1 X17.66 Y168.094 E73.44441
G1 X17.779 Y167.334 E73.48279
G1 X17.977 Y166.591 E73.52115
G1 X18.251 Y165.872 E73.55954
G1 X18.598 Y165.186 E73.59789
G1 X19.014 Y164.539 E73.63627
G1 X19.495 Y163.939 E73.67463
G1 X19.788 Y163.629 E73.69591
G1 X46.101 Y137.318 E75.55237
G1 X17.025 Y108.244 E77.60376
G1 X16.51 Y107.672 E77.64216
G1 X16.057 Y107.051 E77.68051
G1 X15.671 Y106.385 E77.71892
G1 X15.356 Y105.683 E77.7573
G1 X15.116 Y104.953 E77.79564
G1 X14.953 Y104.201 E77.83403
G1 X14.869 Y103.436 E77.87243
G1 X14.857 Y102.845 E77.90192
G1 X14.897 Y102.077 E77.94028
G1 X15.016 Y101.317 E77.97866
G1 X15.214 Y100.574 E78.01703
G1 X15.488 Y99.855 E78.05541
G1 X15.835 Y99.169 E78.09377
G1 X16.251 Y98.522 E78.13214
G1 X16.732 Y97.922 E78.17051
G1 X17.024 Y97.612 E78.19175
G0 F7500 X17.307 Y97.895
G1 F1500 X100.317 Y14.885 E84.04856
G1 X100.874 Y14.385 E84.0859
G1 X101.48 Y13.948 E84.12318
G1 X102.13 Y13.577 E84.16051
G1 X102.816 Y13.278 E84.19785
G1 X103.53 Y13.054 E84.23518
G1 X104.263 Y12.907 E84.27248
G1 X105.008 Y12.84 E84.3098
G1 X105.756 Y12.852 E84.34712
G1 X106.499 Y12.944 E84.38447
G1 X107.227 Y13.115 E84.42178
G1 X107.933 Y13.362 E84.4591
G1 X108.608 Y13.684 E84.49641
G1 X109.246 Y14.076 E84.53377
G1 X109.837 Y14.533 E84.57104
G1 X110.205 Y14.873 E84.59603
G1 X139.728 Y44.256 E86.67411
G1 X166.334 Y17.648 E88.55138
G1 X166.891 Y17.148 E88.58872
G1 X167.497 Y16.711 E88.62599
G1 X168.147 Y16.34 E88.66333
G1 X168.833 Y16.041 E88.70067
G1 X169.546 Y15.817 E88.73795
G1 X170.28 Y15.67 E88.7753
G1 X171.284 Y15.598 E88.82552
G1 X171.45 Y15.598 E88.8338
G1 X172.197 Y15.638 E88.87112
G1 X172.935 Y15.757 E88.90842
G1 X173.657 Y15.955 E88.94577
G1 X174.353 Y16.228 E88.98307
G1 X175.016 Y16.575 E89.0204
G1 X175.639 Y16.99 E89.05775
G1 X176.4 Y17.648 E89.10794
G1 X179.472 Y20.72 E89.32468
G1 X179.972 Y21.277 E89.36202
G1 X180.409 Y21.883 E89.3993
G1 X180.78 Y22.533 E89.43664
G1 X181.079 Y23.219 E89.47397
G1 X181.303 Y23.933 E89.51131
G1 X181.45 Y24.666 E89.5486
G1 X181.522 Y25.67 E89.59882
G1 X181.522 Y25.836 E89.6071
G1 X181.482 Y26.583 E89.64443
G1 X181.363 Y27.321 E89.68172
G1 X181.165 Y28.043 E89.71907
G1 X180.892 Y28.739 E89.75637
G1 X180.545 Y29.402 E89.7937
G1 X180.13 Y30.025 E89.83105
G1 X179.472 Y30.786 E89.88124
G1 X152.876 Y57.38 E91.75766
G1 X159.176 Y63.68 E92.20216
G1 X185.77 Y37.083 E94.07862
G1 X186.326 Y36.584 E94.11589
G1 X186.933 Y36.146 E94.15323
G1 X187.583 Y35.775 E94.19057
G1 X188.269 Y35.476 E94.22791
G1 X188.982 Y35.252 E94.26519
G1 X189.716 Y35.105 E94.30254
G1 X190.72 Y35.033 E94.35276
G1 X190.886 Y35.033 E94.36104
G1 X191.633 Y35.073 E94.39836
G1 X192.371 Y35.192 E94.43566
G1 X193.093 Y35.39 E94.47301
G1 X193.789 Y35.663 E94.5103
G1 X194.452 Y36.01 E94.54764
G1 X195.075 Y36.425 E94.58498
G1 X195.836 Y37.083 E94.63518
G1 X199.52 Y40.767 E94.8951
G1 X200.02 Y41.324 E94.93244
G1 X200.457 Y41.93 E94.96972
G1 X200.828 Y42.58 E95.00706
G1 X201.127 Y43.266 E95.04439
G1 X201.351 Y43.98 E95.08173
G1 X201.498 Y44.713 E95.11902
G1 X201.57 Y45.717 E95.16924
G1 X201.57 Y45.883 E95.17752
G1 X201.53 Y46.63 E95.21485
G1 X201.411 Y47.368 E95.25214
G1 X201.213 Y48.09 E95.28949
G1 X200.94 Y48.786 E95.32679
G1 X200.593 Y49.449 E95.36412
G1 X200.178 Y50.072 E95.40147
G1 X199.52 Y50.832 E95.45162
G1 X195.821 Y54.532 E95.71264
G1 X53.256 Y197.098 E105.77141
G1 X52.7 Y197.598 E105.80871
G1 X52.093 Y198.036 E105.84606
G1 X51.444 Y198.406 E105.88333
G1 X50.758 Y198.706 E105.92068
G1 X50.044 Y198.93 E105.95802
G1 X49.311 Y199.077 E105.99531
G1 X48.306 Y199.149 E106.04558
G1 X48.14 Y199.149 E106.05386
G1 X47.393 Y199.109 E106.09119
G1 X46.655 Y198.99 E106.12848
G1 X45.933 Y198.792 E106.16583
G1 X45.237 Y198.519 E106.20313
G1 X44.574 Y198.172 E106.24046
G1 X43.951 Y197.757 E106.27781
G1 X43.19 Y197.099 E106.328
G1 X39.505 Y193.414 E106.588
G1 X39.005 Y192.857 E106.62534
G1 X38.568 Y192.251 E106.66261
G1 X38.197 Y191.601 E106.69995
G1 X37.898 Y190.915 E106.73729
G1 X37.674 Y190.201 E106.77462
G1 X37.527 Y189.468 E106.81192
G1 X37.455 Y188.464 E106.86214
G1 X37.455 Y188.298 E106.87042
G1 X37.495 Y187.551 E106.90774
G1 X37.614 Y186.813 E106.94504
G1 X37.812 Y186.091 E106.98239
G1 X38.085 Y185.395 E107.01969
G1 X38.432 Y184.732 E107.05702
G1 X38.847 Y184.109 E107.09437
G1 X39.505 Y183.348 E107.14456
G1 X66.102 Y156.754 E109.02101
G1 X59.802 Y150.454 E109.46551
G1 X33.208 Y177.05 E111.34193
G1 X32.651 Y177.55 E111.37927
G1 X32.045 Y177.987 E111.41655
G1 X31.395 Y178.358 E111.45389
G1 X30.709 Y178.657 E111.49122
G1 X29.996 Y178.881 E111.52851
G1 X29.262 Y179.028 E111.56586
G1 X28.258 Y179.1 E111.61607
G1 X28.092 Y179.1 E111.62436
G1 X27.345 Y179.06 E111.66168
G1 X26.607 Y178.941 E111.69897
G1 X25.885 Y178.743 E111.73632
G1 X25.189 Y178.47 E111.77362
G1 X24.526 Y178.123 E111.81095
G1 X23.903 Y177.708 E111.8483
G1 X23.142 Y177.05 E111.89849
G1 X20.07 Y173.978 E112.11524
G1 X19.57 Y173.421 E112.15258
G1 X19.133 Y172.815 E112.18986
G1 X18.762 Y172.165 E112.22719
G1 X18.463 Y171.479 E112.26453
G1 X18.239 Y170.765 E112.30186
G1 X18.092 Y170.032 E112.33916
G1 X18.02 Y169.028 E112.38938
G1 X18.02 Y168.862 E112.39766
G1 X18.06 Y168.115 E112.43498
G1 X18.179 Y167.377 E112.47228
G1 X18.377 Y166.655 E112.50963
G1 X18.65 Y165.959 E112.54693
G1 X18.997 Y165.296 E112.58426
G1 X19.412 Y164.673 E112.62161
G1 X20.07 Y163.912 E112.6718
G1 X46.666 Y137.318 E114.54822
G1 X17.307 Y107.961 E116.61958
G1 X16.807 Y107.404 E116.65693
G1 X16.37 Y106.798 E116.6942
G1 X15.999 Y106.148 E116.73154
G1 X15.7 Y105.462 E116.76887
G1 X15.476 Y104.749 E116.80616
G1 X15.329 Y104.015 E116.84351
G1 X15.257 Y103.011 E116.89372
G1 X15.257 Y102.845 E116.90201
