;FLAVOR:Marlin
;TIME:5125
;Filament used: 7.30981m
;Layer height: 0.4
;MINX:75.984
;MINY:39.427
;MINZ:0.3
;MAXX:144.016
;MAXY:180.538
;MAXZ:11.9
;Generated with Cura_SteamEngine 4.5.0
M140 S60
M105
M190 S60
M104 S200
M105
M109 S200
M82 ;absolute extrusion mode
G28 ;Home
G29 ;ABL
G1 Z15.0 F2000 ;Move the platform
G92 E0
G92 E0
G1 F1500 E-6.5
;LAYER_COUNT:30
;LAYER:0
M107
M204 S1000
G0 F7500 X91.512 Y44.27 Z0.3
;TYPE:SKIRT
G1 F1500 E0
G1 X91.86 Y43.561 E0.0394
G1 X92.278 Y42.89 E0.07884
G1 X92.761 Y42.266 E0.11821
G1 X93.166 Y41.829 E0.14794
G1 X93.283 Y41.712 E0.15619
G1 X93.869 Y41.182 E0.19561
G1 X94.505 Y40.715 E0.23498
G1 X95.185 Y40.314 E0.27436
G1 X95.903 Y39.984 E0.31379
G1 X96.65 Y39.729 E0.35316
G1 X97.419 Y39.55 E0.39256
G1 X98.203 Y39.45 E0.43199
G1 X98.798 Y39.427 E0.46169
G1 X121.202 Y39.427 E1.57943
G1 X121.991 Y39.467 E1.61885
G1 X122.771 Y39.586 E1.65821
G1 X123.536 Y39.784 E1.69764
G1 X124.276 Y40.058 E1.737
G1 X124.985 Y40.406 E1.77641
G1 X125.656 Y40.824 E1.81585
G1 X126.28 Y41.307 E1.85522
G1 X126.853 Y41.85 E1.8946
G1 X127.368 Y42.449 E1.93401
G1 X127.819 Y43.097 E1.9734
G1 X128.203 Y43.788 E2.01284
G1 X128.515 Y44.513 E2.05222
G1 X128.752 Y45.266 E2.0916
G1 X128.911 Y46.04 E2.13102
G1 X129.002 Y47.219 E2.19002
G1 X129.111 Y146.996 E7.16792
G1 X136.098 Y146.996 E7.5165
G1 X136.887 Y147.036 E7.55591
G1 X137.667 Y147.155 E7.59528
G1 X138.432 Y147.353 E7.6347
G1 X139.172 Y147.627 E7.67407
G1 X139.881 Y147.975 E7.71347
G1 X140.552 Y148.393 E7.75291
G1 X141.176 Y148.876 E7.79228
G1 X141.613 Y149.281 E7.82201
G1 X141.73 Y149.398 E7.83026
G1 X142.26 Y149.984 E7.86968
G1 X142.727 Y150.62 E7.90905
G1 X143.128 Y151.3 E7.94843
G1 X143.458 Y152.018 E7.98785
G1 X143.713 Y152.765 E8.02723
G1 X143.892 Y153.534 E8.06662
G1 X143.992 Y154.318 E8.10606
G1 X144.015 Y154.926 E8.13641
G1 X144.014 Y155.533 E8.16669
G1 X144.016 Y172.62 E9.01917
G1 X143.976 Y173.409 E9.05858
G1 X143.857 Y174.189 E9.09795
G1 X143.659 Y174.954 E9.13737
G1 X143.385 Y175.695 E9.17678
G1 X143.037 Y176.404 E9.21619
G1 X142.62 Y177.074 E9.25556
G1 X142.137 Y177.699 E9.29497
G1 X141.731 Y178.136 E9.32473
G1 X141.614 Y178.253 E9.33298
G1 X141.028 Y178.783 E9.3724
G1 X140.392 Y179.25 E9.41177
G1 X139.712 Y179.651 E9.45115
G1 X138.994 Y179.981 E9.49057
G1 X138.247 Y180.236 E9.52995
G1 X137.478 Y180.415 E9.56935
G1 X136.694 Y180.515 E9.60878
G1 X136.099 Y180.538 E9.63848
G1 X83.901 Y180.538 E12.24265
G1 X83.112 Y180.498 E12.28207
G1 X82.332 Y180.379 E12.32143
G1 X81.567 Y180.181 E12.36085
G1 X80.827 Y179.907 E12.40022
G1 X80.118 Y179.559 E12.43963
G1 X79.447 Y179.141 E12.47907
G1 X78.823 Y178.658 E12.51843
G1 X78.386 Y178.253 E12.54816
G1 X78.269 Y178.136 E12.55641
G1 X77.739 Y177.55 E12.59583
G1 X77.272 Y176.914 E12.6352
G1 X76.871 Y176.234 E12.67458
G1 X76.541 Y175.516 E12.71401
G1 X76.286 Y174.769 E12.75339
G1 X76.107 Y174 E12.79278
G1 X76.007 Y173.216 E12.83221
G1 X75.984 Y172.62 E12.86197
G1 X75.986 Y154.911 E13.74547
G1 X76.026 Y154.122 E13.78489
G1 X76.146 Y153.342 E13.82426
G1 X76.344 Y152.577 E13.86368
G1 X76.618 Y151.837 E13.90305
G1 X76.965 Y151.128 E13.94243
G1 X77.383 Y150.458 E13.98183
G1 X77.866 Y149.833 E14.02124
G1 X78.271 Y149.397 E14.05093
G1 X78.388 Y149.28 E14.05918
G1 X78.974 Y148.75 E14.0986
G1 X79.61 Y148.283 E14.13797
G1 X80.29 Y147.882 E14.17735
G1 X81.008 Y147.552 E14.21677
G1 X81.755 Y147.297 E14.25615
G1 X82.524 Y147.118 E14.29554
G1 X83.308 Y147.018 E14.33498
G1 X83.904 Y146.995 E14.36473
G1 X90.881 Y146.995 E14.71282
G1 X90.881 Y47.344 E19.68442
G1 X90.921 Y46.555 E19.72384
G1 X91.04 Y45.775 E19.7632
G1 X91.238 Y45.01 E19.80263
G1 X91.512 Y44.27 E19.84199
G0 F7500 X91.912 Y44.354
G1 F1500 X92.259 Y43.668 E19.88035
G1 X92.675 Y43.021 E19.91872
G1 X93.156 Y42.421 E19.95709
G1 X93.565 Y41.994 E19.98659
G1 X94.137 Y41.48 E20.02496
G1 X94.759 Y41.027 E20.06334
G1 X95.424 Y40.641 E20.10171
G1 X96.126 Y40.326 E20.14009
G1 X96.857 Y40.086 E20.17848
G1 X97.608 Y39.923 E20.21682
G1 X98.373 Y39.839 E20.25521
G1 X98.798 Y39.827 E20.27642
G1 X121.202 Y39.827 E21.39416
G1 X121.97 Y39.867 E21.43253
G1 X122.73 Y39.986 E21.47091
G1 X123.473 Y40.184 E21.50927
G1 X124.192 Y40.458 E21.54766
G1 X124.878 Y40.805 E21.58601
G1 X125.525 Y41.221 E21.62439
G1 X126.125 Y41.702 E21.66276
G1 X126.672 Y42.243 E21.70114
G1 X127.16 Y42.838 E21.73953
G1 X127.583 Y43.48 E21.77789
G1 X127.938 Y44.163 E21.81629
G1 X128.219 Y44.878 E21.85462
G1 X128.425 Y45.62 E21.89304
G1 X128.553 Y46.378 E21.93139
G1 X128.602 Y47.219 E21.97342
G1 X128.711 Y147.396 E26.97127
G1 X136.098 Y147.396 E27.33981
G1 X136.866 Y147.436 E27.37818
G1 X137.626 Y147.555 E27.41656
G1 X138.369 Y147.753 E27.45492
G1 X139.088 Y148.027 E27.49331
G1 X139.774 Y148.374 E27.53166
G1 X140.421 Y148.79 E27.57003
G1 X141.021 Y149.271 E27.6084
G1 X141.448 Y149.68 E27.6379
G1 X141.962 Y150.252 E27.67627
G1 X142.415 Y150.874 E27.71465
G1 X142.801 Y151.539 E27.75302
G1 X143.116 Y152.241 E27.7914
G1 X143.356 Y152.972 E27.82979
G1 X143.519 Y153.723 E27.86813
G1 X143.603 Y154.488 E27.90652
G1 X143.615 Y154.925 E27.92833
G1 X143.614 Y155.532 E27.95862
G1 X143.616 Y172.62 E28.81114
G1 X143.576 Y173.388 E28.84951
G1 X143.457 Y174.148 E28.88789
G1 X143.259 Y174.891 E28.92625
G1 X142.985 Y175.61 E28.96464
G1 X142.639 Y176.297 E29.00301
G1 X142.222 Y176.944 E29.04141
G1 X141.741 Y177.544 E29.07978
G1 X141.332 Y177.971 E29.10928
G1 X140.76 Y178.485 E29.14765
G1 X140.138 Y178.938 E29.18604
G1 X139.473 Y179.324 E29.2244
G1 X138.771 Y179.639 E29.26278
G1 X138.04 Y179.879 E29.30117
G1 X137.289 Y180.042 E29.33951
G1 X136.524 Y180.126 E29.3779
G1 X136.099 Y180.138 E29.39912
G1 X83.901 Y180.138 E32.00328
G1 X83.133 Y180.098 E32.04165
G1 X82.373 Y179.979 E32.08003
G1 X81.63 Y179.781 E32.11839
G1 X80.911 Y179.507 E32.15678
G1 X80.225 Y179.16 E32.19513
G1 X79.578 Y178.744 E32.23351
G1 X78.978 Y178.263 E32.27187
G1 X78.551 Y177.854 E32.30137
G1 X78.037 Y177.282 E32.33974
G1 X77.584 Y176.66 E32.37813
G1 X77.198 Y175.995 E32.41649
G1 X76.883 Y175.293 E32.45488
G1 X76.643 Y174.562 E32.49326
G1 X76.48 Y173.811 E32.5316
G1 X76.396 Y173.046 E32.57
G1 X76.384 Y172.62 E32.59126
G1 X76.386 Y154.911 E33.47477
G1 X76.426 Y154.143 E33.51313
G1 X76.546 Y153.383 E33.55152
G1 X76.743 Y152.64 E33.58987
G1 X77.017 Y151.921 E33.62826
G1 X77.364 Y151.235 E33.66661
G1 X77.781 Y150.588 E33.70501
G1 X78.262 Y149.988 E33.74338
G1 X78.67 Y149.562 E33.77281
G1 X79.242 Y149.048 E33.81117
G1 X79.864 Y148.595 E33.84956
G1 X80.529 Y148.209 E33.88792
G1 X81.231 Y147.894 E33.92631
G1 X81.962 Y147.654 E33.9647
G1 X82.713 Y147.491 E34.00303
G1 X83.478 Y147.407 E34.04143
G1 X83.904 Y147.395 E34.06269
G1 X91.281 Y147.395 E34.43073
G1 X91.281 Y47.344 E39.4223
G1 X91.321 Y46.576 E39.46066
G1 X91.44 Y45.816 E39.49904
G1 X91.638 Y45.073 E39.5374
G1 X91.912 Y44.354 E39.57579
G0 F7500 X92.311 Y44.441
G1 F1500 X92.658 Y43.778 E39.61313
G1 X93.073 Y43.155 E39.65047
G1 X93.731 Y42.394 E39.70066
G1 X93.848 Y42.277 E39.70892
G1 X94.405 Y41.777 E39.74626
G1 X95.011 Y41.34 E39.78354
G1 X95.661 Y40.969 E39.82087
G1 X96.347 Y40.67 E39.85821
G1 X97.061 Y40.446 E39.89554
G1 X97.794 Y40.299 E39.93284
G1 X98.798 Y40.227 E39.98306
G1 X121.202 Y40.227 E41.1008
G1 X121.949 Y40.267 E41.13812
G1 X122.687 Y40.386 E41.17541
G1 X123.409 Y40.584 E41.21276
G1 X124.105 Y40.857 E41.25006
G1 X124.768 Y41.204 E41.2874
G1 X125.391 Y41.619 E41.32474
G1 X125.965 Y42.098 E41.36204
G1 X126.486 Y42.635 E41.39937
G1 X126.945 Y43.225 E41.43666
G1 X127.34 Y43.861 E41.47402
G1 X127.664 Y44.535 E41.51133
G1 X127.914 Y45.24 E41.54864
G1 X128.088 Y45.968 E41.58599
G1 X128.183 Y46.71 E41.62331
G1 X128.202 Y47.219 E41.64872
G1 X128.311 Y147.796 E46.66653
G1 X136.098 Y147.796 E47.05502
G1 X136.845 Y147.836 E47.09235
G1 X137.583 Y147.955 E47.12964
G1 X138.305 Y148.153 E47.16699
G1 X139.001 Y148.426 E47.20429
G1 X139.664 Y148.773 E47.24162
G1 X140.287 Y149.188 E47.27897
G1 X141.048 Y149.846 E47.32916
G1 X141.165 Y149.963 E47.33742
G1 X141.665 Y150.52 E47.37476
G1 X142.102 Y151.126 E47.41203
G1 X142.473 Y151.776 E47.44937
G1 X142.772 Y152.462 E47.48671
G1 X142.996 Y153.176 E47.52404
G1 X143.143 Y153.909 E47.56134
G1 X143.215 Y154.925 E47.61215
G1 X143.214 Y155.532 E47.64244
G1 X143.216 Y172.62 E48.49496
G1 X143.176 Y173.367 E48.53228
G1 X143.057 Y174.106 E48.56963
G1 X142.859 Y174.827 E48.60693
G1 X142.586 Y175.524 E48.64427
G1 X142.24 Y176.187 E48.68158
G1 X141.825 Y176.809 E48.71889
G1 X141.166 Y177.571 E48.76915
G1 X141.049 Y177.688 E48.77741
G1 X140.492 Y178.188 E48.81475
G1 X139.886 Y178.625 E48.85202
G1 X139.236 Y178.996 E48.88936
G1 X138.55 Y179.295 E48.9267
G1 X137.836 Y179.519 E48.96403
G1 X137.103 Y179.666 E49.00133
G1 X136.099 Y179.738 E49.05155
G1 X83.901 Y179.738 E51.65571
G1 X83.154 Y179.698 E51.69304
G1 X82.416 Y179.579 E51.73033
G1 X81.694 Y179.381 E51.76768
G1 X80.998 Y179.108 E51.80498
G1 X80.335 Y178.761 E51.84231
G1 X79.712 Y178.346 E51.87966
G1 X78.951 Y177.688 E51.92985
G1 X78.834 Y177.571 E51.93811
G1 X78.334 Y177.014 E51.97545
G1 X77.897 Y176.408 E52.01272
G1 X77.526 Y175.758 E52.05006
G1 X77.227 Y175.072 E52.0874
G1 X77.003 Y174.358 E52.12473
G1 X76.856 Y173.625 E52.16203
G1 X76.784 Y172.62 E52.2123
G1 X76.786 Y154.911 E53.0958
G1 X76.826 Y154.164 E53.13312
G1 X76.946 Y153.426 E53.17043
G1 X77.143 Y152.704 E53.20776
G1 X77.417 Y152.008 E53.24508
G1 X77.763 Y151.345 E53.28239
G1 X78.178 Y150.723 E53.3197
G1 X78.836 Y149.962 E53.36989
G1 X78.953 Y149.845 E53.37814
G1 X79.51 Y149.345 E53.41548
G1 X80.116 Y148.908 E53.45276
G1 X80.766 Y148.537 E53.4901
G1 X81.452 Y148.238 E53.52743
G1 X82.166 Y148.014 E53.56477
G1 X82.899 Y147.867 E53.60206
G1 X83.903 Y147.795 E53.65228
G1 X91.681 Y147.796 E54.04033
G1 X91.681 Y47.344 E59.0519
G1 X91.721 Y46.597 E59.08922
G1 X91.84 Y45.859 E59.12651
G1 X92.038 Y45.137 E59.16386
G1 X92.311 Y44.441 E59.20116
G0 F7500 X92.711 Y44.53
G1 F1500 X93.056 Y43.891 E59.23739
G1 X93.47 Y43.294 E59.27364
G1 X94.014 Y42.677 E59.31468
G1 X94.131 Y42.56 E59.32293
G1 X94.672 Y42.076 E59.35915
G1 X95.263 Y41.653 E59.39541
G1 X95.897 Y41.299 E59.43163
G1 X96.566 Y41.016 E59.46787
G1 X97.262 Y40.808 E59.50411
G1 X97.977 Y40.678 E59.54037
G1 X98.798 Y40.627 E59.58141
G1 X121.202 Y40.627 E60.69915
G1 X121.927 Y40.667 E60.73538
G1 X122.644 Y40.786 E60.77164
G1 X123.343 Y40.984 E60.80788
G1 X124.016 Y41.257 E60.84411
G1 X124.655 Y41.602 E60.88034
G1 X125.252 Y42.016 E60.91659
G1 X125.8 Y42.492 E60.9528
G1 X126.293 Y43.026 E60.98906
G1 X126.723 Y43.611 E61.02528
G1 X127.087 Y44.24 E61.06154
G1 X127.38 Y44.905 E61.0978
G1 X127.598 Y45.598 E61.13404
G1 X127.738 Y46.31 E61.17024
G1 X127.802 Y47.22 E61.21575
G1 X127.912 Y148.196 E66.25347
G1 X136.098 Y148.196 E66.66187
G1 X136.823 Y148.236 E66.6981
G1 X137.54 Y148.355 E66.73436
G1 X138.239 Y148.553 E66.7706
G1 X138.912 Y148.826 E66.80684
G1 X139.551 Y149.171 E66.84307
G1 X140.148 Y149.585 E66.87931
G1 X140.765 Y150.129 E66.92035
G1 X140.882 Y150.246 E66.9286
G1 X141.366 Y150.787 E66.96482
G1 X141.789 Y151.378 E67.00108
G1 X142.143 Y152.012 E67.03731
G1 X142.426 Y152.681 E67.07355
G1 X142.634 Y153.377 E67.10979
G1 X142.764 Y154.092 E67.14604
G1 X142.815 Y154.924 E67.18763
G1 X142.814 Y155.531 E67.21791
G1 X142.816 Y172.62 E68.07049
G1 X142.776 Y173.345 E68.10671
G1 X142.657 Y174.062 E68.14297
G1 X142.459 Y174.761 E68.17922
G1 X142.186 Y175.434 E68.21545
G1 X141.841 Y176.073 E68.25168
G1 X141.428 Y176.67 E68.2879
G1 X140.883 Y177.288 E68.32901
G1 X140.766 Y177.405 E68.33726
G1 X140.225 Y177.889 E68.37348
G1 X139.634 Y178.312 E68.40974
G1 X139 Y178.666 E68.44596
G1 X138.331 Y178.949 E68.4822
G1 X137.635 Y179.157 E68.51844
G1 X136.92 Y179.287 E68.5547
G1 X136.099 Y179.338 E68.59574
G1 X83.901 Y179.338 E71.19991
G1 X83.176 Y179.298 E71.23613
G1 X82.459 Y179.179 E71.27239
G1 X81.76 Y178.981 E71.30864
G1 X81.087 Y178.708 E71.34487
G1 X80.448 Y178.363 E71.3811
G1 X79.851 Y177.949 E71.41735
G1 X79.234 Y177.405 E71.45839
G1 X79.117 Y177.288 E71.46664
G1 X78.633 Y176.747 E71.50286
G1 X78.21 Y176.156 E71.53912
G1 X77.856 Y175.522 E71.57534
G1 X77.573 Y174.853 E71.61158
G1 X77.365 Y174.157 E71.64782
G1 X77.235 Y173.442 E71.68408
G1 X77.184 Y172.62 E71.72517
G1 X77.186 Y154.911 E72.60867
G1 X77.226 Y154.186 E72.6449
G1 X77.346 Y153.47 E72.68112
G1 X77.543 Y152.771 E72.71735
G1 X77.816 Y152.097 E72.75363
G1 X78.162 Y151.459 E72.78984
G1 X78.575 Y150.861 E72.8261
G1 X79.119 Y150.245 E72.8671
G1 X79.236 Y150.128 E72.87535
G1 X79.777 Y149.644 E72.91157
G1 X80.368 Y149.221 E72.94783
G1 X81.002 Y148.867 E72.98406
G1 X81.671 Y148.584 E73.0203
G1 X82.367 Y148.376 E73.05654
G1 X83.082 Y148.246 E73.09279
G1 X83.903 Y148.195 E73.13383
G1 X92.081 Y148.196 E73.54183
G1 X92.081 Y47.344 E78.57336
G1 X92.121 Y46.619 E78.60959
G1 X92.24 Y45.902 E78.64585
G1 X92.438 Y45.203 E78.68209
G1 X92.711 Y44.53 E78.71833
G0 F7500 X93.11 Y44.623
G1 F1500 X93.455 Y44.009 E78.75346
G1 X93.866 Y43.438 E78.78856
G1 X94.297 Y42.96 E78.82067
G1 X94.414 Y42.843 E78.82893
G1 X94.939 Y42.374 E78.86405
G1 X95.514 Y41.968 E78.89917
G1 X96.132 Y41.63 E78.93431
G1 X96.783 Y41.363 E78.96941
G1 X97.461 Y41.173 E79.00454
G1 X98.156 Y41.06 E79.03967
G1 X98.798 Y41.027 E79.07174
G1 X121.202 Y41.027 E80.18948
G1 X121.905 Y41.067 E80.22461
G1 X122.599 Y41.186 E80.25974
G1 X123.274 Y41.384 E80.29484
G1 X123.923 Y41.656 E80.32994
G1 X124.537 Y42.001 E80.36508
G1 X125.108 Y42.412 E80.40018
G1 X125.629 Y42.886 E80.43532
G1 X126.093 Y43.416 E80.47046
G1 X126.493 Y43.995 E80.50557
G1 X126.825 Y44.616 E80.5407
G1 X127.085 Y45.27 E80.57582
G1 X127.269 Y45.95 E80.61096
G1 X127.375 Y46.646 E80.64609
G1 X127.402 Y47.22 E80.67475
G1 X127.512 Y148.596 E85.73243
G1 X136.098 Y148.596 E86.16078
G1 X136.801 Y148.636 E86.19591
G1 X137.495 Y148.755 E86.23104
G1 X138.17 Y148.953 E86.26614
G1 X138.819 Y149.225 E86.30124
G1 X139.433 Y149.57 E86.33638
G1 X140.004 Y149.981 E86.37148
G1 X140.482 Y150.412 E86.40359
G1 X140.599 Y150.529 E86.41185
G1 X141.068 Y151.054 E86.44697
G1 X141.474 Y151.629 E86.48209
G1 X141.812 Y152.247 E86.51723
G1 X142.079 Y152.898 E86.55233
G1 X142.269 Y153.576 E86.58746
G1 X142.382 Y154.271 E86.62259
G1 X142.415 Y154.923 E86.65516
G1 X142.414 Y155.53 E86.68544
G1 X142.416 Y172.62 E87.53807
G1 X142.376 Y173.323 E87.5732
G1 X142.257 Y174.017 E87.60833
G1 X142.06 Y174.693 E87.64345
G1 X141.787 Y175.342 E87.67858
G1 X141.443 Y175.956 E87.71369
G1 X141.031 Y176.527 E87.74882
G1 X140.6 Y177.005 E87.78093
G1 X140.483 Y177.122 E87.78919
G1 X139.958 Y177.591 E87.82431
G1 X139.383 Y177.997 E87.85943
G1 X138.765 Y178.335 E87.89457
G1 X138.114 Y178.602 E87.92967
G1 X137.436 Y178.792 E87.9648
G1 X136.741 Y178.905 E87.99993
G1 X136.099 Y178.938 E88.032
G1 X83.901 Y178.938 E90.63617
G1 X83.198 Y178.898 E90.6713
G1 X82.504 Y178.779 E90.70643
G1 X81.829 Y178.581 E90.74152
G1 X81.18 Y178.309 E90.77663
G1 X80.566 Y177.964 E90.81177
G1 X79.995 Y177.553 E90.84687
G1 X79.517 Y177.122 E90.87898
G1 X79.4 Y177.005 E90.88723
G1 X78.931 Y176.48 E90.92235
G1 X78.525 Y175.905 E90.95747
G1 X78.187 Y175.287 E90.99261
G1 X77.92 Y174.636 E91.02772
G1 X77.73 Y173.958 E91.06285
G1 X77.617 Y173.263 E91.09798
G1 X77.584 Y172.62 E91.1301
G1 X77.586 Y154.911 E92.0136
G1 X77.626 Y154.208 E92.04873
G1 X77.746 Y153.515 E92.08382
G1 X77.943 Y152.839 E92.11895
G1 X78.216 Y152.19 E92.15408
G1 X78.56 Y151.576 E92.18919
G1 X78.972 Y151.005 E92.22432
G1 X79.402 Y150.528 E92.25636
G1 X79.519 Y150.411 E92.26461
G1 X80.044 Y149.942 E92.29973
G1 X80.619 Y149.536 E92.33485
G1 X81.237 Y149.198 E92.36999
G1 X81.888 Y148.931 E92.4051
G1 X82.566 Y148.741 E92.44023
G1 X83.261 Y148.628 E92.47536
G1 X83.903 Y148.595 E92.50743
G1 X92.481 Y148.596 E92.93539
G1 X92.481 Y47.344 E97.98687
G1 X92.521 Y46.641 E98.022
G1 X92.64 Y45.947 E98.05713
G1 X92.838 Y45.272 E98.09222
G1 X93.11 Y44.623 E98.12733
G0 F7500 X93.237 Y45.342
G1 F1500 X93.509 Y44.718 E98.16129
G1 X93.853 Y44.13 E98.19528
G1 X94.263 Y43.586 E98.22926
G1 X94.58 Y43.243 E98.25256
G1 X94.697 Y43.126 E98.26082
G1 X95.206 Y42.673 E98.29481
G1 X95.764 Y42.284 E98.32875
G1 X96.364 Y41.962 E98.36272
G1 X96.998 Y41.713 E98.3967
G1 X97.657 Y41.54 E98.4307
