;FLAVOR:Marlin
;TIME:15265
;Filament used: 21.1273m
;Layer height: 0.4
;MINX:15.998
;MINY:15.998
;MINZ:0.3
;MAXX:203.911
;MAXY:203.911
;MAXZ:18.7
;Generated with Cura_SteamEngine 4.5.0
M140 S60
M105
M190 S60
M104 S200
M105
M109 S200
M82 ;absolute extrusion mode
G28 ;Home
G29 ;ABL
G1 Z15.0 F2000 ;Move the platform
G92 E0
G92 E0
G1 F1500 E-6.5
;LAYER_COUNT:47
;LAYER:0
M107
M204 S1000
G0 F7500 X66.655 Y53.149 Z0.3
;TYPE:SKIRT
G1 F1500 E0
G1 X67.06 Y52.712 E0.02973
G1 X69.373 Y50.399 E0.19292
G1 X69.959 Y49.869 E0.23234
G1 X70.595 Y49.402 E0.2717
G1 X71.275 Y49.001 E0.31109
G1 X71.993 Y48.671 E0.35051
G1 X72.74 Y48.416 E0.38989
G1 X73.509 Y48.237 E0.42928
G1 X74.293 Y48.137 E0.46871
G1 X74.888 Y48.114 E0.49842
G1 X75.054 Y48.114 E0.5067
G1 X75.843 Y48.154 E0.54612
G1 X76.623 Y48.273 E0.58548
G1 X77.388 Y48.471 E0.62491
G1 X78.128 Y48.745 E0.66427
G1 X78.837 Y49.093 E0.70368
G1 X79.508 Y49.511 E0.74312
G1 X80.132 Y49.994 E0.78249
G1 X80.57 Y50.399 E0.81225
G1 X106.501 Y76.331 E2.64185
G1 X164.547 Y18.283 E6.73738
G1 X165.133 Y17.753 E6.7768
G1 X165.77 Y17.286 E6.81621
G1 X166.45 Y16.885 E6.85559
G1 X167.168 Y16.555 E6.89502
G1 X167.915 Y16.3 E6.9344
G1 X168.684 Y16.121 E6.97379
G1 X169.467 Y16.021 E7.01317
G1 X170.063 Y15.998 E7.04293
G1 X170.229 Y15.998 E7.05121
G1 X171.018 Y16.038 E7.09062
G1 X171.798 Y16.157 E7.12999
G1 X172.563 Y16.355 E7.16941
G1 X173.303 Y16.629 E7.20878
G1 X174.012 Y16.977 E7.24818
G1 X174.683 Y17.395 E7.28762
G1 X175.307 Y17.878 E7.32699
G1 X175.744 Y18.283 E7.35672
G1 X179.428 Y21.967 E7.61664
G1 X179.958 Y22.553 E7.65606
G1 X180.425 Y23.189 E7.69543
G1 X180.826 Y23.869 E7.73481
G1 X181.156 Y24.587 E7.77424
G1 X181.411 Y25.334 E7.81361
G1 X181.59 Y26.103 E7.85301
G1 X181.69 Y26.887 E7.89244
G1 X181.713 Y27.482 E7.92214
G1 X181.713 Y27.648 E7.93043
G1 X181.673 Y28.437 E7.96984
G1 X181.554 Y29.217 E8.0092
G1 X181.356 Y29.982 E8.04863
G1 X181.082 Y30.722 E8.088
G1 X180.734 Y31.431 E8.1274
G1 X180.316 Y32.102 E8.16684
G1 X179.833 Y32.726 E8.20621
G1 X179.428 Y33.164 E8.23597
G1 X153.398 Y59.194 E10.07253
G1 X158.565 Y64.361 E10.43709
G1 X184.594 Y38.331 E12.27361
G1 X185.18 Y37.801 E12.31303
G1 X185.817 Y37.334 E12.35243
G1 X186.497 Y36.933 E12.39182
G1 X187.215 Y36.603 E12.43124
G1 X187.962 Y36.348 E12.47062
G1 X188.731 Y36.169 E12.51001
G1 X189.514 Y36.069 E12.54939
G1 X190.11 Y36.046 E12.57915
G1 X190.276 Y36.046 E12.58743
G1 X191.065 Y36.086 E12.62685
G1 X191.845 Y36.205 E12.66621
G1 X192.61 Y36.403 E12.70563
G1 X193.35 Y36.677 E12.745
G1 X194.059 Y37.025 E12.78441
G1 X194.73 Y37.443 E12.82385
G1 X195.354 Y37.926 E12.86321
G1 X195.791 Y38.331 E12.89294
G1 X198.863 Y41.403 E13.10969
G1 X199.393 Y41.989 E13.14911
G1 X199.86 Y42.625 E13.18847
G1 X200.261 Y43.305 E13.22786
G1 X200.591 Y44.023 E13.26728
G1 X200.846 Y44.77 E13.30666
G1 X201.025 Y45.539 E13.34605
G1 X201.125 Y46.323 E13.38548
G1 X201.148 Y46.918 E13.41519
G1 X201.148 Y47.084 E13.42347
G1 X201.108 Y47.873 E13.46288
G1 X200.989 Y48.653 E13.50225
G1 X200.791 Y49.418 E13.54167
G1 X200.517 Y50.158 E13.58104
G1 X200.169 Y50.867 E13.62044
G1 X199.751 Y51.538 E13.65988
G1 X199.268 Y52.162 E13.69925
G1 X198.863 Y52.6 E13.72901
G1 X172.834 Y78.628 E15.56546
G1 X201.626 Y107.419 E17.59686
G1 X202.156 Y108.005 E17.63628
G1 X202.623 Y108.642 E17.67569
G1 X203.024 Y109.322 E17.71507
G1 X203.354 Y110.04 E17.75449
G1 X203.609 Y110.787 E17.79387
G1 X203.788 Y111.556 E17.83326
G1 X203.888 Y112.34 E17.8727
G1 X203.911 Y112.935 E17.9024
G1 X203.911 Y113.101 E17.91068
G1 X203.871 Y113.89 E17.9501
G1 X203.752 Y114.67 E17.98946
G1 X203.554 Y115.435 E18.02889
G1 X203.28 Y116.175 E18.06825
G1 X202.932 Y116.884 E18.10766
G1 X202.514 Y117.555 E18.1471
G1 X202.031 Y118.179 E18.18647
G1 X201.626 Y118.616 E18.21619
G1 X118.616 Y201.626 E24.073
G1 X118.03 Y202.156 E24.11241
G1 X117.394 Y202.623 E24.15178
G1 X116.714 Y203.024 E24.19117
G1 X115.996 Y203.354 E24.23059
G1 X115.249 Y203.609 E24.26997
G1 X114.48 Y203.788 E24.30936
G1 X113.696 Y203.888 E24.34879
G1 X113.101 Y203.911 E24.3785
G1 X112.935 Y203.911 E24.38678
G1 X112.146 Y203.871 E24.42619
G1 X111.366 Y203.752 E24.46556
G1 X110.601 Y203.554 E24.50498
G1 X109.861 Y203.28 E24.54435
G1 X109.152 Y202.932 E24.58375
G1 X108.481 Y202.514 E24.62319
G1 X107.857 Y202.031 E24.66256
G1 X107.419 Y201.626 E24.69232
G1 X78.628 Y172.834 E26.72372
G1 X52.6 Y198.863 E28.56017
G1 X52.014 Y199.393 E28.59959
G1 X51.377 Y199.86 E28.639
G1 X50.697 Y200.261 E28.67838
G1 X49.979 Y200.591 E28.7178
G1 X49.232 Y200.846 E28.75718
G1 X48.463 Y201.025 E28.79657
G1 X47.68 Y201.125 E28.83596
G1 X47.084 Y201.148 E28.86571
G1 X46.918 Y201.148 E28.87399
G1 X46.129 Y201.108 E28.91341
G1 X45.349 Y200.989 E28.95277
G1 X44.584 Y200.791 E28.9922
G1 X43.844 Y200.517 E29.03156
G1 X43.135 Y200.169 E29.07097
G1 X42.464 Y199.751 E29.11041
G1 X41.84 Y199.268 E29.14978
G1 X41.403 Y198.863 E29.1795
G1 X38.331 Y195.791 E29.39625
G1 X37.801 Y195.205 E29.43567
G1 X37.334 Y194.569 E29.47503
G1 X36.933 Y193.889 E29.51442
G1 X36.603 Y193.171 E29.55384
G1 X36.348 Y192.424 E29.59322
G1 X36.169 Y191.655 E29.63261
G1 X36.069 Y190.871 E29.67204
G1 X36.046 Y190.276 E29.70175
G1 X36.046 Y190.11 E29.71003
G1 X36.086 Y189.321 E29.74945
G1 X36.205 Y188.541 E29.78881
G1 X36.403 Y187.776 E29.82823
G1 X36.677 Y187.036 E29.8676
G1 X37.025 Y186.327 E29.90701
G1 X37.443 Y185.656 E29.94645
G1 X37.926 Y185.032 E29.98581
G1 X38.331 Y184.594 E30.01558
G1 X64.361 Y158.565 E31.8521
G1 X59.194 Y153.398 E32.21666
G1 X33.164 Y179.428 E34.05321
G1 X32.578 Y179.958 E34.09263
G1 X31.941 Y180.425 E34.13204
G1 X31.261 Y180.826 E34.17142
G1 X30.543 Y181.156 E34.21085
G1 X29.796 Y181.411 E34.25023
G1 X29.027 Y181.59 E34.28962
G1 X28.244 Y181.69 E34.329
G1 X27.648 Y181.713 E34.35876
G1 X27.482 Y181.713 E34.36704
G1 X26.693 Y181.673 E34.40645
G1 X25.913 Y181.554 E34.44582
G1 X25.148 Y181.356 E34.48524
G1 X24.408 Y181.082 E34.52461
G1 X23.699 Y180.734 E34.56401
G1 X23.028 Y180.316 E34.60345
G1 X22.404 Y179.833 E34.64282
G1 X21.967 Y179.428 E34.67255
G1 X18.283 Y175.744 E34.93247
G1 X17.753 Y175.158 E34.97189
G1 X17.286 Y174.522 E35.01126
G1 X16.885 Y173.842 E35.05064
G1 X16.555 Y173.124 E35.09007
G1 X16.3 Y172.377 E35.12944
G1 X16.121 Y171.608 E35.16884
G1 X16.021 Y170.824 E35.20827
G1 X15.998 Y170.229 E35.23797
G1 X15.998 Y170.063 E35.24626
G1 X16.038 Y169.274 E35.28567
G1 X16.157 Y168.494 E35.32503
G1 X16.355 Y167.729 E35.36446
G1 X16.629 Y166.989 E35.40383
G1 X16.977 Y166.28 E35.44323
G1 X17.395 Y165.609 E35.48267
G1 X17.878 Y164.985 E35.52204
G1 X18.283 Y164.547 E35.5518
G1 X75.095 Y107.737 E39.56012
G1 X49.155 Y81.799 E41.39026
G1 X48.625 Y81.213 E41.42968
G1 X48.158 Y80.576 E41.46908
G1 X47.757 Y79.896 E41.50847
G1 X47.427 Y79.178 E41.54789
G1 X47.172 Y78.431 E41.58727
G1 X46.993 Y77.662 E41.62666
G1 X46.893 Y76.879 E41.66604
G1 X46.87 Y76.283 E41.6958
G1 X46.87 Y76.117 E41.70408
G1 X46.91 Y75.328 E41.7435
G1 X47.029 Y74.548 E41.78286
G1 X47.227 Y73.783 E41.82229
G1 X47.501 Y73.043 E41.86165
G1 X47.849 Y72.334 E41.90106
G1 X48.267 Y71.663 E41.9405
G1 X48.75 Y71.039 E41.97987
G1 X49.156 Y70.6 E42.0097
G1 X51.562 Y68.195 E42.17942
G1 X52.148 Y67.666 E42.2188
G1 X52.784 Y67.199 E42.25817
G1 X53.465 Y66.798 E42.2976
G1 X54.182 Y66.469 E42.33696
G1 X54.93 Y66.213 E42.3764
G1 X55.699 Y66.035 E42.41578
G1 X56.482 Y65.935 E42.45516
G1 X57.076 Y65.912 E42.48482
G1 X57.242 Y65.912 E42.4931
G1 X58.031 Y65.952 E42.53251
G1 X58.811 Y66.071 E42.57188
G1 X59.576 Y66.269 E42.6113
G1 X60.316 Y66.543 E42.65067
G1 X61.025 Y66.891 E42.69007
G1 X61.696 Y67.309 E42.72951
G1 X62.32 Y67.792 E42.76888
G1 X62.758 Y68.197 E42.79864
G1 X88.696 Y94.136 E44.62874
G1 X92.992 Y89.84 E44.93185
G1 X67.06 Y63.908 E46.76149
G1 X66.53 Y63.322 E46.80091
G1 X66.063 Y62.686 E46.84028
G1 X65.662 Y62.006 E46.87966
G1 X65.332 Y61.288 E46.91909
G1 X65.077 Y60.541 E46.95846
G1 X64.898 Y59.772 E46.99786
G1 X64.798 Y58.988 E47.03729
G1 X64.775 Y58.393 E47.06699
G1 X64.775 Y58.227 E47.07528
G1 X64.815 Y57.438 E47.11469
G1 X64.934 Y56.658 E47.15405
G1 X65.132 Y55.893 E47.19348
G1 X65.406 Y55.153 E47.23285
G1 X65.754 Y54.444 E47.27225
G1 X66.172 Y53.773 E47.31169
G1 X66.655 Y53.149 E47.35106
G0 F7500 X67.05 Y53.304
G1 F1500 X67.342 Y52.994 E47.3723
G1 X69.655 Y50.681 E47.5355
G1 X70.227 Y50.167 E47.57387
G1 X70.849 Y49.714 E47.61225
G1 X71.514 Y49.328 E47.65062
G1 X72.216 Y49.013 E47.689
G1 X72.947 Y48.773 E47.72739
G1 X73.698 Y48.61 E47.76573
G1 X74.463 Y48.526 E47.80412
G1 X75.054 Y48.514 E47.83361
G1 X75.822 Y48.554 E47.87198
G1 X76.582 Y48.673 E47.91036
G1 X77.325 Y48.871 E47.94872
G1 X78.044 Y49.145 E47.98711
G1 X78.73 Y49.492 E48.02546
G1 X79.377 Y49.908 E48.06384
G1 X79.977 Y50.389 E48.10221
G1 X80.287 Y50.681 E48.12345
G1 X106.501 Y76.896 E49.97303
G1 X164.83 Y18.565 E54.08852
G1 X165.402 Y18.051 E54.12689
G1 X166.023 Y17.598 E54.16524
G1 X166.689 Y17.212 E54.20364
G1 X167.391 Y16.897 E54.24203
G1 X168.121 Y16.657 E54.28037
G1 X168.873 Y16.494 E54.31876
G1 X169.638 Y16.41 E54.35715
G1 X170.229 Y16.398 E54.38664
G1 X170.997 Y16.438 E54.42501
G1 X171.757 Y16.557 E54.46339
G1 X172.5 Y16.755 E54.50175
G1 X173.219 Y17.029 E54.54014
G1 X173.905 Y17.376 E54.57849
G1 X174.552 Y17.792 E54.61687
G1 X175.152 Y18.273 E54.65523
G1 X175.462 Y18.565 E54.67648
G1 X179.146 Y22.249 E54.93641
G1 X179.66 Y22.821 E54.97477
G1 X180.113 Y23.443 E55.01316
G1 X180.499 Y24.108 E55.05152
G1 X180.814 Y24.81 E55.08991
G1 X181.054 Y25.541 E55.12829
G1 X181.217 Y26.292 E55.16663
G1 X181.301 Y27.057 E55.20503
G1 X181.313 Y27.648 E55.23452
G1 X181.273 Y28.416 E55.27289
G1 X181.154 Y29.176 E55.31127
G1 X180.956 Y29.919 E55.34963
G1 X180.682 Y30.638 E55.38802
G1 X180.335 Y31.324 E55.42637
G1 X179.919 Y31.971 E55.46475
G1 X179.438 Y32.571 E55.50311
G1 X179.146 Y32.881 E55.52436
G1 X152.833 Y59.193 E57.38085
G1 X158.566 Y64.926 E57.78534
G1 X184.877 Y38.614 E59.64176
G1 X185.449 Y38.099 E59.68016
G1 X186.07 Y37.646 E59.71851
G1 X186.736 Y37.26 E59.75691
G1 X187.438 Y36.945 E59.7953
G1 X188.168 Y36.705 E59.83364
G1 X188.92 Y36.542 E59.87203
G1 X189.685 Y36.458 E59.91042
G1 X190.276 Y36.446 E59.93991
G1 X191.044 Y36.486 E59.97828
G1 X191.804 Y36.605 E60.01666
G1 X192.547 Y36.803 E60.05502
G1 X193.266 Y37.077 E60.09341
G1 X193.952 Y37.424 E60.13176
G1 X194.599 Y37.84 E60.17014
G1 X195.199 Y38.321 E60.2085
G1 X195.509 Y38.613 E60.22975
G1 X198.581 Y41.685 E60.4465
G1 X199.095 Y42.257 E60.48486
G1 X199.548 Y42.879 E60.52325
G1 X199.934 Y43.544 E60.56161
G1 X200.249 Y44.246 E60.6
G1 X200.489 Y44.977 E60.63839
G1 X200.652 Y45.728 E60.67672
G1 X200.736 Y46.493 E60.71512
G1 X200.748 Y47.084 E60.74461
G1 X200.708 Y47.852 E60.78298
G1 X200.589 Y48.612 E60.82136
G1 X200.391 Y49.355 E60.85972
G1 X200.117 Y50.074 E60.89811
G1 X199.77 Y50.76 E60.93646
G1 X199.354 Y51.407 E60.97484
G1 X198.873 Y52.007 E61.0132
G1 X198.581 Y52.317 E61.03445
G1 X172.269 Y78.628 E62.89087
G1 X201.344 Y107.702 E64.94223
G1 X201.858 Y108.274 E64.9806
G1 X202.311 Y108.895 E65.01895
G1 X202.697 Y109.561 E65.05735
G1 X203.012 Y110.263 E65.09574
G1 X203.252 Y110.993 E65.13407
G1 X203.415 Y111.745 E65.17246
G1 X203.499 Y112.51 E65.21086
G1 X203.511 Y113.101 E65.24035
G1 X203.471 Y113.869 E65.27872
G1 X203.352 Y114.629 E65.3171
G1 X203.154 Y115.372 E65.35546
G1 X202.88 Y116.091 E65.39385
G1 X202.533 Y116.777 E65.4322
G1 X202.117 Y117.424 E65.47057
G1 X201.636 Y118.024 E65.50894
G1 X201.344 Y118.334 E65.53019
G1 X118.334 Y201.344 E71.38699
G1 X117.762 Y201.858 E71.42536
G1 X117.14 Y202.311 E71.46375
G1 X116.475 Y202.697 E71.50211
G1 X115.773 Y203.012 E71.54049
G1 X115.042 Y203.252 E71.57888
G1 X114.291 Y203.415 E71.61722
G1 X113.526 Y203.499 E71.65562
G1 X112.935 Y203.511 E71.68511
G1 X112.167 Y203.471 E71.72347
G1 X111.407 Y203.352 E71.76185
G1 X110.664 Y203.154 E71.80021
G1 X109.945 Y202.88 E71.8386
G1 X109.259 Y202.533 E71.87696
G1 X108.612 Y202.117 E71.91533
G1 X108.012 Y201.636 E71.9537
G1 X107.702 Y201.344 E71.97494
G1 X78.628 Y172.269 E74.02631
G1 X52.317 Y198.581 E75.88273
G1 X51.745 Y199.095 E75.92109
G1 X51.124 Y199.548 E75.95944
G1 X50.458 Y199.934 E75.99784
G1 X49.756 Y200.249 E76.03623
G1 X49.026 Y200.489 E76.07457
G1 X48.274 Y200.652 E76.11296
G1 X47.509 Y200.736 E76.15135
G1 X46.918 Y200.748 E76.18084
G1 X46.15 Y200.708 E76.21921
G1 X45.39 Y200.589 E76.25759
G1 X44.647 Y200.391 E76.29595
G1 X43.928 Y200.117 E76.33434
G1 X43.242 Y199.77 E76.37269
G1 X42.595 Y199.354 E76.41107
G1 X41.995 Y198.873 E76.44944
G1 X41.685 Y198.581 E76.47068
G1 X38.613 Y195.509 E76.68743
G1 X38.099 Y194.937 E76.72579
G1 X37.646 Y194.315 E76.76418
G1 X37.26 Y193.65 E76.80254
G1 X36.945 Y192.948 E76.84093
G1 X36.705 Y192.217 E76.87932
G1 X36.542 Y191.466 E76.91766
G1 X36.458 Y190.701 E76.95605
G1 X36.446 Y190.11 E76.98554
G1 X36.486 Y189.342 E77.02391
G1 X36.605 Y188.582 E77.06229
G1 X36.803 Y187.839 E77.10065
G1 X37.077 Y187.12 E77.13904
G1 X37.424 Y186.434 E77.17739
G1 X37.84 Y185.787 E77.21577
G1 X38.321 Y185.187 E77.25413
G1 X38.614 Y184.877 E77.27541
G1 X64.926 Y158.566 E79.13183
G1 X59.193 Y152.833 E79.53633
G1 X32.881 Y179.146 E81.39282
G1 X32.309 Y179.66 E81.43118
G1 X31.688 Y180.113 E81.46953
G1 X31.022 Y180.499 E81.50794
G1 X30.32 Y180.814 E81.54632
G1 X29.59 Y181.054 E81.58466
G1 X28.838 Y181.217 E81.62305
G1 X28.073 Y181.301 E81.66144
G1 X27.482 Y181.313 E81.69094
G1 X26.714 Y181.273 E81.7293
G1 X25.954 Y181.154 E81.76768
G1 X25.211 Y180.956 E81.80604
G1 X24.492 Y180.682 E81.84443
G1 X23.806 Y180.335 E81.88279
G1 X23.159 Y179.919 E81.92116
G1 X22.559 Y179.438 E81.95953
G1 X22.249 Y179.146 E81.98077
G1 X18.565 Y175.462 E82.2407
G1 X18.051 Y174.89 E82.27907
G1 X17.598 Y174.268 E82.31745
G1 X17.212 Y173.603 E82.35582
G1 X16.897 Y172.901 E82.3942
G1 X16.657 Y172.17 E82.43259
G1 X16.494 Y171.419 E82.47093
G1 X16.41 Y170.654 E82.50932
G1 X16.398 Y170.063 E82.53881
G1 X16.438 Y169.295 E82.57718
G1 X16.557 Y168.535 E82.61556
G1 X16.755 Y167.792 E82.65392
G1 X17.029 Y167.073 E82.69231
G1 X17.376 Y166.387 E82.73066
G1 X17.792 Y165.74 E82.76904
G1 X18.273 Y165.14 E82.80741
G1 X18.565 Y164.83 E82.82865
G1 X75.66 Y107.737 E86.85694
G1 X49.438 Y81.516 E88.70701
G1 X48.923 Y80.944 E88.74541
G1 X48.47 Y80.323 E88.78376
G1 X48.084 Y79.657 E88.82216
G1 X47.769 Y78.955 E88.86055
G1 X47.529 Y78.225 E88.89889
G1 X47.366 Y77.473 E88.93728
G1 X47.282 Y76.708 E88.97567
G1 X47.27 Y76.117 E89.00516
G1 X47.31 Y75.349 E89.04353
G1 X47.429 Y74.589 E89.08191
G1 X47.627 Y73.846 E89.12027
G1 X47.901 Y73.127 E89.15866
G1 X48.248 Y72.441 E89.19701
G1 X48.664 Y71.794 E89.23539
G1 X49.145 Y71.194 E89.27375
G1 X49.438 Y70.883 E89.29507
G1 X51.844 Y68.478 E89.46479
G1 X52.416 Y67.964 E89.50316
G1 X53.038 Y67.511 E89.54155
G1 X53.703 Y67.125 E89.57991
G1 X54.405 Y66.811 E89.61828
G1 X55.136 Y66.571 E89.65666
G1 X55.888 Y66.408 E89.69505
G1 X56.652 Y66.324 E89.7334
G1 X57.242 Y66.312 E89.76284
G1 X58.01 Y66.352 E89.8012
G1 X58.77 Y66.471 E89.83958
G1 X59.513 Y66.669 E89.87794
G1 X60.232 Y66.943 E89.91633
G1 X60.918 Y67.29 E89.95469
G1 X61.565 Y67.706 E89.99306
G1 X62.165 Y68.187 E90.03143
G1 X62.475 Y68.48 E90.05271
G1 X88.695 Y94.701 E91.90271
G1 X93.556 Y89.84 E92.24568
G1 X67.342 Y63.626 E94.09522
G1 X66.828 Y63.054 E94.13358
G1 X66.375 Y62.432 E94.17197
G1 X65.989 Y61.767 E94.21033
G1 X65.674 Y61.065 E94.24872
G1 X65.434 Y60.334 E94.2871
G1 X65.271 Y59.583 E94.32544
G1 X65.187 Y58.818 E94.36384
G1 X65.175 Y58.227 E94.39333
G1 X65.215 Y57.459 E94.4317
G1 X65.334 Y56.699 E94.47008
G1 X65.532 Y55.956 E94.50844
G1 X65.806 Y55.237 E94.54683
G1 X66.153 Y54.551 E94.58518
G1 X66.569 Y53.904 E94.62356
G1 X67.05 Y53.304 E94.66192
G0 F7500 X66.967 Y54.038
G1 F1500 X67.625 Y53.277 E94.71211
G1 X69.938 Y50.964 E94.87531
G1 X70.495 Y50.464 E94.91265
G1 X71.101 Y50.027 E94.94992
G1 X71.751 Y49.656 E94.98726
G1 X72.437 Y49.357 E95.0246
G1 X73.151 Y49.133 E95.06193
G1 X73.884 Y48.986 E95.09923
G1 X74.888 Y48.914 E95.14945
G1 X75.054 Y48.914 E95.15773
G1 X75.801 Y48.954 E95.19505
G1 X76.539 Y49.073 E95.23234
G1 X77.261 Y49.271 E95.26969
G1 X77.957 Y49.544 E95.30699
G1 X78.62 Y49.891 E95.34433
G1 X79.243 Y50.306 E95.38167
