;FLAVOR:Marlin
;TIME:6255
;Filament used: 6.3388m
;Layer height: 0.28
;MINX:83.484
;MINY:46.927
;MINZ:0.28
;MAXX:151.516
;MAXY:188.038
;MAXZ:11.76
;Generated with Cura_SteamEngine 4.5.0
M140 S50
M105
M190 S50
M104 S200
M105
M109 S200
M82 ;absolute extrusion mode
; Ender 3 Custom Start G-code
G92 E0 ; Reset Extruder
G28 ; Home all axes
G1 Z2.0 F3000 ; Move Z Axis up little to prevent scratching of Heat Bed
G1 X0.1 Y20 Z0.3 F5000.0 ; Move to start position
G1 X0.1 Y200.0 Z0.3 F1500.0 E15 ; Draw the first line
G1 X0.4 Y200.0 Z0.3 F5000.0 ; Move to side a little
G1 X0.4 Y20 Z0.3 F1500.0 E30 ; Draw the second line
G92 E0 ; Reset Extruder
G1 Z2.0 F3000 ; Move Z Axis up little to prevent scratching of Heat Bed
G1 X5 Y20 Z0.3 F5000.0 ; Move over to prevent blob squish
G92 E0
G92 E0
G1 F2700 E-5
;LAYER_COUNT:42
;LAYER:0
M107
G0 F6000 X99.36 Y51.061 Z0.28
;TYPE:SKIRT
G1 F2700 E0
G1 F1200 X99.778 Y50.39 E0.03681
G1 X100.261 Y49.766 E0.07355
G1 X100.666 Y49.329 E0.1013
G1 X100.783 Y49.212 E0.109
G1 X101.369 Y48.682 E0.14579
G1 X102.005 Y48.215 E0.18254
G1 X102.685 Y47.814 E0.21929
G1 X103.403 Y47.484 E0.25609
G1 X104.15 Y47.229 E0.29284
G1 X104.919 Y47.05 E0.32961
G1 X105.703 Y46.95 E0.36641
G1 X106.298 Y46.927 E0.39414
G1 X128.702 Y46.927 E1.43736
G1 X129.491 Y46.967 E1.47415
G1 X130.271 Y47.086 E1.51089
G1 X131.036 Y47.284 E1.54768
G1 X131.776 Y47.558 E1.58443
G1 X132.485 Y47.906 E1.6212
G1 X133.156 Y48.324 E1.65802
G1 X133.78 Y48.807 E1.69476
G1 X134.353 Y49.35 E1.73152
G1 X134.868 Y49.949 E1.7683
G1 X135.319 Y50.597 E1.80506
G1 X135.703 Y51.288 E1.84187
G1 X136.015 Y52.013 E1.87863
G1 X136.252 Y52.766 E1.91538
G1 X136.411 Y53.54 E1.95218
G1 X136.502 Y54.719 E2.00724
G1 X136.611 Y154.496 E6.65328
G1 X143.598 Y154.496 E6.97862
G1 X144.387 Y154.536 E7.01541
G1 X145.167 Y154.655 E7.05215
G1 X145.932 Y154.853 E7.08894
G1 X146.672 Y155.127 E7.12569
G1 X147.381 Y155.475 E7.16246
G1 X148.052 Y155.893 E7.19928
G1 X148.676 Y156.376 E7.23602
G1 X149.113 Y156.781 E7.26376
G1 X149.23 Y156.898 E7.27147
G1 X149.76 Y157.484 E7.30826
G1 X150.227 Y158.12 E7.345
G1 X150.628 Y158.8 E7.38176
G1 X150.958 Y159.518 E7.41855
G1 X151.213 Y160.265 E7.45531
G1 X151.392 Y161.034 E7.49207
G1 X151.492 Y161.818 E7.52888
G1 X151.515 Y162.427 E7.55725
G1 X151.514 Y162.985 E7.58324
G1 X151.516 Y180.12 E8.38111
G1 X151.476 Y180.909 E8.4179
G1 X151.357 Y181.689 E8.45464
G1 X151.159 Y182.454 E8.49144
G1 X150.885 Y183.195 E8.52822
G1 X150.537 Y183.904 E8.565
G1 X150.12 Y184.574 E8.60175
G1 X149.637 Y185.199 E8.63853
G1 X149.231 Y185.636 E8.6663
G1 X149.114 Y185.753 E8.67401
G1 X148.528 Y186.283 E8.7108
G1 X147.892 Y186.75 E8.74754
G1 X147.212 Y187.151 E8.7843
G1 X146.494 Y187.481 E8.82109
G1 X145.747 Y187.736 E8.85785
G1 X144.978 Y187.915 E8.89461
G1 X144.194 Y188.015 E8.93141
G1 X143.599 Y188.038 E8.95914
G1 X91.401 Y188.038 E11.3897
G1 X90.612 Y187.998 E11.42649
G1 X89.832 Y187.879 E11.46323
G1 X89.067 Y187.681 E11.50002
G1 X88.327 Y187.407 E11.53676
G1 X87.618 Y187.059 E11.57354
G1 X86.947 Y186.641 E11.61035
G1 X86.323 Y186.158 E11.6471
G1 X85.886 Y185.753 E11.67484
G1 X85.769 Y185.636 E11.68254
G1 X85.239 Y185.05 E11.71934
G1 X84.772 Y184.414 E11.75608
G1 X84.371 Y183.734 E11.79284
G1 X84.041 Y183.016 E11.82963
G1 X83.786 Y182.269 E11.86639
G1 X83.607 Y181.5 E11.90315
G1 X83.507 Y180.716 E11.93995
G1 X83.484 Y180.12 E11.96773
G1 X83.486 Y162.411 E12.79233
G1 X83.526 Y161.622 E12.82912
G1 X83.646 Y160.842 E12.86586
G1 X83.844 Y160.077 E12.90266
G1 X84.118 Y159.337 E12.9394
G1 X84.465 Y158.628 E12.97616
G1 X84.883 Y157.958 E13.01293
G1 X85.366 Y157.333 E13.04971
G1 X85.771 Y156.897 E13.07742
G1 X85.888 Y156.78 E13.08513
G1 X86.474 Y156.25 E13.12192
G1 X87.11 Y155.783 E13.15866
G1 X87.79 Y155.382 E13.19542
G1 X88.508 Y155.052 E13.23221
G1 X89.255 Y154.797 E13.26897
G1 X90.024 Y154.618 E13.30573
G1 X90.808 Y154.518 E13.34253
G1 X91.404 Y154.495 E13.37031
G1 X98.381 Y154.495 E13.69518
G1 X98.381 Y54.844 E18.33535
G1 X98.421 Y54.055 E18.37214
G1 X98.54 Y53.275 E18.40888
G1 X98.738 Y52.51 E18.44568
G1 X99.012 Y51.77 E18.48242
G1 X99.36 Y51.061 E18.5192
G0 F6000 X99.759 Y51.168
G1 F1200 X100.175 Y50.521 E18.55501
G1 X100.656 Y49.921 E18.59082
G1 X101.065 Y49.494 E18.61835
G1 X101.637 Y48.98 E18.65416
G1 X102.259 Y48.527 E18.68999
G1 X102.924 Y48.141 E18.72579
G1 X103.626 Y47.826 E18.76162
G1 X104.357 Y47.586 E18.79745
G1 X105.108 Y47.423 E18.83323
G1 X105.873 Y47.339 E18.86907
G1 X106.298 Y47.327 E18.88887
G1 X128.702 Y47.327 E19.93209
G1 X129.47 Y47.367 E19.9679
G1 X130.23 Y47.486 E20.00372
G1 X130.973 Y47.684 E20.03952
G1 X131.692 Y47.958 E20.07535
G1 X132.378 Y48.305 E20.11115
G1 X133.025 Y48.721 E20.14697
G1 X133.625 Y49.202 E20.18277
G1 X134.172 Y49.743 E20.2186
G1 X134.66 Y50.338 E20.25443
G1 X135.083 Y50.98 E20.29023
G1 X135.438 Y51.663 E20.32607
G1 X135.719 Y52.378 E20.36185
G1 X135.925 Y53.12 E20.3977
G1 X136.053 Y53.878 E20.4335
G1 X136.102 Y54.719 E20.47273
G1 X136.211 Y154.896 E25.13739
G1 X143.598 Y154.896 E25.48136
G1 X144.366 Y154.936 E25.51717
G1 X145.126 Y155.055 E25.55299
G1 X145.869 Y155.253 E25.58879
G1 X146.588 Y155.527 E25.62462
G1 X147.274 Y155.874 E25.66042
G1 X147.921 Y156.29 E25.69624
G1 X148.521 Y156.771 E25.73204
G1 X148.948 Y157.18 E25.75958
G1 X149.462 Y157.752 E25.79538
G1 X149.915 Y158.374 E25.83121
G1 X150.301 Y159.039 E25.86702
G1 X150.616 Y159.741 E25.90285
G1 X150.856 Y160.472 E25.93867
G1 X151.019 Y161.223 E25.97446
G1 X151.103 Y161.988 E26.01029
G1 X151.115 Y162.426 E26.03069
G1 X151.114 Y162.984 E26.05668
G1 X151.116 Y180.12 E26.8546
G1 X151.076 Y180.888 E26.89041
G1 X150.957 Y181.648 E26.92623
G1 X150.759 Y182.391 E26.96204
G1 X150.485 Y183.11 E26.99786
G1 X150.139 Y183.797 E27.03368
G1 X149.722 Y184.444 E27.06952
G1 X149.241 Y185.044 E27.10533
G1 X148.832 Y185.471 E27.13286
G1 X148.26 Y185.985 E27.16867
G1 X147.638 Y186.438 E27.2045
G1 X146.973 Y186.824 E27.24031
G1 X146.271 Y187.139 E27.27613
G1 X145.54 Y187.379 E27.31196
G1 X144.789 Y187.542 E27.34774
G1 X144.024 Y187.626 E27.38358
G1 X143.599 Y187.638 E27.40338
G1 X91.401 Y187.638 E29.83393
G1 X90.633 Y187.598 E29.86974
G1 X89.873 Y187.479 E29.90556
G1 X89.13 Y187.281 E29.94137
G1 X88.411 Y187.007 E29.9772
G1 X87.725 Y186.66 E30.01299
G1 X87.078 Y186.244 E30.04881
G1 X86.478 Y185.763 E30.08462
G1 X86.051 Y185.354 E30.11215
G1 X85.537 Y184.782 E30.14796
G1 X85.084 Y184.16 E30.18379
G1 X84.698 Y183.495 E30.21959
G1 X84.383 Y182.793 E30.25542
G1 X84.143 Y182.062 E30.29125
G1 X83.98 Y181.311 E30.32703
G1 X83.896 Y180.546 E30.36287
G1 X83.884 Y180.12 E30.38271
G1 X83.886 Y162.411 E31.20732
G1 X83.926 Y161.643 E31.24313
G1 X84.046 Y160.883 E31.27895
G1 X84.243 Y160.14 E31.31475
G1 X84.517 Y159.421 E31.35057
G1 X84.864 Y158.735 E31.38637
G1 X85.281 Y158.088 E31.42221
G1 X85.762 Y157.488 E31.45802
G1 X86.17 Y157.062 E31.48549
G1 X86.742 Y156.548 E31.5213
G1 X87.364 Y156.095 E31.55713
G1 X88.029 Y155.709 E31.59293
G1 X88.731 Y155.394 E31.62876
G1 X89.462 Y155.154 E31.66458
G1 X90.213 Y154.991 E31.70037
G1 X90.978 Y154.907 E31.7362
G1 X91.404 Y154.895 E31.75605
G1 X98.781 Y154.895 E32.09955
G1 X98.781 Y54.844 E36.75835
G1 X98.821 Y54.076 E36.79416
G1 X98.94 Y53.316 E36.82998
G1 X99.138 Y52.573 E36.86578
G1 X99.412 Y51.854 E36.90161
G1 X99.759 Y51.168 E36.93741
G0 F6000 X100.158 Y51.278
G1 F1200 X100.573 Y50.655 E36.97226
G1 X101.231 Y49.894 E37.01911
G1 X101.348 Y49.777 E37.02681
G1 X101.905 Y49.277 E37.06167
G1 X102.511 Y48.84 E37.09645
G1 X103.161 Y48.469 E37.1313
G1 X103.847 Y48.17 E37.16615
G1 X104.561 Y47.946 E37.20099
G1 X105.294 Y47.799 E37.23581
G1 X106.298 Y47.727 E37.28268
G1 X128.702 Y47.727 E38.3259
G1 X129.449 Y47.767 E38.36073
G1 X130.187 Y47.886 E38.39554
G1 X130.909 Y48.084 E38.4304
G1 X131.605 Y48.357 E38.46522
G1 X132.268 Y48.704 E38.50006
G1 X132.891 Y49.119 E38.53492
G1 X133.465 Y49.598 E38.56973
G1 X133.986 Y50.135 E38.60457
G1 X134.445 Y50.725 E38.63938
G1 X134.84 Y51.361 E38.67424
G1 X135.164 Y52.035 E38.70906
G1 X135.414 Y52.74 E38.74389
G1 X135.588 Y53.468 E38.77874
G1 X135.683 Y54.21 E38.81358
G1 X135.702 Y54.719 E38.83729
G1 X135.811 Y155.296 E43.52058
G1 X143.598 Y155.296 E43.88318
G1 X144.345 Y155.336 E43.91801
G1 X145.083 Y155.455 E43.95282
G1 X145.805 Y155.653 E43.98768
G1 X146.501 Y155.926 E44.02249
G1 X147.164 Y156.273 E44.05734
G1 X147.787 Y156.688 E44.09219
G1 X148.548 Y157.346 E44.13904
G1 X148.665 Y157.463 E44.14674
G1 X149.165 Y158.02 E44.1816
G1 X149.602 Y158.626 E44.21639
G1 X149.973 Y159.276 E44.25124
G1 X150.272 Y159.962 E44.28608
G1 X150.496 Y160.676 E44.32093
G1 X150.643 Y161.409 E44.35574
G1 X150.715 Y162.426 E44.40321
G1 X150.714 Y162.984 E44.42919
G1 X150.716 Y180.12 E45.22712
G1 X150.676 Y180.867 E45.26195
G1 X150.557 Y181.606 E45.29681
G1 X150.359 Y182.327 E45.33162
G1 X150.086 Y183.024 E45.36648
G1 X149.74 Y183.687 E45.4013
G1 X149.325 Y184.309 E45.43612
G1 X148.666 Y185.071 E45.48303
G1 X148.549 Y185.188 E45.49073
G1 X147.992 Y185.688 E45.52559
G1 X147.386 Y186.125 E45.56038
G1 X146.736 Y186.496 E45.59523
G1 X146.05 Y186.795 E45.63007
G1 X145.336 Y187.019 E45.66492
G1 X144.603 Y187.166 E45.69973
G1 X143.599 Y187.238 E45.7466
G1 X91.401 Y187.238 E48.17715
G1 X90.654 Y187.198 E48.21199
G1 X89.916 Y187.079 E48.2468
G1 X89.194 Y186.881 E48.28166
G1 X88.498 Y186.608 E48.31647
G1 X87.835 Y186.261 E48.35131
G1 X87.212 Y185.846 E48.38617
G1 X86.451 Y185.188 E48.43302
G1 X86.334 Y185.071 E48.44072
G1 X85.834 Y184.514 E48.47557
G1 X85.397 Y183.908 E48.51036
G1 X85.026 Y183.258 E48.54521
G1 X84.727 Y182.572 E48.58006
G1 X84.503 Y181.858 E48.6149
G1 X84.356 Y181.125 E48.64971
G1 X84.284 Y180.12 E48.69663
G1 X84.286 Y162.411 E49.52124
G1 X84.326 Y161.664 E49.55607
G1 X84.446 Y160.926 E49.59089
G1 X84.643 Y160.204 E49.62573
G1 X84.917 Y159.508 E49.66056
G1 X85.263 Y158.845 E49.69539
G1 X85.678 Y158.223 E49.7302
G1 X86.336 Y157.462 E49.77705
G1 X86.453 Y157.345 E49.78475
G1 X87.01 Y156.845 E49.81961
G1 X87.616 Y156.408 E49.8544
G1 X88.266 Y156.037 E49.88925
G1 X88.952 Y155.738 E49.92409
G1 X89.666 Y155.514 E49.95894
G1 X90.399 Y155.367 E49.99375
G1 X91.403 Y155.295 E50.04062
G1 X99.181 Y155.296 E50.40279
G1 X99.181 Y54.844 E55.08026
G1 X99.221 Y54.097 E55.11509
G1 X99.34 Y53.359 E55.1499
G1 X99.538 Y52.637 E55.18476
G1 X99.811 Y51.941 E55.21957
G1 X100.158 Y51.278 E55.25442
G0 F6000 X100.556 Y51.391
G1 F1200 X100.97 Y50.794 E55.28825
G1 X101.514 Y50.177 E55.32655
G1 X101.631 Y50.06 E55.33426
G1 X102.172 Y49.576 E55.36806
G1 X102.763 Y49.153 E55.4019
G1 X103.397 Y48.799 E55.43571
G1 X104.066 Y48.516 E55.46953
G1 X104.762 Y48.308 E55.50336
G1 X105.477 Y48.178 E55.5372
G1 X106.298 Y48.127 E55.5755
G1 X128.702 Y48.127 E56.61873
G1 X129.427 Y48.167 E56.65254
G1 X130.144 Y48.286 E56.68638
G1 X130.843 Y48.484 E56.72021
G1 X131.516 Y48.757 E56.75403
G1 X132.155 Y49.102 E56.78784
G1 X132.752 Y49.516 E56.82167
G1 X133.3 Y49.992 E56.85547
G1 X133.793 Y50.526 E56.88931
G1 X134.223 Y51.111 E56.92312
G1 X134.587 Y51.74 E56.95696
G1 X134.88 Y52.405 E56.99079
G1 X135.098 Y53.098 E57.02462
G1 X135.238 Y53.81 E57.05841
G1 X135.302 Y54.72 E57.10089
G1 X135.412 Y155.696 E61.80276
G1 X143.598 Y155.696 E62.18393
G1 X144.323 Y155.736 E62.21774
G1 X145.04 Y155.855 E62.25159
G1 X145.739 Y156.053 E62.28541
G1 X146.412 Y156.326 E62.31923
G1 X147.051 Y156.671 E62.35305
G1 X147.648 Y157.085 E62.38688
G1 X148.265 Y157.629 E62.42518
G1 X148.382 Y157.746 E62.43288
G1 X148.866 Y158.287 E62.46668
G1 X149.289 Y158.878 E62.50053
G1 X149.643 Y159.512 E62.53434
G1 X149.926 Y160.181 E62.56816
G1 X150.134 Y160.877 E62.60199
G1 X150.264 Y161.592 E62.63583
G1 X150.315 Y162.425 E62.67469
G1 X150.314 Y162.983 E62.70067
G1 X150.316 Y180.12 E63.49864
G1 X150.276 Y180.845 E63.53245
G1 X150.157 Y181.562 E63.56629
G1 X149.959 Y182.261 E63.60012
G1 X149.686 Y182.934 E63.63394
G1 X149.341 Y183.573 E63.66775
G1 X148.928 Y184.17 E63.70156
G1 X148.383 Y184.788 E63.73993
G1 X148.266 Y184.905 E63.74763
G1 X147.725 Y185.389 E63.78143
G1 X147.134 Y185.812 E63.81527
G1 X146.5 Y186.166 E63.84908
G1 X145.831 Y186.449 E63.88291
G1 X145.135 Y186.657 E63.91673
G1 X144.42 Y186.787 E63.95057
G1 X143.599 Y186.838 E63.98888
G1 X91.401 Y186.838 E66.41943
G1 X90.676 Y186.798 E66.45324
G1 X89.959 Y186.679 E66.48709
G1 X89.26 Y186.481 E66.52092
G1 X88.587 Y186.208 E66.55473
G1 X87.948 Y185.863 E66.58855
G1 X87.351 Y185.449 E66.62238
G1 X86.734 Y184.905 E66.66068
G1 X86.617 Y184.788 E66.66838
G1 X86.133 Y184.247 E66.70219
G1 X85.71 Y183.656 E66.73603
G1 X85.356 Y183.022 E66.76984
G1 X85.073 Y182.353 E66.80366
G1 X84.865 Y181.657 E66.83749
G1 X84.735 Y180.942 E66.87133
G1 X84.684 Y180.12 E66.90968
G1 X84.686 Y162.411 E67.73428
G1 X84.726 Y161.686 E67.76809
G1 X84.846 Y160.97 E67.8019
G1 X85.043 Y160.271 E67.83571
G1 X85.316 Y159.597 E67.86957
G1 X85.662 Y158.959 E67.90337
G1 X86.075 Y158.361 E67.93721
G1 X86.619 Y157.745 E67.97548
G1 X86.736 Y157.628 E67.98318
G1 X87.277 Y157.144 E68.01698
G1 X87.868 Y156.721 E68.05083
G1 X88.502 Y156.367 E68.08464
G1 X89.171 Y156.084 E68.11846
G1 X89.867 Y155.876 E68.15229
G1 X90.582 Y155.746 E68.18613
G1 X91.403 Y155.695 E68.22443
G1 X99.581 Y155.696 E68.60523
G1 X99.581 Y54.844 E73.30132
G1 X99.621 Y54.119 E73.33513
G1 X99.74 Y53.402 E73.36898
G1 X99.938 Y52.703 E73.4028
G1 X100.211 Y52.03 E73.43662
G1 X100.556 Y51.391 E73.47044
G0 F6000 X100.61 Y52.123
G1 F1200 X100.955 Y51.509 E73.50323
G1 X101.366 Y50.938 E73.53599
G1 X101.797 Y50.46 E73.56596
G1 X101.914 Y50.343 E73.57367
G1 X102.439 Y49.874 E73.60645
G1 X103.014 Y49.468 E73.63922
G1 X103.632 Y49.13 E73.67202
G1 X104.283 Y48.863 E73.70478
G1 X104.961 Y48.673 E73.73757
G1 X105.656 Y48.56 E73.77036
G1 X106.298 Y48.527 E73.80029
G1 X128.702 Y48.527 E74.84352
G1 X129.405 Y48.567 E74.8763
G1 X130.099 Y48.686 E74.90909
G1 X130.774 Y48.884 E74.94185
G1 X131.423 Y49.156 E74.97461
G1 X132.037 Y49.501 E75.00741
G1 X132.608 Y49.912 E75.04017
G1 X133.129 Y50.386 E75.07297
G1 X133.593 Y50.916 E75.10577
G1 X133.993 Y51.495 E75.13853
G1 X134.325 Y52.116 E75.17132
G1 X134.585 Y52.77 E75.2041
G1 X134.769 Y53.45 E75.2369
G1 X134.875 Y54.146 E75.26968
G1 X134.902 Y54.72 E75.29644
G1 X135.012 Y156.096 E80.01693
G1 X143.598 Y156.096 E80.41673
G1 X144.301 Y156.136 E80.44952
G1 X144.995 Y156.255 E80.48231
G1 X145.67 Y156.453 E80.51506
G1 X146.319 Y156.725 E80.54783
G1 X146.933 Y157.07 E80.58062
G1 X147.504 Y157.481 E80.61338
G1 X147.982 Y157.912 E80.64335
G1 X148.099 Y158.029 E80.65106
G1 X148.568 Y158.554 E80.68384
G1 X148.974 Y159.129 E80.71661
G1 X149.312 Y159.747 E80.74941
G1 X149.579 Y160.398 E80.78218
G1 X149.769 Y161.076 E80.81496
G1 X149.882 Y161.771 E80.84775
G1 X149.915 Y162.424 E80.8782
G1 X149.914 Y162.982 E80.90418
G1 X149.916 Y180.12 E81.70219
G1 X149.876 Y180.823 E81.73498
G1 X149.757 Y181.517 E81.76777
G1 X149.56 Y182.193 E81.80056
G1 X149.287 Y182.842 E81.83334
G1 X148.943 Y183.456 E81.86611
G1 X148.531 Y184.027 E81.8989
G1 X148.1 Y184.505 E81.92887
G1 X147.983 Y184.622 E81.93657
G1 X147.458 Y185.091 E81.96935
G1 X146.883 Y185.497 E82.00213
G1 X146.265 Y185.835 E82.03493
G1 X145.614 Y186.102 E82.06769
G1 X144.936 Y186.292 E82.10048
G1 X144.241 Y186.405 E82.13327
G1 X143.599 Y186.438 E82.1632
G1 X91.401 Y186.438 E84.59376
G1 X90.698 Y186.398 E84.62655
G1 X90.004 Y186.279 E84.65933
G1 X89.329 Y186.081 E84.69209
G1 X88.68 Y185.809 E84.72486
G1 X88.066 Y185.464 E84.75765
G1 X87.495 Y185.053 E84.79041
G1 X87.017 Y184.622 E84.82038
G1 X86.9 Y184.505 E84.82808
G1 X86.431 Y183.98 E84.86086
G1 X86.025 Y183.405 E84.89364
G1 X85.687 Y182.787 E84.92644
G1 X85.42 Y182.136 E84.9592
G1 X85.23 Y181.458 E84.99199
G1 X85.117 Y180.763 E85.02478
G1 X85.084 Y180.12 E85.05476
G1 X85.086 Y162.411 E85.87936
G1 X85.126 Y161.708 E85.91215
G1 X85.246 Y161.015 E85.9449
G1 X85.443 Y160.339 E85.97769
G1 X85.716 Y159.69 E86.01047
G1 X86.06 Y159.076 E86.04324
G1 X86.472 Y158.505 E86.07603
G1 X86.902 Y158.028 E86.10593
G1 X87.019 Y157.911 E86.11364
G1 X87.544 Y157.442 E86.14642
G1 X88.119 Y157.036 E86.17919
G1 X88.737 Y156.698 E86.21199
G1 X89.388 Y156.431 E86.24476
G1 X90.066 Y156.241 E86.27754
G1 X90.761 Y156.128 E86.31033
