;FLAVOR:Marlin
;TIME:4003
;Filament used: 3.54883m
;Layer height: 0.28
;MINX:89.629
;MINY:83.371
;MINZ:0.28
;MAXX:145.371
;MAXY:151.629
;MAXZ:35
;Generated with Cura_SteamEngine 4.5.0
M140 S50
M105
M190 S50
M104 S200
M105
M109 S200
M82 ;absolute extrusion mode
; Ender 3 Custom Start G-code
G92 E0 ; Reset Extruder
G28 ; Home all axes
G1 Z2.0 F3000 ; Move Z Axis up little to prevent scratching of Heat Bed
G1 X0.1 Y20 Z0.3 F5000.0 ; Move to start position
G1 X0.1 Y200.0 Z0.3 F1500.0 E15 ; Draw the first line
G1 X0.4 Y200.0 Z0.3 F5000.0 ; Move to side a little
G1 X0.4 Y20 Z0.3 F1500.0 E30 ; Draw the second line
G92 E0 ; Reset Extruder
G1 Z2.0 F3000 ; Move Z Axis up little to prevent scratching of Heat Bed
G1 X5 Y20 Z0.3 F5000.0 ; Move over to prevent blob squish
G92 E0
G92 E0
G1 F2700 E-5
;LAYER_COUNT:125
;LAYER:0
M107
G0 F6000 X91.914 Y85.773 Z0.28
;TYPE:SKIRT
G1 F2700 E0
G1 F1200 X92.031 Y85.656 E0.0077
G1 X92.617 Y85.126 E0.0445
G1 X93.253 Y84.659 E0.08124
G1 X93.933 Y84.258 E0.118
G1 X94.651 Y83.928 E0.15479
G1 X95.398 Y83.673 E0.19155
G1 X96.167 Y83.494 E0.22831
G1 X96.951 Y83.394 E0.26511
G1 X97.546 Y83.371 E0.29284
G1 X137.454 Y83.372 E2.15112
G1 X138.243 Y83.412 E2.18791
G1 X139.023 Y83.532 E2.22466
G1 X139.788 Y83.729 E2.26144
G1 X140.529 Y84.004 E2.29824
G1 X141.238 Y84.351 E2.335
G1 X141.908 Y84.769 E2.37177
G1 X142.532 Y85.252 E2.40852
G1 X142.969 Y85.657 E2.43626
G1 X143.086 Y85.774 E2.44396
G1 X143.616 Y86.36 E2.48075
G1 X144.083 Y86.996 E2.5175
G1 X144.484 Y87.676 E2.55426
G1 X144.814 Y88.394 E2.59105
G1 X145.069 Y89.141 E2.6278
G1 X145.248 Y89.91 E2.66457
G1 X145.348 Y90.694 E2.70137
G1 X145.371 Y91.289 E2.7291
G1 X145.37 Y143.704 E5.16976
G1 X145.33 Y144.493 E5.20655
G1 X145.21 Y145.273 E5.24329
G1 X145.013 Y146.038 E5.28008
G1 X144.739 Y146.778 E5.31682
G1 X144.391 Y147.488 E5.35364
G1 X143.973 Y148.158 E5.39041
G1 X143.49 Y148.782 E5.42715
G1 X143.085 Y149.219 E5.4549
G1 X142.968 Y149.336 E5.4626
G1 X142.382 Y149.866 E5.49939
G1 X141.746 Y150.333 E5.53614
G1 X141.066 Y150.734 E5.57289
G1 X140.348 Y151.064 E5.60969
G1 X139.601 Y151.319 E5.64644
G1 X138.832 Y151.498 E5.68321
G1 X138.048 Y151.598 E5.72001
G1 X137.453 Y151.621 E5.74774
G1 X136.167 Y151.621 E5.80762
G1 X97.555 Y151.629 E7.60556
G1 X96.766 Y151.589 E7.64234
G1 X95.985 Y151.47 E7.67913
G1 X95.221 Y151.272 E7.71588
G1 X94.48 Y150.998 E7.75267
G1 X93.771 Y150.651 E7.78942
G1 X93.101 Y150.233 E7.82619
G1 X92.476 Y149.75 E7.86297
G1 X92.038 Y149.344 E7.89078
G1 X91.921 Y149.227 E7.89849
G1 X91.391 Y148.641 E7.93528
G1 X90.924 Y148.005 E7.97202
G1 X90.523 Y147.325 E8.00878
G1 X90.193 Y146.607 E8.04558
G1 X89.938 Y145.86 E8.08233
G1 X89.759 Y145.091 E8.11909
G1 X89.659 Y144.307 E8.1559
G1 X89.636 Y143.712 E8.18362
G1 X89.636 Y141.986 E8.26399
G1 X89.629 Y91.289 E10.62466
G1 X89.669 Y90.5 E10.66144
G1 X89.788 Y89.72 E10.69818
G1 X89.986 Y88.955 E10.73498
G1 X90.26 Y88.215 E10.77172
G1 X90.607 Y87.506 E10.80848
G1 X91.025 Y86.835 E10.84529
G1 X91.508 Y86.21 E10.88207
G1 X91.914 Y85.773 E10.90985
G0 F6000 X92.313 Y85.938
G1 F1200 X92.885 Y85.424 E10.94565
G1 X93.507 Y84.971 E10.98148
G1 X94.172 Y84.585 E11.01729
G1 X94.874 Y84.27 E11.05312
G1 X95.605 Y84.03 E11.08894
G1 X96.356 Y83.867 E11.12473
G1 X97.121 Y83.783 E11.16056
G1 X97.546 Y83.771 E11.18036
G1 X137.454 Y83.772 E13.03864
G1 X138.222 Y83.812 E13.07445
G1 X138.982 Y83.931 E13.11027
G1 X139.725 Y84.129 E13.14608
G1 X140.444 Y84.403 E13.18191
G1 X141.131 Y84.75 E13.21774
G1 X141.777 Y85.166 E13.25352
G1 X142.377 Y85.648 E13.28936
G1 X142.687 Y85.939 E13.30916
G1 X142.804 Y86.056 E13.31686
G1 X143.318 Y86.628 E13.35267
G1 X143.771 Y87.25 E13.3885
G1 X144.157 Y87.915 E13.4243
G1 X144.472 Y88.617 E13.46013
G1 X144.712 Y89.348 E13.49596
G1 X144.875 Y90.099 E13.53174
G1 X144.959 Y90.864 E13.56758
G1 X144.971 Y91.289 E13.58738
G1 X144.97 Y143.704 E16.02804
G1 X144.93 Y144.472 E16.06385
G1 X144.811 Y145.232 E16.09967
G1 X144.613 Y145.975 E16.13547
G1 X144.339 Y146.694 E16.1713
G1 X143.992 Y147.381 E16.20714
G1 X143.576 Y148.027 E16.24292
G1 X143.095 Y148.627 E16.27872
G1 X142.686 Y149.054 E16.30626
G1 X142.114 Y149.568 E16.34207
G1 X141.492 Y150.021 E16.3779
G1 X140.827 Y150.407 E16.4137
G1 X140.125 Y150.722 E16.44953
G1 X139.394 Y150.962 E16.48535
G1 X138.643 Y151.125 E16.52114
G1 X137.878 Y151.209 E16.55697
G1 X137.453 Y151.221 E16.57677
G1 X136.167 Y151.221 E16.63665
G1 X97.555 Y151.229 E18.43459
G1 X96.786 Y151.189 E18.47044
G1 X96.027 Y151.07 E18.50622
G1 X95.283 Y150.872 E18.54207
G1 X94.564 Y150.599 E18.57788
G1 X93.878 Y150.252 E18.61368
G1 X93.231 Y149.836 E18.64949
G1 X92.631 Y149.355 E18.6853
G1 X92.203 Y148.945 E18.7129
G1 X91.689 Y148.373 E18.74871
G1 X91.236 Y147.751 E18.78454
G1 X90.85 Y147.086 E18.82034
G1 X90.535 Y146.384 E18.85617
G1 X90.295 Y145.653 E18.892
G1 X90.132 Y144.902 E18.92778
G1 X90.048 Y144.137 E18.96362
G1 X90.036 Y143.712 E18.98341
G1 X90.036 Y141.986 E19.06378
G1 X90.029 Y91.289 E21.42445
G1 X90.069 Y90.521 E21.46026
G1 X90.188 Y89.761 E21.49608
G1 X90.386 Y89.018 E21.53188
G1 X90.66 Y88.299 E21.56771
G1 X91.006 Y87.612 E21.60353
G1 X91.423 Y86.966 E21.63933
G1 X91.904 Y86.365 E21.67518
G1 X92.313 Y85.938 E21.70271
G0 F6000 X92.479 Y86.338
G1 F1200 X92.596 Y86.221 E21.71041
G1 X93.153 Y85.721 E21.74527
G1 X93.759 Y85.284 E21.78006
G1 X94.409 Y84.913 E21.81491
G1 X95.095 Y84.614 E21.84975
G1 X95.809 Y84.39 E21.8846
G1 X96.542 Y84.243 E21.91941
G1 X97.546 Y84.171 E21.96628
G1 X137.454 Y84.172 E23.82456
G1 X138.201 Y84.212 E23.85939
G1 X138.94 Y84.331 E23.89425
G1 X139.661 Y84.529 E23.92906
G1 X140.357 Y84.803 E23.96389
G1 X141.021 Y85.149 E23.99876
G1 X141.643 Y85.564 E24.03358
G1 X142.404 Y86.222 E24.08042
G1 X142.521 Y86.339 E24.08813
G1 X143.021 Y86.896 E24.12298
G1 X143.458 Y87.502 E24.15777
G1 X143.829 Y88.152 E24.19262
G1 X144.128 Y88.838 E24.22746
G1 X144.352 Y89.552 E24.26231
G1 X144.499 Y90.285 E24.29712
G1 X144.571 Y91.289 E24.34399
G1 X144.57 Y143.704 E26.78465
G1 X144.53 Y144.451 E26.81948
G1 X144.411 Y145.19 E26.85434
G1 X144.213 Y145.911 E26.88915
G1 X143.939 Y146.607 E26.92398
G1 X143.593 Y147.271 E26.95885
G1 X143.178 Y147.893 E26.99367
G1 X142.52 Y148.654 E27.04051
G1 X142.403 Y148.771 E27.04822
G1 X141.846 Y149.271 E27.08307
G1 X141.24 Y149.708 E27.11786
G1 X140.59 Y150.079 E27.15271
G1 X139.904 Y150.378 E27.18755
G1 X139.19 Y150.602 E27.2224
G1 X138.457 Y150.749 E27.25721
G1 X137.453 Y150.821 E27.30408
G1 X136.166 Y150.821 E27.36401
G1 X97.554 Y150.829 E29.16194
G1 X96.807 Y150.789 E29.19678
G1 X96.069 Y150.67 E29.23159
G1 X95.347 Y150.472 E29.26645
G1 X94.651 Y150.199 E29.30126
G1 X93.988 Y149.853 E29.33608
G1 X93.365 Y149.438 E29.37094
G1 X92.603 Y148.779 E29.41785
G1 X92.486 Y148.662 E29.42555
G1 X91.986 Y148.105 E29.46041
G1 X91.549 Y147.499 E29.4952
G1 X91.178 Y146.849 E29.53005
G1 X90.879 Y146.163 E29.56489
G1 X90.655 Y145.449 E29.59974
G1 X90.508 Y144.716 E29.63455
G1 X90.436 Y143.712 E29.68142
G1 X90.436 Y141.986 E29.76179
G1 X90.429 Y91.288 E32.1225
G1 X90.469 Y90.541 E32.15733
G1 X90.588 Y89.803 E32.19214
G1 X90.786 Y89.081 E32.227
G1 X91.059 Y88.385 E32.26181
G1 X91.406 Y87.722 E32.29666
G1 X91.821 Y87.099 E32.33152
G1 X92.479 Y86.338 E32.37836
G0 F6000 X92.762 Y86.621
G1 F1200 X92.879 Y86.504 E32.38606
G1 X93.42 Y86.02 E32.41987
G1 X94.011 Y85.597 E32.45371
G1 X94.645 Y85.243 E32.48752
G1 X95.314 Y84.96 E32.52134
G1 X96.01 Y84.752 E32.55517
G1 X96.725 Y84.622 E32.58901
G1 X97.546 Y84.571 E32.62731
G1 X137.454 Y84.572 E34.48559
G1 X138.179 Y84.612 E34.5194
G1 X138.896 Y84.731 E34.55325
G1 X139.595 Y84.929 E34.58708
G1 X140.268 Y85.202 E34.62089
G1 X140.907 Y85.547 E34.65471
G1 X141.504 Y85.961 E34.68854
G1 X142.121 Y86.505 E34.72684
G1 X142.238 Y86.622 E34.73455
G1 X142.722 Y87.163 E34.76835
G1 X143.145 Y87.754 E34.80219
G1 X143.499 Y88.388 E34.836
G1 X143.782 Y89.057 E34.86982
G1 X143.99 Y89.753 E34.90365
G1 X144.12 Y90.468 E34.93749
G1 X144.171 Y91.289 E34.97579
G1 X144.17 Y143.704 E37.41645
G1 X144.13 Y144.429 E37.45026
G1 X144.011 Y145.146 E37.48411
G1 X143.813 Y145.845 E37.51794
G1 X143.54 Y146.518 E37.55175
G1 X143.195 Y147.157 E37.58557
G1 X142.781 Y147.754 E37.6194
G1 X142.237 Y148.371 E37.6577
G1 X142.12 Y148.488 E37.6654
G1 X141.579 Y148.972 E37.69921
G1 X140.988 Y149.395 E37.73305
G1 X140.354 Y149.749 E37.76686
G1 X139.685 Y150.032 E37.80068
G1 X138.989 Y150.24 E37.83451
G1 X138.274 Y150.37 E37.86835
G1 X137.453 Y150.421 E37.90665
G1 X136.166 Y150.421 E37.96658
G1 X97.554 Y150.429 E39.76451
G1 X96.829 Y150.389 E39.79833
G1 X96.113 Y150.27 E39.83212
G1 X95.414 Y150.073 E39.86594
G1 X94.74 Y149.8 E39.8998
G1 X94.101 Y149.454 E39.93364
G1 X93.504 Y149.041 E39.96744
G1 X92.886 Y148.496 E40.00581
G1 X92.769 Y148.379 E40.01351
G1 X92.285 Y147.838 E40.04731
G1 X91.862 Y147.247 E40.08115
G1 X91.508 Y146.613 E40.11497
G1 X91.225 Y145.944 E40.14879
G1 X91.017 Y145.248 E40.18262
G1 X90.887 Y144.533 E40.21645
G1 X90.836 Y143.712 E40.25476
G1 X90.836 Y141.986 E40.33513
G1 X90.829 Y91.288 E42.69584
G1 X90.869 Y90.563 E42.72965
G1 X90.988 Y89.846 E42.76349
G1 X91.186 Y89.147 E42.79732
G1 X91.459 Y88.474 E42.83114
G1 X91.804 Y87.835 E42.86495
G1 X92.218 Y87.238 E42.89878
G1 X92.762 Y86.621 E42.93708
G0 F6000 X93.045 Y86.904
G1 F1200 X93.162 Y86.787 E42.94479
G1 X93.687 Y86.318 E42.97757
G1 X94.262 Y85.912 E43.01035
G1 X94.88 Y85.574 E43.04314
G1 X95.531 Y85.307 E43.07591
G1 X96.209 Y85.117 E43.1087
G1 X96.904 Y85.004 E43.14148
G1 X97.546 Y84.971 E43.17142
G1 X137.454 Y84.972 E45.0297
G1 X138.157 Y85.012 E45.06249
G1 X138.851 Y85.131 E45.09527
G1 X139.527 Y85.329 E45.12807
G1 X140.176 Y85.601 E45.16084
G1 X140.79 Y85.946 E45.19364
G1 X141.361 Y86.358 E45.22642
G1 X141.838 Y86.788 E45.25633
G1 X141.955 Y86.905 E45.26403
G1 X142.424 Y87.43 E45.29681
G1 X142.83 Y88.005 E45.32959
G1 X143.168 Y88.623 E45.36239
G1 X143.435 Y89.274 E45.39515
G1 X143.625 Y89.952 E45.42794
G1 X143.738 Y90.647 E45.46072
G1 X143.771 Y91.289 E45.49066
G1 X143.77 Y143.704 E47.93132
G1 X143.73 Y144.407 E47.96411
G1 X143.611 Y145.101 E47.99689
G1 X143.413 Y145.777 E48.02969
G1 X143.141 Y146.426 E48.06246
G1 X142.796 Y147.04 E48.09526
G1 X142.384 Y147.611 E48.12804
G1 X141.954 Y148.088 E48.15795
G1 X141.837 Y148.205 E48.16565
G1 X141.312 Y148.674 E48.19843
G1 X140.737 Y149.08 E48.23121
G1 X140.119 Y149.418 E48.26401
G1 X139.468 Y149.685 E48.29677
G1 X138.79 Y149.875 E48.32956
G1 X138.095 Y149.988 E48.36234
G1 X137.453 Y150.021 E48.39228
G1 X136.166 Y150.021 E48.45221
G1 X97.554 Y150.029 E50.25014
G1 X96.851 Y149.989 E50.28293
G1 X96.158 Y149.87 E50.31567
G1 X95.482 Y149.673 E50.34846
G1 X94.833 Y149.4 E50.38124
G1 X94.219 Y149.056 E50.41402
G1 X93.648 Y148.644 E50.4468
G1 X93.169 Y148.213 E50.47681
G1 X93.052 Y148.096 E50.48451
G1 X92.583 Y147.571 E50.51729
G1 X92.177 Y146.996 E50.55007
G1 X91.839 Y146.378 E50.58287
G1 X91.572 Y145.727 E50.61563
G1 X91.382 Y145.049 E50.64842
G1 X91.269 Y144.354 E50.6812
G1 X91.236 Y143.712 E50.71114
G1 X91.236 Y141.986 E50.79151
G1 X91.229 Y91.288 E53.15222
G1 X91.269 Y90.585 E53.18501
G1 X91.388 Y89.891 E53.21779
G1 X91.586 Y89.216 E53.25055
G1 X91.858 Y88.567 E53.28332
G1 X92.203 Y87.953 E53.31611
G1 X92.614 Y87.382 E53.34887
G1 X93.045 Y86.904 E53.37884
G0 F6000 X93.328 Y87.187
G1 F1200 X93.445 Y87.07 E53.38654
G1 X93.954 Y86.617 E53.41827
G1 X94.512 Y86.228 E53.44995
G1 X95.112 Y85.906 E53.48165
G1 X95.746 Y85.657 E53.51337
G1 X96.405 Y85.484 E53.5451
G1 X97.079 Y85.39 E53.57678
G1 X97.546 Y85.371 E53.59855
G1 X137.454 Y85.372 E55.45683
G1 X138.134 Y85.412 E55.48855
G1 X138.804 Y85.531 E55.52024
G1 X139.456 Y85.728 E55.55195
G1 X140.08 Y86.001 E55.58367
G1 X140.668 Y86.344 E55.61536
G1 X141.212 Y86.754 E55.64708
G1 X141.555 Y87.071 E55.66883
G1 X141.672 Y87.188 E55.67654
G1 X142.125 Y87.697 E55.70826
G1 X142.514 Y88.255 E55.73994
G1 X142.836 Y88.855 E55.77165
G1 X143.085 Y89.489 E55.80336
G1 X143.258 Y90.148 E55.83509
G1 X143.352 Y90.822 E55.86678
G1 X143.371 Y91.289 E55.88854
G1 X143.37 Y143.704 E58.3292
G1 X143.33 Y144.384 E58.36092
G1 X143.211 Y145.054 E58.39261
G1 X143.014 Y145.706 E58.42432
G1 X142.741 Y146.33 E58.45604
G1 X142.398 Y146.918 E58.48773
G1 X141.988 Y147.462 E58.51945
G1 X141.671 Y147.805 E58.5412
G1 X141.554 Y147.922 E58.54891
G1 X141.045 Y148.375 E58.58063
G1 X140.487 Y148.764 E58.61231
G1 X139.887 Y149.086 E58.64402
G1 X139.253 Y149.335 E58.67573
G1 X138.594 Y149.508 E58.70746
G1 X137.92 Y149.602 E58.73915
G1 X137.453 Y149.621 E58.76091
G1 X136.166 Y149.621 E58.82084
G1 X97.554 Y149.629 E60.61877
G1 X96.874 Y149.589 E60.65049
G1 X96.204 Y149.47 E60.68218
G1 X95.552 Y149.273 E60.71389
G1 X94.928 Y149.001 E60.74559
G1 X94.34 Y148.658 E60.77729
G1 X93.796 Y148.248 E60.80901
G1 X93.452 Y147.93 E60.83082
G1 X93.335 Y147.813 E60.83853
G1 X92.882 Y147.304 E60.87025
G1 X92.493 Y146.746 E60.90193
G1 X92.171 Y146.146 E60.93364
G1 X91.922 Y145.512 E60.96535
G1 X91.749 Y144.853 E60.99708
G1 X91.655 Y144.179 E61.02877
G1 X91.636 Y143.712 E61.05053
G1 X91.636 Y141.986 E61.1309
G1 X91.629 Y91.288 E63.49161
G1 X91.669 Y90.608 E63.52333
G1 X91.788 Y89.938 E63.55502
G1 X91.985 Y89.286 E63.58673
G1 X92.257 Y88.662 E63.61843
G1 X92.601 Y88.074 E63.65015
G1 X93.011 Y87.53 E63.68187
G1 X93.328 Y87.187 E63.70362
G0 F6000 X93.611 Y87.47
G1 F1200 X93.728 Y87.353 E63.71132
G1 X94.22 Y86.917 E63.74193
G1 X94.761 Y86.545 E63.7725
G1 X95.343 Y86.241 E63.80308
G1 X95.958 Y86.01 E63.83367
G1 X96.597 Y85.855 E63.86429
G1 X97.546 Y85.771 E63.90865
G1 X137.454 Y85.772 E65.76693
G1 X138.11 Y85.812 E65.79753
G1 X138.756 Y85.931 E65.82812
G1 X139.383 Y86.128 E65.85872
G1 X139.981 Y86.4 E65.88931
G1 X140.542 Y86.742 E65.91991
G1 X141.272 Y87.354 E65.96427
G1 X141.389 Y87.471 E65.97197
G1 X141.825 Y87.963 E66.00258
G1 X142.197 Y88.504 E66.03315
G1 X142.501 Y89.086 E66.06373
G1 X142.732 Y89.701 E66.09432
G1 X142.887 Y90.34 E66.12494
G1 X142.971 Y91.289 E66.1693
G1 X142.97 Y143.704 E68.60996
G1 X142.93 Y144.36 E68.64056
G1 X142.811 Y145.006 E68.67115
G1 X142.614 Y145.633 E68.70175
G1 X142.342 Y146.231 E68.73234
G1 X142 Y146.792 E68.76294
G1 X141.388 Y147.522 E68.80729
G1 X141.271 Y147.639 E68.815
G1 X140.779 Y148.075 E68.84561
G1 X140.238 Y148.447 E68.87618
G1 X139.656 Y148.751 E68.90676
G1 X139.041 Y148.982 E68.93735
G1 X138.402 Y149.137 E68.96796
G1 X137.453 Y149.221 E69.01233
G1 X136.166 Y149.221 E69.07225
G1 X97.554 Y149.229 E70.87019
G1 X96.898 Y149.189 E70.90079
G1 X96.252 Y149.07 E70.93138
G1 X95.625 Y148.873 E70.96198
G1 X95.027 Y148.602 E70.99255
G1 X94.466 Y148.26 E71.02315
G1 X93.735 Y147.647 E71.06757
G1 X93.618 Y147.53 E71.07527
G1 X93.182 Y147.038 E71.10589
G1 X92.81 Y146.497 E71.13646
G1 X92.506 Y145.915 E71.16703
G1 X92.275 Y145.3 E71.19762
G1 X92.12 Y144.661 E71.22824
G1 X92.036 Y143.712 E71.2726
G1 X92.036 Y141.986 E71.35297
G1 X92.029 Y91.288 E73.71368
G1 X92.069 Y90.632 E73.74429
G1 X92.188 Y89.986 E73.77487
G1 X92.385 Y89.359 E73.80548
G1 X92.657 Y88.761 E73.83607
G1 X92.999 Y88.2 E73.86666
G1 X93.611 Y87.47 E73.91102
G0 F6000 X93.893 Y87.752
G1 F1200 X94.01 Y87.635 E73.91872
G1 X94.485 Y87.218 E73.94815
G1 X95.008 Y86.863 E73.97759
G1 X95.572 Y86.577 E74.00703
G1 X96.167 Y86.365 E74.03644
G1 X96.785 Y86.229 E74.06591
G1 X97.546 Y86.171 E74.10145
G1 X137.454 Y86.172 E75.95973
G1 X138.085 Y86.212 E75.98917
G1 X138.706 Y86.331 E76.01861
G1 X139.307 Y86.528 E76.04806
G1 X139.878 Y86.799 E76.0775
G1 X140.41 Y87.139 E76.10689
G1 X140.99 Y87.636 E76.14246
G1 X141.107 Y87.753 E76.15017
G1 X141.524 Y88.228 E76.1796
G1 X141.879 Y88.751 E76.20903
G1 X142.165 Y89.315 E76.23848
G1 X142.377 Y89.91 E76.26789
G1 X142.513 Y90.528 E76.29735
G1 X142.571 Y91.289 E76.33289
G1 X142.57 Y143.704 E78.77355
G1 X142.53 Y144.335 E78.80299
G1 X142.411 Y144.956 E78.83244
G1 X142.214 Y145.557 E78.86189
G1 X141.943 Y146.128 E78.89132
G1 X141.603 Y146.66 E78.92072
G1 X141.106 Y147.24 E78.95628
G1 X140.989 Y147.357 E78.96399
G1 X140.514 Y147.774 E78.99342
G1 X139.991 Y148.129 E79.02285
G1 X139.427 Y148.415 E79.0523
G1 X138.832 Y148.627 E79.08171
G1 X138.214 Y148.763 E79.11118
G1 X137.453 Y148.821 E79.14671
G1 X136.166 Y148.821 E79.20664
