;FLAVOR:Marlin
;TIME:6606
;Filament used: 5.5104m
;Layer height: 0.28
;MINX:65.796
;MINY:82.7
;MINZ:0.28
;MAXX:169.204
;MAXY:152.3
;MAXZ:22.12
;Generated with Cura_SteamEngine 4.5.0
M140 S50
M105
M190 S50
M104 S200
M105
M109 S200
M82 ;absolute extrusion mode
; Ender 3 Custom Start G-code
G92 E0 ; Reset Extruder
G28 ; Home all axes
G1 Z2.0 F3000 ; Move Z Axis up little to prevent scratching of Heat Bed
G1 X0.1 Y20 Z0.3 F5000.0 ; Move to start position
G1 X0.1 Y200.0 Z0.3 F1500.0 E15 ; Draw the first line
G1 X0.4 Y200.0 Z0.3 F5000.0 ; Move to side a little
G1 X0.4 Y20 Z0.3 F1500.0 E30 ; Draw the second line
G92 E0 ; Reset Extruder
G1 Z2.0 F3000 ; Move Z Axis up little to prevent scratching of Heat Bed
G1 X5 Y20 Z0.3 F5000.0 ; Move over to prevent blob squish
G92 E0
G92 E0
G1 F2700 E-5
;LAYER_COUNT:79
;LAYER:0
M107
G0 F6000 X68.784 Y84.455 Z0.28
;TYPE:SKIRT
G1 F2700 E0
G1 F1200 X69.42 Y83.988 E0.03674
G1 X70.1 Y83.587 E0.0735
G1 X70.818 Y83.257 E0.1103
G1 X71.565 Y83.002 E0.14705
G1 X72.334 Y82.823 E0.18381
G1 X73.118 Y82.723 E0.22062
G1 X73.713 Y82.7 E0.24834
G1 X120.143 Y82.7 E2.41032
G1 X120.932 Y82.74 E2.44711
G1 X121.712 Y82.859 E2.48385
G1 X122.477 Y83.057 E2.52064
G1 X123.217 Y83.331 E2.55738
G1 X123.926 Y83.679 E2.59416
G1 X124.597 Y84.097 E2.63097
G1 X125.221 Y84.58 E2.66772
G1 X125.658 Y84.985 E2.69546
G1 X125.775 Y85.102 E2.70316
G1 X126.305 Y85.688 E2.73996
G1 X126.772 Y86.324 E2.7767
G1 X127.173 Y87.004 E2.81346
G1 X127.503 Y87.722 E2.85025
G1 X127.758 Y88.469 E2.887
G1 X127.937 Y89.238 E2.92377
G1 X128.037 Y90.022 E2.96057
G1 X128.06 Y90.626 E2.98872
G1 X128.056 Y93.975 E3.14466
G1 X161.282 Y93.975 E4.6918
G1 X162.071 Y94.015 E4.72859
G1 X162.851 Y94.134 E4.76533
G1 X163.616 Y94.332 E4.80212
G1 X164.356 Y94.606 E4.83887
G1 X165.065 Y94.954 E4.87564
G1 X165.736 Y95.372 E4.91246
G1 X166.36 Y95.855 E4.9492
G1 X166.797 Y96.26 E4.97694
G1 X166.914 Y96.377 E4.98465
G1 X167.444 Y96.963 E5.02144
G1 X167.911 Y97.599 E5.05818
G1 X168.312 Y98.279 E5.09494
G1 X168.642 Y98.997 E5.13173
G1 X168.897 Y99.744 E5.16849
G1 X169.076 Y100.513 E5.20525
G1 X169.176 Y101.297 E5.24206
G1 X169.199 Y101.892 E5.26978
G1 X169.199 Y105.59 E5.44198
G1 X169.159 Y106.379 E5.47876
G1 X169.04 Y107.159 E5.5155
G1 X168.842 Y107.924 E5.5523
G1 X168.568 Y108.664 E5.58904
G1 X168.22 Y109.373 E5.62582
G1 X167.802 Y110.044 E5.66263
G1 X167.319 Y110.668 E5.69937
G1 X166.914 Y111.105 E5.72712
G1 X166.797 Y111.222 E5.73482
G1 X166.211 Y111.752 E5.77161
G1 X165.575 Y112.219 E5.80835
G1 X164.895 Y112.62 E5.84511
G1 X164.177 Y112.95 E5.88191
G1 X163.43 Y113.205 E5.91866
G1 X162.661 Y113.384 E5.95543
G1 X161.877 Y113.484 E5.99223
G1 X161.282 Y113.507 E6.01996
G1 X128.047 Y113.506 E7.56752
G1 X128.047 Y118.707 E7.8097
G1 X161.288 Y118.71 E9.35754
G1 X162.076 Y118.75 E9.39428
G1 X162.857 Y118.87 E9.43107
G1 X163.621 Y119.068 E9.46782
G1 X164.362 Y119.342 E9.50461
G1 X165.071 Y119.689 E9.54137
G1 X165.741 Y120.107 E9.57814
G1 X166.366 Y120.59 E9.61492
G1 X166.802 Y120.995 E9.64263
G1 X166.919 Y121.112 E9.65033
G1 X167.449 Y121.698 E9.68712
G1 X167.916 Y122.334 E9.72386
G1 X168.317 Y123.014 E9.76062
G1 X168.647 Y123.732 E9.79742
G1 X168.902 Y124.479 E9.83417
G1 X169.081 Y125.248 E9.87094
G1 X169.181 Y126.032 E9.90774
G1 X169.204 Y126.627 E9.93547
G1 X169.204 Y130.324 E10.10761
G1 X169.164 Y131.113 E10.1444
G1 X169.045 Y131.893 E10.18114
G1 X168.847 Y132.658 E10.21794
G1 X168.573 Y133.398 E10.25468
G1 X168.225 Y134.107 E10.29146
G1 X167.807 Y134.778 E10.32827
G1 X167.324 Y135.402 E10.36501
G1 X166.919 Y135.839 E10.39275
G1 X166.802 Y135.956 E10.40046
G1 X166.216 Y136.486 E10.43725
G1 X165.58 Y136.953 E10.47399
G1 X164.9 Y137.354 E10.51075
G1 X164.182 Y137.684 E10.54755
G1 X163.435 Y137.939 E10.5843
G1 X162.666 Y138.118 E10.62107
G1 X161.882 Y138.218 E10.65787
G1 X161.287 Y138.241 E10.68559
G1 X128.054 Y138.241 E12.23306
G1 X128.06 Y144.376 E12.51873
G1 X128.021 Y145.164 E12.55547
G1 X127.902 Y145.945 E12.59226
G1 X127.705 Y146.71 E12.62904
G1 X127.431 Y147.451 E12.66583
G1 X127.085 Y148.16 E12.70256
G1 X126.668 Y148.831 E12.73935
G1 X126.185 Y149.456 E12.77613
G1 X125.775 Y149.898 E12.8042
G1 X125.658 Y150.015 E12.81191
G1 X125.072 Y150.545 E12.8487
G1 X124.436 Y151.012 E12.88544
G1 X123.756 Y151.413 E12.9222
G1 X123.038 Y151.743 E12.95899
G1 X122.291 Y151.998 E12.99575
G1 X121.522 Y152.177 E13.03251
G1 X120.738 Y152.277 E13.06932
G1 X120.143 Y152.3 E13.09704
G1 X115.759 Y152.3 E13.30118
G1 X114.97 Y152.26 E13.33797
G1 X114.19 Y152.141 E13.37471
G1 X113.425 Y151.943 E13.4115
G1 X112.685 Y151.669 E13.44825
G1 X111.976 Y151.321 E13.48502
G1 X111.305 Y150.903 E13.52183
G1 X110.681 Y150.42 E13.55858
G1 X110.244 Y150.015 E13.58632
G1 X110.127 Y149.898 E13.59402
G1 X109.597 Y149.312 E13.63082
G1 X109.13 Y148.676 E13.66756
G1 X108.729 Y147.996 E13.70432
G1 X108.399 Y147.278 E13.74111
G1 X108.144 Y146.531 E13.77787
G1 X107.965 Y145.762 E13.81463
G1 X107.865 Y144.978 E13.85143
G1 X107.842 Y144.383 E13.87916
G1 X107.842 Y102.3 E15.83872
G1 X85.396 Y102.3 E16.8839
G1 X85.396 Y144.383 E18.84346
G1 X85.356 Y145.172 E18.88025
G1 X85.237 Y145.952 E18.91699
G1 X85.039 Y146.717 E18.95378
G1 X84.765 Y147.457 E18.99053
G1 X84.417 Y148.166 E19.0273
G1 X83.999 Y148.837 E19.06411
G1 X83.516 Y149.461 E19.10086
G1 X83.111 Y149.898 E19.1286
G1 X82.994 Y150.015 E19.13631
G1 X82.408 Y150.545 E19.1731
G1 X81.772 Y151.012 E19.20984
G1 X81.092 Y151.413 E19.2466
G1 X80.374 Y151.743 E19.28339
G1 X79.627 Y151.998 E19.32015
G1 X78.858 Y152.177 E19.35691
G1 X78.074 Y152.277 E19.39371
G1 X77.479 Y152.3 E19.42144
G1 X73.713 Y152.3 E19.5968
G1 X72.924 Y152.26 E19.63359
G1 X72.144 Y152.141 E19.67033
G1 X71.379 Y151.943 E19.70712
G1 X70.639 Y151.669 E19.74387
G1 X69.93 Y151.321 E19.78064
G1 X69.259 Y150.903 E19.81745
G1 X68.635 Y150.42 E19.8542
G1 X68.198 Y150.015 E19.88194
G1 X68.081 Y149.898 E19.88965
G1 X67.551 Y149.312 E19.92644
G1 X67.084 Y148.676 E19.96318
G1 X66.683 Y147.996 E19.99994
G1 X66.353 Y147.278 E20.03673
G1 X66.098 Y146.531 E20.07349
G1 X65.919 Y145.762 E20.11025
G1 X65.819 Y144.978 E20.14705
G1 X65.796 Y144.383 E20.17478
G1 X65.796 Y90.617 E22.67835
G1 X65.836 Y89.828 E22.71514
G1 X65.955 Y89.048 E22.75188
G1 X66.153 Y88.283 E22.78867
G1 X66.427 Y87.543 E22.82542
G1 X66.775 Y86.834 E22.86219
G1 X67.193 Y86.163 E22.899
G1 X67.676 Y85.539 E22.93575
G1 X68.081 Y85.102 E22.96349
G1 X68.198 Y84.985 E22.9712
G1 X68.784 Y84.455 E23.00799
G0 F6000 X69.052 Y84.753
G1 F1200 X69.674 Y84.3 E23.04382
G1 X70.339 Y83.914 E23.07962
G1 X71.041 Y83.599 E23.11545
G1 X71.772 Y83.359 E23.15128
G1 X72.523 Y83.196 E23.18706
G1 X73.288 Y83.112 E23.2229
G1 X73.713 Y83.1 E23.24269
G1 X120.143 Y83.1 E25.40467
G1 X120.911 Y83.14 E25.44048
G1 X121.671 Y83.259 E25.4763
G1 X122.414 Y83.457 E25.5121
G1 X123.133 Y83.731 E25.54793
G1 X123.819 Y84.078 E25.58373
G1 X124.466 Y84.494 E25.61955
G1 X125.066 Y84.975 E25.65535
G1 X125.493 Y85.384 E25.68289
G1 X126.007 Y85.956 E25.71869
G1 X126.46 Y86.578 E25.75452
G1 X126.846 Y87.243 E25.79033
G1 X127.161 Y87.945 E25.82616
G1 X127.401 Y88.676 E25.86198
G1 X127.564 Y89.427 E25.89777
G1 X127.648 Y90.192 E25.9336
G1 X127.66 Y90.626 E25.95382
G1 X127.656 Y94.375 E26.12839
G1 X161.282 Y94.375 E27.69415
G1 X162.05 Y94.415 E27.72996
G1 X162.81 Y94.534 E27.76578
G1 X163.553 Y94.732 E27.80159
G1 X164.272 Y95.006 E27.83742
G1 X164.958 Y95.353 E27.87321
G1 X165.605 Y95.769 E27.90903
G1 X166.205 Y96.25 E27.94484
G1 X166.632 Y96.659 E27.97237
G1 X167.146 Y97.231 E28.00818
G1 X167.599 Y97.853 E28.04401
G1 X167.985 Y98.518 E28.07981
G1 X168.3 Y99.22 E28.11564
G1 X168.54 Y99.951 E28.15147
G1 X168.703 Y100.702 E28.18725
G1 X168.787 Y101.467 E28.22309
G1 X168.799 Y101.892 E28.24288
G1 X168.799 Y105.59 E28.41508
G1 X168.759 Y106.358 E28.45089
G1 X168.64 Y107.118 E28.48671
G1 X168.442 Y107.861 E28.52251
G1 X168.168 Y108.58 E28.55834
G1 X167.821 Y109.266 E28.59414
G1 X167.405 Y109.913 E28.62996
G1 X166.924 Y110.513 E28.66576
G1 X166.515 Y110.94 E28.6933
G1 X165.943 Y111.454 E28.7291
G1 X165.321 Y111.907 E28.76493
G1 X164.656 Y112.293 E28.80074
G1 X163.954 Y112.608 E28.83657
G1 X163.223 Y112.848 E28.87239
G1 X162.472 Y113.011 E28.90818
G1 X161.707 Y113.095 E28.94401
G1 X161.282 Y113.107 E28.96381
G1 X127.647 Y113.106 E30.53
G1 X127.647 Y119.107 E30.80943
G1 X161.288 Y119.11 E32.37589
G1 X162.056 Y119.15 E32.4117
G1 X162.816 Y119.27 E32.44753
G1 X163.559 Y119.467 E32.48332
G1 X164.278 Y119.741 E32.51915
G1 X164.964 Y120.088 E32.55495
G1 X165.611 Y120.505 E32.59079
G1 X166.211 Y120.986 E32.6266
G1 X166.637 Y121.394 E32.65407
G1 X167.151 Y121.966 E32.68987
G1 X167.604 Y122.588 E32.7257
G1 X167.99 Y123.253 E32.76151
G1 X168.305 Y123.955 E32.79734
G1 X168.545 Y124.686 E32.83316
G1 X168.708 Y125.437 E32.86895
G1 X168.792 Y126.202 E32.90478
G1 X168.804 Y126.627 E32.92458
G1 X168.804 Y130.324 E33.09673
G1 X168.764 Y131.092 E33.13254
G1 X168.645 Y131.852 E33.16836
G1 X168.447 Y132.595 E33.20416
G1 X168.173 Y133.314 E33.23999
G1 X167.826 Y134 E33.27579
G1 X167.41 Y134.647 E33.3116
G1 X166.929 Y135.247 E33.34741
G1 X166.52 Y135.674 E33.37494
G1 X165.948 Y136.188 E33.41075
G1 X165.326 Y136.641 E33.44658
G1 X164.661 Y137.027 E33.48239
G1 X163.959 Y137.342 E33.51821
G1 X163.228 Y137.582 E33.55404
G1 X162.477 Y137.745 E33.58982
G1 X161.712 Y137.829 E33.62566
G1 X161.287 Y137.841 E33.64546
G1 X127.654 Y137.841 E35.21155
G1 X127.66 Y144.376 E35.51585
G1 X127.621 Y145.144 E35.55166
G1 X127.502 Y145.904 E35.58748
G1 X127.305 Y146.648 E35.62331
G1 X127.032 Y147.367 E35.65912
G1 X126.686 Y148.053 E35.6949
G1 X126.27 Y148.701 E35.73076
G1 X125.789 Y149.301 E35.76656
G1 X125.493 Y149.616 E35.78669
G1 X125.376 Y149.733 E35.7944
G1 X124.804 Y150.247 E35.83021
G1 X124.182 Y150.7 E35.86604
G1 X123.517 Y151.086 E35.90184
G1 X122.815 Y151.401 E35.93767
G1 X122.084 Y151.641 E35.97349
G1 X121.333 Y151.804 E36.00928
G1 X120.568 Y151.888 E36.04511
G1 X120.143 Y151.9 E36.06491
G1 X115.759 Y151.9 E36.26905
G1 X114.991 Y151.86 E36.30486
G1 X114.231 Y151.741 E36.34068
G1 X113.488 Y151.543 E36.37648
G1 X112.769 Y151.269 E36.41231
G1 X112.083 Y150.922 E36.44811
G1 X111.436 Y150.506 E36.48392
G1 X110.836 Y150.025 E36.51973
G1 X110.409 Y149.616 E36.54726
G1 X109.895 Y149.044 E36.58307
G1 X109.442 Y148.422 E36.6189
G1 X109.056 Y147.757 E36.65471
G1 X108.741 Y147.055 E36.69053
G1 X108.501 Y146.324 E36.72636
G1 X108.338 Y145.573 E36.76214
G1 X108.254 Y144.808 E36.79798
G1 X108.242 Y144.383 E36.81778
G1 X108.242 Y101.9 E38.79596
G1 X84.996 Y101.9 E39.8784
G1 X84.996 Y144.383 E41.85658
G1 X84.956 Y145.151 E41.89239
G1 X84.837 Y145.911 E41.92821
G1 X84.639 Y146.654 E41.96402
G1 X84.365 Y147.373 E41.99984
G1 X84.018 Y148.059 E42.03564
G1 X83.602 Y148.706 E42.07146
G1 X83.121 Y149.306 E42.10727
G1 X82.712 Y149.733 E42.1348
G1 X82.14 Y150.247 E42.17061
G1 X81.518 Y150.7 E42.20644
G1 X80.853 Y151.086 E42.24224
G1 X80.151 Y151.401 E42.27807
G1 X79.42 Y151.641 E42.3139
G1 X78.669 Y151.804 E42.34968
G1 X77.904 Y151.888 E42.38552
G1 X77.479 Y151.9 E42.40531
G1 X73.713 Y151.9 E42.58067
G1 X72.945 Y151.86 E42.61648
G1 X72.185 Y151.741 E42.6523
G1 X71.442 Y151.543 E42.68811
G1 X70.723 Y151.269 E42.72394
G1 X70.037 Y150.922 E42.75973
G1 X69.39 Y150.506 E42.79555
G1 X68.79 Y150.025 E42.83136
G1 X68.363 Y149.616 E42.85889
G1 X67.849 Y149.044 E42.8947
G1 X67.396 Y148.422 E42.93053
G1 X67.01 Y147.757 E42.96633
G1 X66.695 Y147.055 E43.00216
G1 X66.455 Y146.324 E43.03799
G1 X66.292 Y145.573 E43.07377
G1 X66.208 Y144.808 E43.10961
G1 X66.196 Y144.383 E43.1294
G1 X66.196 Y90.617 E45.63297
G1 X66.236 Y89.849 E45.66878
G1 X66.355 Y89.089 E45.7046
G1 X66.553 Y88.346 E45.74041
G1 X66.827 Y87.627 E45.77624
G1 X67.174 Y86.941 E45.81203
G1 X67.59 Y86.294 E45.84785
G1 X68.071 Y85.694 E45.88366
G1 X68.48 Y85.267 E45.91119
G1 X69.052 Y84.753 E45.947
G0 F6000 X69.32 Y85.05
G1 F1200 X69.926 Y84.613 E45.98179
G1 X70.576 Y84.242 E46.01664
G1 X71.262 Y83.943 E46.05148
G1 X71.976 Y83.719 E46.08633
G1 X72.709 Y83.572 E46.12114
G1 X73.713 Y83.5 E46.16801
G1 X120.143 Y83.5 E48.32999
G1 X120.89 Y83.54 E48.36482
G1 X121.628 Y83.659 E48.39963
G1 X122.35 Y83.857 E48.43449
G1 X123.046 Y84.13 E48.4693
G1 X123.709 Y84.477 E48.50415
G1 X124.332 Y84.892 E48.539
G1 X125.093 Y85.55 E48.58585
G1 X125.21 Y85.667 E48.59355
G1 X125.71 Y86.224 E48.6284
G1 X126.147 Y86.83 E48.66319
G1 X126.518 Y87.48 E48.69804
G1 X126.817 Y88.166 E48.73289
G1 X127.041 Y88.88 E48.76773
G1 X127.188 Y89.613 E48.80254
G1 X127.26 Y90.625 E48.84979
G1 X127.255 Y94.775 E49.04303
G1 X161.282 Y94.775 E50.62747
G1 X162.029 Y94.815 E50.6623
G1 X162.767 Y94.934 E50.69711
G1 X163.489 Y95.132 E50.73197
G1 X164.185 Y95.405 E50.76678
G1 X164.848 Y95.752 E50.80163
G1 X165.471 Y96.167 E50.83648
G1 X166.232 Y96.825 E50.88333
G1 X166.349 Y96.942 E50.89103
G1 X166.849 Y97.499 E50.92589
G1 X167.286 Y98.105 E50.96068
G1 X167.657 Y98.755 E50.99553
G1 X167.956 Y99.441 E51.03037
G1 X168.18 Y100.155 E51.06522
G1 X168.327 Y100.888 E51.10003
G1 X168.399 Y101.892 E51.1469
G1 X168.399 Y105.59 E51.31909
G1 X168.359 Y106.337 E51.35393
G1 X168.24 Y107.075 E51.38873
G1 X168.042 Y107.797 E51.42359
G1 X167.769 Y108.493 E51.45841
G1 X167.422 Y109.156 E51.49325
G1 X167.007 Y109.779 E51.52811
G1 X166.349 Y110.54 E51.57495
G1 X166.232 Y110.657 E51.58266
G1 X165.675 Y111.157 E51.61751
G1 X165.069 Y111.594 E51.6523
G1 X164.419 Y111.965 E51.68715
G1 X163.733 Y112.264 E51.722
G1 X163.019 Y112.488 E51.75684
G1 X162.286 Y112.635 E51.79165
G1 X161.282 Y112.707 E51.83852
G1 X127.247 Y112.706 E53.42333
G1 X127.247 Y119.507 E53.74002
G1 X161.288 Y119.51 E55.32511
G1 X162.035 Y119.55 E55.35994
G1 X162.773 Y119.67 E55.39476
G1 X163.495 Y119.867 E55.42961
G1 X164.191 Y120.141 E55.46444
G1 X164.854 Y120.487 E55.49926
G1 X165.476 Y120.902 E55.53408
G1 X166.237 Y121.56 E55.58092
G1 X166.354 Y121.677 E55.58863
G1 X166.854 Y122.234 E55.62348
G1 X167.291 Y122.84 E55.65827
G1 X167.662 Y123.49 E55.69312
G1 X167.961 Y124.176 E55.72796
G1 X168.185 Y124.89 E55.76281
G1 X168.332 Y125.623 E55.79762
G1 X168.404 Y126.627 E55.84449
G1 X168.404 Y130.324 E56.01664
G1 X168.364 Y131.071 E56.05147
G1 X168.245 Y131.809 E56.08628
G1 X168.047 Y132.531 E56.12114
G1 X167.774 Y133.227 E56.15595
G1 X167.427 Y133.89 E56.1908
G1 X167.012 Y134.513 E56.22565
G1 X166.354 Y135.274 E56.2725
G1 X166.237 Y135.391 E56.2802
G1 X165.68 Y135.891 E56.31506
G1 X165.074 Y136.328 E56.34985
G1 X164.424 Y136.699 E56.3847
G1 X163.738 Y136.998 E56.41954
G1 X163.024 Y137.222 E56.45439
G1 X162.291 Y137.369 E56.4892
G1 X161.287 Y137.441 E56.53607
G1 X127.254 Y137.441 E58.12079
G1 X127.26 Y144.376 E58.44371
G1 X127.221 Y145.124 E58.47859
G1 X127.102 Y145.862 E58.51339
G1 X126.905 Y146.584 E58.54824
G1 X126.632 Y147.28 E58.58306
G1 X126.287 Y147.944 E58.6179
G1 X125.872 Y148.567 E58.65275
G1 X125.21 Y149.333 E58.6999
G1 X125.093 Y149.45 E58.7076
G1 X124.536 Y149.95 E58.74246
G1 X123.93 Y150.387 E58.77725
G1 X123.28 Y150.758 E58.81209
G1 X122.594 Y151.057 E58.84694
G1 X121.88 Y151.281 E58.88178
G1 X121.147 Y151.428 E58.9166
G1 X120.143 Y151.5 E58.96347
G1 X115.759 Y151.5 E59.1676
G1 X115.012 Y151.46 E59.20244
G1 X114.274 Y151.341 E59.23725
G1 X113.552 Y151.143 E59.27211
G1 X112.856 Y150.87 E59.30692
G1 X112.193 Y150.523 E59.34176
G1 X111.57 Y150.108 E59.37662
G1 X110.809 Y149.45 E59.42346
G1 X110.692 Y149.333 E59.43117
G1 X110.192 Y148.776 E59.46602
G1 X109.755 Y148.17 E59.50081
G1 X109.384 Y147.52 E59.53566
G1 X109.085 Y146.834 E59.57051
G1 X108.861 Y146.12 E59.60535
G1 X108.714 Y145.387 E59.64016
G1 X108.642 Y144.383 E59.68703
G1 X108.642 Y101.5 E61.68385
G1 X84.596 Y101.5 E62.80353
G1 X84.596 Y144.383 E64.80034
G1 X84.556 Y145.13 E64.83517
G1 X84.437 Y145.868 E64.86998
G1 X84.239 Y146.59 E64.90484
G1 X83.966 Y147.286 E64.93965
G1 X83.619 Y147.949 E64.9745
G1 X83.204 Y148.572 E65.00936
G1 X82.546 Y149.333 E65.0562
G1 X82.429 Y149.45 E65.06391
G1 X81.872 Y149.95 E65.09876
G1 X81.266 Y150.387 E65.13355
G1 X80.616 Y150.758 E65.1684
G1 X79.93 Y151.057 E65.20324
G1 X79.216 Y151.281 E65.23809
G1 X78.483 Y151.428 E65.2729
G1 X77.479 Y151.5 E65.31977
G1 X73.713 Y151.5 E65.49513
