;FLAVOR:Marlin
;TIME:12063
;Filament used: 10.6538m
;Layer height: 0.28
;MINX:43.222
;MINY:86.356
;MINZ:0.28
;MAXX:191.778
;MAXY:148.644
;MAXZ:28
;Generated with Cura_SteamEngine 4.5.0
M140 S50
M105
M190 S50
M104 S200
M105
M109 S200
M82 ;absolute extrusion mode
; Ender 3 Custom Start G-code
G92 E0 ; Reset Extruder
G28 ; Home all axes
G1 Z2.0 F3000 ; Move Z Axis up little to prevent scratching of Heat Bed
G1 X0.1 Y20 Z0.3 F5000.0 ; Move to start position
G1 X0.1 Y200.0 Z0.3 F1500.0 E15 ; Draw the first line
G1 X0.4 Y200.0 Z0.3 F5000.0 ; Move to side a little
G1 X0.4 Y20 Z0.3 F1500.0 E30 ; Draw the second line
G92 E0 ; Reset Extruder
G1 Z2.0 F3000 ; Move Z Axis up little to prevent scratching of Heat Bed
G1 X5 Y20 Z0.3 F5000.0 ; Move over to prevent blob squish
G92 E0
G92 E0
G1 F2700 E-5
;LAYER_COUNT:100
;LAYER:0
M107
G0 F6000 X48.244 Y110.601 Z0.28
;TYPE:SKIRT
G1 F2700 E0
G1 F1200 X48.991 Y110.346 E0.03675
G1 X49.76 Y110.167 E0.07352
G1 X50.544 Y110.067 E0.11032
G1 X51.139 Y110.044 E0.13805
G1 X131.468 Y110.044 E3.8785
G1 X131.468 Y94.273 E4.61287
G1 X131.508 Y93.484 E4.64965
G1 X131.627 Y92.704 E4.68639
G1 X131.825 Y91.939 E4.72319
G1 X132.099 Y91.199 E4.75993
G1 X132.447 Y90.49 E4.79671
G1 X132.865 Y89.819 E4.83352
G1 X133.348 Y89.195 E4.87026
G1 X133.753 Y88.758 E4.89801
G1 X133.87 Y88.641 E4.90571
G1 X134.456 Y88.111 E4.9425
G1 X135.092 Y87.644 E4.97924
G1 X135.772 Y87.243 E5.016
G1 X136.49 Y86.913 E5.0528
G1 X137.237 Y86.658 E5.08955
G1 X138.006 Y86.479 E5.12632
G1 X138.79 Y86.379 E5.16312
G1 X139.385 Y86.356 E5.19085
G1 X183.861 Y86.356 E7.26184
G1 X184.65 Y86.396 E7.29862
G1 X185.43 Y86.515 E7.33536
G1 X186.195 Y86.713 E7.37216
G1 X186.935 Y86.987 E7.4089
G1 X187.644 Y87.335 E7.44568
G1 X188.315 Y87.753 E7.48249
G1 X188.939 Y88.236 E7.51923
G1 X189.376 Y88.641 E7.54698
G1 X189.493 Y88.758 E7.55468
G1 X190.023 Y89.344 E7.59147
G1 X190.49 Y89.98 E7.62821
G1 X190.891 Y90.66 E7.66497
G1 X191.221 Y91.378 E7.70177
G1 X191.476 Y92.125 E7.73852
G1 X191.655 Y92.894 E7.77529
G1 X191.755 Y93.678 E7.81209
G1 X191.778 Y94.273 E7.83982
G1 X191.778 Y98.039 E8.01518
G1 X191.738 Y98.828 E8.05196
G1 X191.619 Y99.608 E8.0887
G1 X191.421 Y100.373 E8.1255
G1 X191.147 Y101.113 E8.16224
G1 X190.799 Y101.822 E8.19902
G1 X190.381 Y102.493 E8.23583
G1 X189.898 Y103.117 E8.27257
G1 X189.493 Y103.554 E8.30032
G1 X189.376 Y103.671 E8.30802
G1 X188.79 Y104.201 E8.34481
G1 X188.154 Y104.668 E8.38155
G1 X187.474 Y105.069 E8.41831
G1 X186.756 Y105.399 E8.45511
G1 X186.009 Y105.654 E8.49186
G1 X185.24 Y105.833 E8.52863
G1 X184.456 Y105.933 E8.56543
G1 X183.861 Y105.956 E8.59316
G1 X151.068 Y105.956 E10.12014
G1 X151.068 Y129.044 E11.19521
G1 X183.861 Y129.044 E12.72219
G1 X184.65 Y129.084 E12.75897
G1 X185.43 Y129.203 E12.79572
G1 X186.195 Y129.401 E12.83251
G1 X186.935 Y129.675 E12.86925
G1 X187.644 Y130.023 E12.90603
G1 X188.315 Y130.441 E12.94284
G1 X188.939 Y130.924 E12.97959
G1 X189.376 Y131.329 E13.00733
G1 X189.493 Y131.446 E13.01503
G1 X190.023 Y132.032 E13.05183
G1 X190.49 Y132.668 E13.08857
G1 X190.891 Y133.348 E13.12533
G1 X191.221 Y134.066 E13.16212
G1 X191.476 Y134.813 E13.19887
G1 X191.655 Y135.582 E13.23564
G1 X191.755 Y136.366 E13.27244
G1 X191.778 Y136.961 E13.30017
G1 X191.778 Y140.727 E13.47553
G1 X191.738 Y141.516 E13.51232
G1 X191.619 Y142.296 E13.54906
G1 X191.421 Y143.061 E13.58585
G1 X191.147 Y143.801 E13.6226
G1 X190.799 Y144.51 E13.65937
G1 X190.381 Y145.181 E13.69618
G1 X189.898 Y145.805 E13.73293
G1 X189.493 Y146.242 E13.76067
G1 X189.376 Y146.359 E13.76837
G1 X188.79 Y146.889 E13.80517
G1 X188.154 Y147.356 E13.84191
G1 X187.474 Y147.757 E13.87867
G1 X186.756 Y148.087 E13.91546
G1 X186.009 Y148.342 E13.95222
G1 X185.24 Y148.521 E13.98898
G1 X184.456 Y148.621 E14.02578
G1 X183.861 Y148.644 E14.05351
G1 X139.385 Y148.644 E16.1245
G1 X138.596 Y148.604 E16.16128
G1 X137.816 Y148.485 E16.19802
G1 X137.051 Y148.287 E16.23482
G1 X136.311 Y148.013 E16.27156
G1 X135.602 Y147.665 E16.30834
G1 X134.931 Y147.247 E16.34515
G1 X134.307 Y146.764 E16.38189
G1 X133.87 Y146.359 E16.40964
G1 X133.753 Y146.242 E16.41734
G1 X133.223 Y145.656 E16.45413
G1 X132.756 Y145.02 E16.49088
G1 X132.355 Y144.34 E16.52763
G1 X132.025 Y143.622 E16.56443
G1 X131.77 Y142.875 E16.60118
G1 X131.591 Y142.106 E16.63795
G1 X131.532 Y141.644 E16.65964
G1 X51.139 Y141.644 E20.40307
G1 X50.35 Y141.604 E20.43986
G1 X49.57 Y141.485 E20.4766
G1 X48.805 Y141.287 E20.51339
G1 X48.065 Y141.013 E20.55014
G1 X47.356 Y140.665 E20.58691
G1 X46.685 Y140.247 E20.62373
G1 X46.061 Y139.764 E20.66047
G1 X45.624 Y139.359 E20.68821
G1 X45.507 Y139.242 E20.69592
G1 X44.977 Y138.656 E20.73271
G1 X44.51 Y138.02 E20.76945
G1 X44.109 Y137.34 E20.80621
G1 X43.779 Y136.622 E20.843
G1 X43.524 Y135.875 E20.87976
G1 X43.345 Y135.106 E20.91652
G1 X43.245 Y134.322 E20.95333
G1 X43.222 Y133.727 E20.98105
G1 X43.222 Y117.961 E21.71518
G1 X43.262 Y117.172 E21.75197
G1 X43.381 Y116.392 E21.78871
G1 X43.579 Y115.627 E21.8255
G1 X43.853 Y114.887 E21.86225
G1 X44.201 Y114.178 E21.89902
G1 X44.619 Y113.507 E21.93584
G1 X45.102 Y112.883 E21.97258
G1 X45.507 Y112.446 E22.00032
G1 X45.624 Y112.329 E22.00803
G1 X46.21 Y111.799 E22.04482
G1 X46.846 Y111.332 E22.08156
G1 X47.526 Y110.931 E22.11832
G1 X48.244 Y110.601 E22.15511
G0 F6000 X48.467 Y110.943
G1 F1200 X49.198 Y110.703 E22.19094
G1 X49.949 Y110.54 E22.22672
G1 X50.714 Y110.456 E22.26256
G1 X51.139 Y110.444 E22.28236
G1 X131.868 Y110.444 E26.04144
G1 X131.868 Y94.273 E26.79443
G1 X131.908 Y93.505 E26.83024
G1 X132.027 Y92.745 E26.86606
G1 X132.225 Y92.002 E26.90186
G1 X132.499 Y91.283 E26.93769
G1 X132.846 Y90.597 E26.97349
G1 X133.262 Y89.95 E27.0093
G1 X133.743 Y89.35 E27.04511
G1 X134.152 Y88.923 E27.07264
G1 X134.724 Y88.409 E27.10845
G1 X135.346 Y87.956 E27.14428
G1 X136.011 Y87.57 E27.18009
G1 X136.713 Y87.255 E27.21591
G1 X137.444 Y87.015 E27.25174
G1 X138.195 Y86.852 E27.28752
G1 X138.96 Y86.768 E27.32336
G1 X139.385 Y86.756 E27.34316
G1 X183.861 Y86.756 E29.41415
G1 X184.629 Y86.796 E29.44996
G1 X185.389 Y86.915 E29.48578
G1 X186.132 Y87.113 E29.52158
G1 X186.851 Y87.387 E29.55741
G1 X187.537 Y87.734 E29.59321
G1 X188.184 Y88.15 E29.62902
G1 X188.784 Y88.631 E29.66483
G1 X189.211 Y89.04 E29.69236
G1 X189.725 Y89.612 E29.72817
G1 X190.178 Y90.234 E29.764
G1 X190.564 Y90.899 E29.79981
G1 X190.879 Y91.601 E29.83563
G1 X191.119 Y92.332 E29.87146
G1 X191.282 Y93.083 E29.90724
G1 X191.366 Y93.848 E29.94308
G1 X191.378 Y94.273 E29.96288
G1 X191.378 Y98.039 E30.13824
G1 X191.338 Y98.807 E30.17405
G1 X191.219 Y99.567 E30.20987
G1 X191.021 Y100.31 E30.24567
G1 X190.747 Y101.029 E30.2815
G1 X190.4 Y101.715 E30.3173
G1 X189.984 Y102.362 E30.35312
G1 X189.503 Y102.962 E30.38892
G1 X189.094 Y103.389 E30.41646
G1 X188.522 Y103.903 E30.45226
G1 X187.9 Y104.356 E30.48809
G1 X187.235 Y104.742 E30.5239
G1 X186.533 Y105.057 E30.55973
G1 X185.802 Y105.297 E30.59555
G1 X185.051 Y105.46 E30.63134
G1 X184.286 Y105.544 E30.66717
G1 X183.861 Y105.556 E30.68697
G1 X150.668 Y105.556 E32.23257
G1 X150.668 Y129.444 E33.3449
G1 X183.861 Y129.444 E34.8905
G1 X184.629 Y129.484 E34.92631
G1 X185.389 Y129.603 E34.96213
G1 X186.132 Y129.801 E34.99794
G1 X186.851 Y130.075 E35.03377
G1 X187.537 Y130.422 E35.06956
G1 X188.184 Y130.838 E35.10538
G1 X188.784 Y131.319 E35.14119
G1 X189.211 Y131.728 E35.16872
G1 X189.725 Y132.3 E35.20453
G1 X190.178 Y132.922 E35.24036
G1 X190.564 Y133.587 E35.27616
G1 X190.879 Y134.289 E35.31199
G1 X191.119 Y135.02 E35.34782
G1 X191.282 Y135.771 E35.3836
G1 X191.366 Y136.536 E35.41944
G1 X191.378 Y136.961 E35.43924
G1 X191.378 Y140.727 E35.6146
G1 X191.338 Y141.495 E35.65041
G1 X191.219 Y142.255 E35.68623
G1 X191.021 Y142.998 E35.72203
G1 X190.747 Y143.717 E35.75786
G1 X190.4 Y144.403 E35.79366
G1 X189.984 Y145.05 E35.82947
G1 X189.503 Y145.65 E35.86528
G1 X189.094 Y146.077 E35.89281
G1 X188.522 Y146.591 E35.92862
G1 X187.9 Y147.044 E35.96445
G1 X187.235 Y147.43 E36.00025
G1 X186.533 Y147.745 E36.03608
G1 X185.802 Y147.985 E36.07191
G1 X185.051 Y148.148 E36.10769
G1 X184.286 Y148.232 E36.14353
G1 X183.861 Y148.244 E36.16333
G1 X139.385 Y148.244 E38.23432
G1 X138.617 Y148.204 E38.27012
G1 X137.857 Y148.085 E38.30594
G1 X137.114 Y147.887 E38.34175
G1 X136.395 Y147.613 E38.37758
G1 X135.709 Y147.266 E38.41337
G1 X135.062 Y146.85 E38.44919
G1 X134.462 Y146.369 E38.485
G1 X134.035 Y145.96 E38.51253
G1 X133.521 Y145.388 E38.54834
G1 X133.068 Y144.766 E38.58417
G1 X132.682 Y144.101 E38.61997
G1 X132.367 Y143.399 E38.6558
G1 X132.127 Y142.668 E38.69163
G1 X131.964 Y141.917 E38.72741
G1 X131.89 Y141.244 E38.75894
G1 X51.139 Y141.244 E42.51904
G1 X50.371 Y141.204 E42.55485
G1 X49.611 Y141.085 E42.59067
G1 X48.868 Y140.887 E42.62648
G1 X48.149 Y140.613 E42.66231
G1 X47.463 Y140.266 E42.6981
G1 X46.816 Y139.85 E42.73392
G1 X46.216 Y139.369 E42.76973
G1 X45.789 Y138.96 E42.79726
G1 X45.275 Y138.388 E42.83307
G1 X44.822 Y137.766 E42.8689
G1 X44.436 Y137.101 E42.9047
G1 X44.121 Y136.399 E42.94053
G1 X43.881 Y135.668 E42.97636
G1 X43.718 Y134.917 E43.01214
G1 X43.634 Y134.152 E43.04798
G1 X43.622 Y133.727 E43.06777
G1 X43.622 Y117.961 E43.80191
G1 X43.662 Y117.193 E43.83771
G1 X43.781 Y116.433 E43.87353
G1 X43.979 Y115.69 E43.90934
G1 X44.253 Y114.971 E43.94517
G1 X44.6 Y114.285 E43.98096
G1 X45.016 Y113.638 E44.01678
G1 X45.497 Y113.038 E44.05259
G1 X45.906 Y112.611 E44.08012
G1 X46.478 Y112.097 E44.11593
G1 X47.1 Y111.644 E44.15176
G1 X47.765 Y111.258 E44.18756
G1 X48.467 Y110.943 E44.22339
G0 F6000 X48.688 Y111.287
G1 F1200 X49.402 Y111.063 E44.25824
G1 X50.135 Y110.916 E44.29305
G1 X51.139 Y110.844 E44.33992
G1 X132.268 Y110.844 E48.11762
G1 X132.268 Y94.273 E48.88924
G1 X132.308 Y93.526 E48.92407
G1 X132.427 Y92.788 E48.95888
G1 X132.625 Y92.066 E48.99374
G1 X132.898 Y91.37 E49.02855
G1 X133.245 Y90.707 E49.0634
G1 X133.66 Y90.084 E49.09826
G1 X134.318 Y89.323 E49.1451
G1 X134.435 Y89.206 E49.15281
G1 X134.992 Y88.706 E49.18766
G1 X135.598 Y88.269 E49.22245
G1 X136.248 Y87.898 E49.2573
G1 X136.934 Y87.599 E49.29214
G1 X137.648 Y87.375 E49.32699
G1 X138.381 Y87.228 E49.3618
G1 X139.385 Y87.156 E49.40867
G1 X183.861 Y87.156 E51.47966
G1 X184.608 Y87.196 E51.51449
G1 X185.346 Y87.315 E51.5493
G1 X186.068 Y87.513 E51.58416
G1 X186.764 Y87.786 E51.61897
G1 X187.427 Y88.133 E51.65382
G1 X188.05 Y88.548 E51.68867
G1 X188.811 Y89.206 E51.73552
G1 X188.928 Y89.323 E51.74322
G1 X189.428 Y89.88 E51.77808
G1 X189.865 Y90.486 E51.81287
G1 X190.236 Y91.136 E51.84772
G1 X190.535 Y91.822 E51.88256
G1 X190.759 Y92.536 E51.91741
G1 X190.906 Y93.269 E51.95222
G1 X190.978 Y94.273 E51.99909
G1 X190.978 Y98.039 E52.17445
G1 X190.938 Y98.786 E52.20928
G1 X190.819 Y99.524 E52.24409
G1 X190.621 Y100.246 E52.27895
G1 X190.348 Y100.942 E52.31376
G1 X190.001 Y101.605 E52.34861
G1 X189.586 Y102.228 E52.38346
G1 X188.928 Y102.989 E52.43031
G1 X188.811 Y103.106 E52.43801
G1 X188.254 Y103.606 E52.47287
G1 X187.648 Y104.043 E52.50766
G1 X186.998 Y104.414 E52.54251
G1 X186.312 Y104.713 E52.57735
G1 X185.598 Y104.937 E52.6122
G1 X184.865 Y105.084 E52.64701
G1 X183.861 Y105.156 E52.69388
G1 X150.268 Y105.156 E54.25811
G1 X150.268 Y129.844 E55.40769
G1 X183.861 Y129.844 E56.97192
G1 X184.608 Y129.884 E57.00675
G1 X185.346 Y130.003 E57.04156
G1 X186.068 Y130.201 E57.07642
G1 X186.764 Y130.474 E57.11123
G1 X187.427 Y130.821 E57.14608
G1 X188.05 Y131.236 E57.18093
G1 X188.811 Y131.894 E57.22778
G1 X188.928 Y132.011 E57.23548
G1 X189.428 Y132.568 E57.27033
G1 X189.865 Y133.174 E57.30512
G1 X190.236 Y133.824 E57.33997
G1 X190.535 Y134.51 E57.37482
G1 X190.759 Y135.224 E57.40966
G1 X190.906 Y135.957 E57.44448
G1 X190.978 Y136.961 E57.49135
G1 X190.978 Y140.727 E57.66671
G1 X190.938 Y141.474 E57.70154
G1 X190.819 Y142.212 E57.73635
G1 X190.621 Y142.934 E57.77121
G1 X190.348 Y143.63 E57.80602
G1 X190.001 Y144.293 E57.84087
G1 X189.586 Y144.916 E57.87572
G1 X188.928 Y145.677 E57.92257
G1 X188.811 Y145.794 E57.93027
G1 X188.254 Y146.294 E57.96513
G1 X187.648 Y146.731 E57.99991
G1 X186.998 Y147.102 E58.03476
G1 X186.312 Y147.401 E58.06961
G1 X185.598 Y147.625 E58.10445
G1 X184.865 Y147.772 E58.13927
G1 X183.861 Y147.844 E58.18614
G1 X139.385 Y147.844 E60.25713
G1 X138.638 Y147.804 E60.29196
G1 X137.9 Y147.685 E60.32677
G1 X137.178 Y147.487 E60.36163
G1 X136.482 Y147.214 E60.39644
G1 X135.819 Y146.867 E60.43128
G1 X135.196 Y146.452 E60.46614
G1 X134.435 Y145.794 E60.51299
G1 X134.318 Y145.677 E60.52069
G1 X133.818 Y145.12 E60.55554
G1 X133.381 Y144.514 E60.59033
G1 X133.01 Y143.864 E60.62518
G1 X132.711 Y143.178 E60.66003
G1 X132.487 Y142.464 E60.69487
G1 X132.34 Y141.731 E60.72968
G1 X132.276 Y140.844 E60.77109
G1 X51.139 Y140.844 E64.54917
G1 X50.392 Y140.804 E64.58401
G1 X49.654 Y140.685 E64.61881
G1 X48.932 Y140.487 E64.65367
G1 X48.236 Y140.214 E64.68849
G1 X47.573 Y139.867 E64.72333
G1 X46.95 Y139.452 E64.75819
G1 X46.189 Y138.794 E64.80503
G1 X46.072 Y138.677 E64.81274
G1 X45.572 Y138.12 E64.84759
G1 X45.135 Y137.514 E64.88238
G1 X44.764 Y136.864 E64.91723
G1 X44.465 Y136.178 E64.95208
G1 X44.241 Y135.464 E64.98692
G1 X44.094 Y134.731 E65.02173
G1 X44.022 Y133.727 E65.0686
G1 X44.022 Y117.961 E65.80273
G1 X44.062 Y117.214 E65.83757
G1 X44.181 Y116.476 E65.87237
G1 X44.379 Y115.754 E65.90724
G1 X44.652 Y115.058 E65.94205
G1 X44.999 Y114.395 E65.97689
G1 X45.414 Y113.772 E66.01175
G1 X46.072 Y113.011 E66.05859
G1 X46.189 Y112.894 E66.0663
G1 X46.746 Y112.394 E66.10115
G1 X47.352 Y111.957 E66.13594
G1 X48.002 Y111.586 E66.17079
G1 X48.688 Y111.287 E66.20564
G0 F6000 X48.907 Y111.633
G1 F1200 X49.603 Y111.425 E66.23946
G1 X50.318 Y111.295 E66.2733
G1 X51.139 Y111.244 E66.3116
G1 X132.668 Y111.244 E70.10794
G1 X132.668 Y94.273 E70.89818
G1 X132.708 Y93.548 E70.93199
G1 X132.827 Y92.831 E70.96583
G1 X133.025 Y92.132 E70.99966
G1 X133.298 Y91.459 E71.03348
G1 X133.643 Y90.82 E71.06729
G1 X134.057 Y90.223 E71.10112
G1 X134.601 Y89.606 E71.13942
G1 X134.718 Y89.489 E71.14713
G1 X135.259 Y89.005 E71.18093
G1 X135.85 Y88.582 E71.21477
G1 X136.484 Y88.228 E71.24858
G1 X137.153 Y87.945 E71.28241
G1 X137.849 Y87.737 E71.31623
G1 X138.564 Y87.607 E71.35007
G1 X139.385 Y87.556 E71.38837
G1 X183.861 Y87.556 E73.45936
G1 X184.586 Y87.596 E73.49317
G1 X185.303 Y87.715 E73.52702
G1 X186.002 Y87.913 E73.56084
G1 X186.675 Y88.186 E73.59466
G1 X187.314 Y88.531 E73.62848
G1 X187.911 Y88.945 E73.66231
G1 X188.528 Y89.489 E73.70061
G1 X188.645 Y89.606 E73.70831
G1 X189.129 Y90.147 E73.74211
G1 X189.552 Y90.738 E73.77596
G1 X189.906 Y91.372 E73.80977
G1 X190.189 Y92.041 E73.84359
G1 X190.397 Y92.737 E73.87742
G1 X190.527 Y93.452 E73.91126
G1 X190.578 Y94.273 E73.94956
G1 X190.578 Y98.039 E74.12492
G1 X190.538 Y98.764 E74.15873
G1 X190.419 Y99.481 E74.19257
G1 X190.221 Y100.18 E74.2264
G1 X189.948 Y100.853 E74.26022
G1 X189.603 Y101.492 E74.29403
G1 X189.189 Y102.089 E74.32786
G1 X188.645 Y102.706 E74.36617
G1 X188.528 Y102.823 E74.37387
G1 X187.987 Y103.307 E74.40767
G1 X187.396 Y103.73 E74.44151
G1 X186.762 Y104.084 E74.47532
G1 X186.093 Y104.367 E74.50915
G1 X185.397 Y104.575 E74.54297
G1 X184.682 Y104.705 E74.57681
G1 X183.861 Y104.756 E74.61512
G1 X149.868 Y104.756 E76.19797
G1 X149.868 Y130.244 E77.3848
G1 X183.861 Y130.244 E78.96766
G1 X184.586 Y130.284 E79.00147
G1 X185.303 Y130.403 E79.03531
G1 X186.002 Y130.601 E79.06914
G1 X186.675 Y130.874 E79.10296
G1 X187.314 Y131.219 E79.13677
G1 X187.911 Y131.633 E79.1706
G1 X188.528 Y132.177 E79.2089
G1 X188.645 Y132.294 E79.21661
G1 X189.129 Y132.835 E79.25041
G1 X189.552 Y133.426 E79.28425
G1 X189.906 Y134.06 E79.31806
G1 X190.189 Y134.729 E79.35189
G1 X190.397 Y135.425 E79.38571
G1 X190.527 Y136.14 E79.41955
G1 X190.578 Y136.961 E79.45785
G1 X190.578 Y140.727 E79.63321
G1 X190.538 Y141.452 E79.66702
G1 X190.419 Y142.169 E79.70087
G1 X190.221 Y142.868 E79.7347
G1 X189.948 Y143.541 E79.76851
G1 X189.603 Y144.18 E79.80233
G1 X189.189 Y144.777 E79.83616
G1 X188.645 Y145.394 E79.87446
G1 X188.528 Y145.511 E79.88217
G1 X187.987 Y145.995 E79.91597
G1 X187.396 Y146.418 E79.94981
G1 X186.762 Y146.772 E79.98362
G1 X186.093 Y147.055 E80.01744
