;FLAVOR:Marlin
;TIME:18707
;Filament used: 18.3508m
;Layer height: 0.28
;MINX:6.158
;MINY:46.618
;MINZ:0.28
;MAXX:228.842
;MAXY:188.382
;MAXZ:18.76
;Generated with Cura_SteamEngine 4.5.0
M140 S50
M105
M190 S50
M104 S200
M105
M109 S200
M82 ;absolute extrusion mode
; Ender 3 Custom Start G-code
G92 E0 ; Reset Extruder
G28 ; Home all axes
G1 Z2.0 F3000 ; Move Z Axis up little to prevent scratching of Heat Bed
G1 X0.1 Y20 Z0.3 F5000.0 ; Move to start position
G1 X0.1 Y200.0 Z0.3 F1500.0 E15 ; Draw the first line
G1 X0.4 Y200.0 Z0.3 F5000.0 ; Move to side a little
G1 X0.4 Y20 Z0.3 F1500.0 E30 ; Draw the second line
G92 E0 ; Reset Extruder
G1 Z2.0 F3000 ; Move Z Axis up little to prevent scratching of Heat Bed
G1 X5 Y20 Z0.3 F5000.0 ; Move over to prevent blob squish
G92 E0
G92 E0
G1 F2700 E-5
;LAYER_COUNT:67
;LAYER:0
M107
G0 F6000 X12.696 Y91.34 Z0.28
;TYPE:SKIRT
G1 F2700 E0
G1 F1200 X13.48 Y91.24 E0.0368
G1 X14.075 Y91.217 E0.06453
G1 X94.418 Y91.217 E3.80564
G1 X94.418 Y54.535 E5.5137
G1 X94.458 Y53.746 E5.55049
G1 X94.577 Y52.966 E5.58723
G1 X94.775 Y52.201 E5.62402
G1 X95.049 Y51.461 E5.66077
G1 X95.397 Y50.752 E5.69754
G1 X95.815 Y50.081 E5.73436
G1 X96.298 Y49.457 E5.7711
G1 X96.703 Y49.02 E5.79884
G1 X96.82 Y48.903 E5.80655
G1 X97.406 Y48.373 E5.84334
G1 X98.042 Y47.906 E5.88008
G1 X98.722 Y47.505 E5.91684
G1 X99.44 Y47.175 E5.95363
G1 X100.187 Y46.92 E5.99039
G1 X100.956 Y46.741 E6.02715
G1 X101.74 Y46.641 E6.06396
G1 X102.335 Y46.618 E6.09168
G1 X105.736 Y46.618 E6.25005
G1 X106.525 Y46.658 E6.28683
G1 X107.305 Y46.777 E6.32357
G1 X108.07 Y46.975 E6.36037
G1 X108.81 Y47.249 E6.39711
G1 X109.519 Y47.597 E6.43389
G1 X110.19 Y48.015 E6.4707
G1 X110.814 Y48.498 E6.50744
G1 X111.387 Y49.041 E6.5442
G1 X111.902 Y49.64 E6.58099
G1 X112.353 Y50.288 E6.61775
G1 X112.737 Y50.979 E6.65456
G1 X113.049 Y51.704 E6.69131
G1 X113.286 Y52.457 E6.72807
G1 X113.445 Y53.231 E6.76486
G1 X113.536 Y54.398 E6.81937
G1 X113.633 Y91.217 E8.53382
G1 X119.728 Y91.217 E8.81763
G1 X119.728 Y54.545 E10.52523
G1 X119.768 Y53.756 E10.56202
G1 X119.887 Y52.976 E10.59876
G1 X120.085 Y52.211 E10.63555
G1 X120.359 Y51.471 E10.6723
G1 X120.707 Y50.762 E10.70907
G1 X121.125 Y50.091 E10.74589
G1 X121.608 Y49.467 E10.78263
G1 X122.013 Y49.03 E10.81037
G1 X122.13 Y48.913 E10.81808
G1 X122.716 Y48.383 E10.85487
G1 X123.352 Y47.916 E10.89161
G1 X124.032 Y47.515 E10.92837
G1 X124.75 Y47.185 E10.96516
G1 X125.497 Y46.93 E11.00192
G1 X126.266 Y46.751 E11.03868
G1 X127.05 Y46.651 E11.07549
G1 X127.645 Y46.628 E11.10321
G1 X130.917 Y46.628 E11.25557
G1 X131.706 Y46.668 E11.29236
G1 X132.486 Y46.787 E11.3291
G1 X133.251 Y46.985 E11.36589
G1 X133.991 Y47.259 E11.40264
G1 X134.7 Y47.607 E11.43941
G1 X135.371 Y48.025 E11.47622
G1 X135.995 Y48.508 E11.51297
G1 X136.432 Y48.913 E11.54071
G1 X136.549 Y49.03 E11.54841
G1 X137.079 Y49.616 E11.58521
G1 X137.546 Y50.252 E11.62195
G1 X137.947 Y50.932 E11.65871
G1 X138.277 Y51.65 E11.6955
G1 X138.532 Y52.397 E11.73226
G1 X138.711 Y53.166 E11.76902
G1 X138.811 Y53.95 E11.80582
G1 X138.834 Y54.545 E11.83355
G1 X138.834 Y91.217 E13.54115
G1 X220.925 Y91.217 E17.36365
G1 X221.714 Y91.257 E17.40044
G1 X222.494 Y91.376 E17.43718
G1 X223.259 Y91.574 E17.47397
G1 X223.999 Y91.848 E17.51072
G1 X224.708 Y92.196 E17.54749
G1 X225.379 Y92.614 E17.58431
G1 X226.003 Y93.097 E17.62105
G1 X226.44 Y93.502 E17.64879
G1 X226.557 Y93.619 E17.6565
G1 X227.087 Y94.205 E17.69329
G1 X227.554 Y94.841 E17.73003
G1 X227.955 Y95.521 E17.76679
G1 X228.285 Y96.239 E17.80358
G1 X228.54 Y96.986 E17.84034
G1 X228.719 Y97.755 E17.8771
G1 X228.819 Y98.539 E17.91391
G1 X228.842 Y99.134 E17.94163
G1 X228.842 Y104.344 E18.18423
G1 X228.802 Y105.133 E18.22102
G1 X228.683 Y105.913 E18.25776
G1 X228.485 Y106.678 E18.29455
G1 X228.211 Y107.418 E18.3313
G1 X227.863 Y108.127 E18.36807
G1 X227.445 Y108.798 E18.40489
G1 X226.962 Y109.422 E18.44163
G1 X226.557 Y109.859 E18.46937
G1 X226.44 Y109.976 E18.47708
G1 X225.854 Y110.506 E18.51387
G1 X225.218 Y110.973 E18.55061
G1 X224.538 Y111.374 E18.58737
G1 X223.82 Y111.704 E18.62416
G1 X223.073 Y111.959 E18.66092
G1 X222.304 Y112.138 E18.69768
G1 X221.52 Y112.238 E18.73449
G1 X220.925 Y112.261 E18.76221
G1 X184.114 Y112.261 E20.47629
G1 X184.114 Y119.569 E20.81658
G1 X220.924 Y119.569 E22.5306
G1 X221.713 Y119.609 E22.56739
G1 X222.493 Y119.728 E22.60413
G1 X223.258 Y119.926 E22.64093
G1 X223.998 Y120.2 E22.67767
G1 X224.707 Y120.548 E22.71445
G1 X225.378 Y120.966 E22.75126
G1 X226.002 Y121.449 E22.788
G1 X226.439 Y121.854 E22.81575
G1 X226.556 Y121.971 E22.82345
G1 X227.086 Y122.557 E22.86024
G1 X227.553 Y123.193 E22.89698
G1 X227.954 Y123.873 E22.93374
G1 X228.284 Y124.591 E22.97054
G1 X228.539 Y125.338 E23.00729
G1 X228.718 Y126.107 E23.04406
G1 X228.818 Y126.891 E23.08086
G1 X228.841 Y127.486 E23.10858
G1 X228.841 Y131.83 E23.31086
G1 X228.801 Y132.619 E23.34765
G1 X228.682 Y133.399 E23.38439
G1 X228.484 Y134.164 E23.42118
G1 X228.21 Y134.904 E23.45793
G1 X227.862 Y135.613 E23.4947
G1 X227.444 Y136.284 E23.53151
G1 X226.961 Y136.908 E23.56826
G1 X226.556 Y137.345 E23.596
G1 X226.439 Y137.462 E23.6037
G1 X225.853 Y137.992 E23.6405
G1 X225.217 Y138.459 E23.67724
G1 X224.537 Y138.86 E23.714
G1 X223.819 Y139.19 E23.75079
G1 X223.072 Y139.445 E23.78755
G1 X222.303 Y139.624 E23.82431
G1 X221.519 Y139.724 E23.86111
G1 X220.924 Y139.747 E23.88884
G1 X184.114 Y139.748 E25.60287
G1 X184.114 Y180.465 E27.49882
G1 X184.074 Y181.254 E27.53561
G1 X183.955 Y182.034 E27.57235
G1 X183.757 Y182.799 E27.60914
G1 X183.483 Y183.539 E27.64589
G1 X183.135 Y184.248 E27.68266
G1 X182.717 Y184.919 E27.71947
G1 X182.234 Y185.543 E27.75622
G1 X181.829 Y185.98 E27.78396
G1 X181.712 Y186.097 E27.79167
G1 X181.126 Y186.627 E27.82846
G1 X180.49 Y187.094 E27.8652
G1 X179.81 Y187.495 E27.90196
G1 X179.092 Y187.825 E27.93875
G1 X178.345 Y188.08 E27.97551
G1 X177.576 Y188.259 E28.01227
G1 X176.792 Y188.359 E28.04907
G1 X176.197 Y188.382 E28.0768
G1 X58.803 Y188.382 E33.54316
G1 X58.014 Y188.342 E33.57994
G1 X57.234 Y188.223 E33.61668
G1 X56.469 Y188.025 E33.65348
G1 X55.729 Y187.751 E33.69022
G1 X55.02 Y187.403 E33.727
G1 X54.349 Y186.985 E33.76381
G1 X53.725 Y186.502 E33.80055
G1 X53.288 Y186.097 E33.8283
G1 X53.171 Y185.98 E33.836
G1 X52.641 Y185.394 E33.87279
G1 X52.174 Y184.758 E33.90954
G1 X51.773 Y184.078 E33.94629
G1 X51.443 Y183.36 E33.98309
G1 X51.188 Y182.613 E34.01984
G1 X51.009 Y181.844 E34.05661
G1 X50.909 Y181.06 E34.09341
G1 X50.886 Y180.465 E34.12114
G1 X50.886 Y139.748 E36.01709
G1 X14.076 Y139.747 E37.73112
G1 X13.287 Y139.707 E37.76791
G1 X12.507 Y139.587 E37.80465
G1 X11.742 Y139.39 E37.84144
G1 X11.001 Y139.116 E37.87822
G1 X10.292 Y138.768 E37.915
G1 X9.622 Y138.35 E37.95177
G1 X8.998 Y137.867 E37.98852
G1 X8.561 Y137.462 E38.01626
G1 X8.444 Y137.345 E38.02396
G1 X7.914 Y136.759 E38.06076
G1 X7.447 Y136.123 E38.0975
G1 X7.046 Y135.443 E38.13426
G1 X6.716 Y134.725 E38.17105
G1 X6.461 Y133.978 E38.20781
G1 X6.282 Y133.209 E38.24457
G1 X6.182 Y132.425 E38.28137
G1 X6.159 Y131.83 E38.3091
G1 X6.159 Y127.486 E38.51137
G1 X6.199 Y126.697 E38.54816
G1 X6.318 Y125.917 E38.5849
G1 X6.516 Y125.152 E38.6217
G1 X6.79 Y124.412 E38.65844
G1 X7.138 Y123.703 E38.69522
G1 X7.556 Y123.032 E38.73203
G1 X8.039 Y122.408 E38.76877
G1 X8.444 Y121.971 E38.79651
G1 X8.561 Y121.854 E38.80422
G1 X9.147 Y121.324 E38.84101
G1 X9.783 Y120.857 E38.87775
G1 X10.463 Y120.456 E38.91451
G1 X11.181 Y120.126 E38.95131
G1 X11.928 Y119.871 E38.98806
G1 X12.697 Y119.692 E39.02483
G1 X13.481 Y119.592 E39.06163
G1 X14.076 Y119.569 E39.08935
G1 X50.886 Y119.569 E40.80338
G1 X50.886 Y112.261 E41.14367
G1 X14.075 Y112.261 E42.85775
G1 X13.286 Y112.221 E42.89453
G1 X12.506 Y112.102 E42.93127
G1 X11.741 Y111.904 E42.96807
G1 X11.001 Y111.63 E43.00481
G1 X10.292 Y111.282 E43.04159
G1 X9.621 Y110.864 E43.0784
G1 X8.997 Y110.381 E43.11514
G1 X8.56 Y109.976 E43.14289
G1 X8.443 Y109.859 E43.15059
G1 X7.913 Y109.273 E43.18738
G1 X7.446 Y108.637 E43.22412
G1 X7.045 Y107.957 E43.26088
G1 X6.715 Y107.239 E43.29768
G1 X6.46 Y106.492 E43.33443
G1 X6.281 Y105.723 E43.3712
G1 X6.181 Y104.939 E43.408
G1 X6.158 Y104.344 E43.43573
G1 X6.158 Y99.134 E43.67833
G1 X6.198 Y98.345 E43.71511
G1 X6.317 Y97.565 E43.75185
G1 X6.515 Y96.8 E43.78865
G1 X6.789 Y96.06 E43.82539
G1 X7.137 Y95.351 E43.86217
G1 X7.555 Y94.68 E43.89898
G1 X8.038 Y94.056 E43.93572
G1 X8.443 Y93.619 E43.96347
G1 X8.56 Y93.502 E43.97117
G1 X9.146 Y92.972 E44.00796
G1 X9.782 Y92.505 E44.0447
G1 X10.462 Y92.104 E44.08146
G1 X11.18 Y91.774 E44.11826
G1 X11.927 Y91.519 E44.15501
G1 X12.696 Y91.34 E44.19178
G0 F6000 X12.885 Y91.713
G1 F1200 X13.65 Y91.629 E44.22761
G1 X14.075 Y91.617 E44.24741
G1 X94.818 Y91.617 E48.00714
G1 X94.818 Y54.535 E49.73384
G1 X94.858 Y53.767 E49.76965
G1 X94.977 Y53.007 E49.80547
G1 X95.175 Y52.264 E49.84127
G1 X95.449 Y51.545 E49.8771
G1 X95.796 Y50.859 E49.9129
G1 X96.212 Y50.212 E49.94871
G1 X96.693 Y49.612 E49.98452
G1 X97.102 Y49.185 E50.01205
G1 X97.674 Y48.671 E50.04786
G1 X98.296 Y48.218 E50.08369
G1 X98.961 Y47.832 E50.1195
G1 X99.663 Y47.517 E50.15532
G1 X100.394 Y47.277 E50.19115
G1 X101.145 Y47.114 E50.22693
G1 X101.91 Y47.03 E50.26277
G1 X102.335 Y47.018 E50.28257
G1 X105.736 Y47.018 E50.44093
G1 X106.504 Y47.058 E50.47674
G1 X107.264 Y47.177 E50.51256
G1 X108.007 Y47.375 E50.54837
G1 X108.726 Y47.649 E50.58419
G1 X109.412 Y47.996 E50.61999
G1 X110.059 Y48.412 E50.65581
G1 X110.659 Y48.893 E50.69162
G1 X111.206 Y49.434 E50.72744
G1 X111.694 Y50.029 E50.76327
G1 X112.117 Y50.671 E50.79907
G1 X112.472 Y51.354 E50.83492
G1 X112.753 Y52.069 E50.87069
G1 X112.959 Y52.811 E50.90655
G1 X113.087 Y53.569 E50.94234
G1 X113.136 Y54.399 E50.98106
G1 X113.234 Y91.617 E52.71409
G1 X120.128 Y91.617 E53.0351
G1 X120.128 Y54.545 E54.76133
G1 X120.168 Y53.777 E54.79714
G1 X120.287 Y53.017 E54.83296
G1 X120.485 Y52.274 E54.86876
G1 X120.759 Y51.555 E54.90459
G1 X121.106 Y50.869 E54.94039
G1 X121.522 Y50.222 E54.97621
G1 X122.003 Y49.622 E55.01201
G1 X122.412 Y49.195 E55.03955
G1 X122.984 Y48.681 E55.07535
G1 X123.606 Y48.228 E55.11118
G1 X124.271 Y47.842 E55.14699
G1 X124.973 Y47.527 E55.18282
G1 X125.704 Y47.287 E55.21864
G1 X126.455 Y47.124 E55.25443
G1 X127.22 Y47.04 E55.29026
G1 X127.645 Y47.028 E55.31006
G1 X130.917 Y47.028 E55.46242
G1 X131.685 Y47.068 E55.49823
G1 X132.445 Y47.187 E55.53405
G1 X133.188 Y47.385 E55.56985
G1 X133.907 Y47.659 E55.60568
G1 X134.593 Y48.006 E55.64148
G1 X135.24 Y48.422 E55.67729
G1 X135.84 Y48.903 E55.7131
G1 X136.267 Y49.312 E55.74063
G1 X136.781 Y49.884 E55.77644
G1 X137.234 Y50.506 E55.81227
G1 X137.62 Y51.171 E55.84808
G1 X137.935 Y51.873 E55.8839
G1 X138.175 Y52.604 E55.91973
G1 X138.338 Y53.355 E55.95551
G1 X138.422 Y54.12 E55.99135
G1 X138.434 Y54.545 E56.01115
G1 X138.434 Y91.617 E57.73738
G1 X220.925 Y91.617 E61.5785
G1 X221.693 Y91.657 E61.61431
G1 X222.453 Y91.776 E61.65013
G1 X223.196 Y91.974 E61.68594
G1 X223.915 Y92.248 E61.72176
G1 X224.601 Y92.595 E61.75756
G1 X225.248 Y93.011 E61.79338
G1 X225.848 Y93.492 E61.82919
G1 X226.275 Y93.901 E61.85672
G1 X226.789 Y94.473 E61.89253
G1 X227.242 Y95.095 E61.92836
G1 X227.628 Y95.76 E61.96416
G1 X227.943 Y96.462 E61.99999
G1 X228.183 Y97.193 E62.03582
G1 X228.346 Y97.944 E62.0716
G1 X228.43 Y98.709 E62.10744
G1 X228.442 Y99.134 E62.12723
G1 X228.442 Y104.344 E62.36983
G1 X228.402 Y105.112 E62.40564
G1 X228.283 Y105.872 E62.44146
G1 X228.085 Y106.615 E62.47727
G1 X227.811 Y107.334 E62.51309
G1 X227.464 Y108.02 E62.54889
G1 X227.048 Y108.667 E62.58471
G1 X226.567 Y109.267 E62.62052
G1 X226.158 Y109.694 E62.64805
G1 X225.586 Y110.208 E62.68386
G1 X224.964 Y110.661 E62.71969
G1 X224.299 Y111.047 E62.75549
G1 X223.597 Y111.362 E62.79132
G1 X222.866 Y111.602 E62.82715
G1 X222.115 Y111.765 E62.86293
G1 X221.35 Y111.849 E62.89877
G1 X220.925 Y111.861 E62.91856
G1 X183.714 Y111.861 E64.65126
G1 X183.714 Y119.969 E65.02881
G1 X220.924 Y119.969 E66.76146
G1 X221.692 Y120.009 E66.79727
G1 X222.452 Y120.128 E66.83309
G1 X223.195 Y120.326 E66.86889
G1 X223.914 Y120.6 E66.90472
G1 X224.6 Y120.947 E66.94052
G1 X225.247 Y121.363 E66.97634
G1 X225.847 Y121.844 E67.01214
G1 X226.274 Y122.253 E67.03968
G1 X226.788 Y122.825 E67.07548
G1 X227.241 Y123.447 E67.11131
G1 X227.627 Y124.112 E67.14712
G1 X227.942 Y124.814 E67.18295
G1 X228.182 Y125.545 E67.21877
G1 X228.345 Y126.296 E67.25456
G1 X228.429 Y127.061 E67.29039
G1 X228.441 Y127.486 E67.31019
G1 X228.441 Y131.83 E67.51246
G1 X228.401 Y132.598 E67.54827
G1 X228.282 Y133.358 E67.58409
G1 X228.084 Y134.101 E67.6199
G1 X227.81 Y134.82 E67.65573
G1 X227.463 Y135.506 E67.69152
G1 X227.047 Y136.153 E67.72734
G1 X226.566 Y136.753 E67.76315
G1 X226.157 Y137.18 E67.79068
G1 X225.585 Y137.694 E67.82649
G1 X224.963 Y138.147 E67.86232
G1 X224.298 Y138.533 E67.89812
G1 X223.596 Y138.848 E67.93395
G1 X222.865 Y139.088 E67.96978
G1 X222.114 Y139.251 E68.00556
G1 X221.349 Y139.335 E68.0414
G1 X220.924 Y139.347 E68.06119
G1 X183.714 Y139.348 E69.79385
G1 X183.714 Y180.465 E71.70843
G1 X183.674 Y181.233 E71.74424
G1 X183.555 Y181.993 E71.78006
G1 X183.357 Y182.736 E71.81586
G1 X183.083 Y183.455 E71.85169
G1 X182.736 Y184.141 E71.88749
G1 X182.32 Y184.788 E71.9233
G1 X181.839 Y185.388 E71.95911
G1 X181.43 Y185.815 E71.98664
G1 X180.858 Y186.329 E72.02245
G1 X180.236 Y186.782 E72.05828
G1 X179.571 Y187.168 E72.09409
G1 X178.869 Y187.483 E72.12991
G1 X178.138 Y187.723 E72.16574
G1 X177.387 Y187.886 E72.20152
G1 X176.622 Y187.97 E72.23736
G1 X176.197 Y187.982 E72.25716
G1 X58.803 Y187.982 E77.72351
G1 X58.035 Y187.942 E77.75932
G1 X57.275 Y187.823 E77.79514
G1 X56.532 Y187.625 E77.83095
G1 X55.813 Y187.351 E77.86678
G1 X55.127 Y187.004 E77.90257
G1 X54.48 Y186.588 E77.93839
G1 X53.88 Y186.107 E77.9742
G1 X53.453 Y185.698 E78.00173
G1 X52.939 Y185.126 E78.03754
G1 X52.486 Y184.504 E78.07337
G1 X52.1 Y183.839 E78.10917
G1 X51.785 Y183.137 E78.145
G1 X51.545 Y182.406 E78.18083
G1 X51.382 Y181.655 E78.21661
G1 X51.298 Y180.89 E78.25245
G1 X51.286 Y180.465 E78.27225
G1 X51.286 Y139.348 E80.18682
G1 X14.076 Y139.347 E81.91948
G1 X13.308 Y139.307 E81.95529
G1 X12.548 Y139.188 E81.99111
G1 X11.805 Y138.99 E82.02691
G1 X11.086 Y138.716 E82.06274
G1 X10.399 Y138.369 E82.09858
G1 X9.753 Y137.953 E82.13436
G1 X9.153 Y137.471 E82.17019
G1 X8.843 Y137.18 E82.18999
G1 X8.726 Y137.063 E82.1977
G1 X8.212 Y136.491 E82.23351
G1 X7.759 Y135.869 E82.26934
G1 X7.373 Y135.204 E82.30514
G1 X7.058 Y134.502 E82.34097
G1 X6.818 Y133.771 E82.37679
G1 X6.655 Y133.02 E82.41258
G1 X6.571 Y132.255 E82.44841
G1 X6.559 Y131.83 E82.46821
G1 X6.559 Y127.486 E82.67049
G1 X6.599 Y126.718 E82.7063
G1 X6.718 Y125.958 E82.74212
G1 X6.916 Y125.215 E82.77792
G1 X7.19 Y124.496 E82.81375
G1 X7.537 Y123.81 E82.84955
G1 X7.953 Y123.163 E82.88536
G1 X8.434 Y122.563 E82.92117
G1 X8.843 Y122.136 E82.9487
G1 X9.415 Y121.622 E82.98451
G1 X10.037 Y121.169 E83.02034
G1 X10.702 Y120.783 E83.05615
G1 X11.404 Y120.468 E83.09197
G1 X12.135 Y120.228 E83.1278
G1 X12.886 Y120.065 E83.16358
G1 X13.651 Y119.981 E83.19942
G1 X14.076 Y119.969 E83.21922
G1 X51.286 Y119.969 E84.95187
G1 X51.286 Y111.861 E85.32941
G1 X14.075 Y111.861 E87.06211
G1 X13.307 Y111.821 E87.09792
G1 X12.547 Y111.702 E87.13374
G1 X11.804 Y111.504 E87.16955
G1 X11.085 Y111.23 E87.20538
G1 X10.399 Y110.883 E87.24117
G1 X9.752 Y110.467 E87.27699
G1 X9.152 Y109.986 E87.3128
G1 X8.725 Y109.577 E87.34033
G1 X8.211 Y109.005 E87.37614
G1 X7.758 Y108.383 E87.41197
G1 X7.372 Y107.718 E87.44777
G1 X7.057 Y107.016 E87.4836
G1 X6.817 Y106.285 E87.51943
G1 X6.654 Y105.534 E87.55521
G1 X6.57 Y104.769 E87.59105
G1 X6.558 Y104.344 E87.61084
G1 X6.558 Y99.134 E87.85344
G1 X6.598 Y98.366 E87.88925
G1 X6.717 Y97.606 E87.92507
G1 X6.915 Y96.863 E87.96088
G1 X7.189 Y96.144 E87.9967
G1 X7.536 Y95.458 E88.0325
G1 X7.952 Y94.811 E88.06832
G1 X8.433 Y94.211 E88.10413
G1 X8.842 Y93.784 E88.13166
G1 X9.414 Y93.27 E88.16747
G1 X10.036 Y92.817 E88.2033
G1 X10.701 Y92.431 E88.2391
G1 X11.403 Y92.116 E88.27493
G1 X12.134 Y91.876 E88.31076
G1 X12.885 Y91.713 E88.34654
G0 F6000 X13.071 Y92.089
