;FLAVOR:Marlin
;TIME:3830
;Filament used: 2.81342m
;Layer height: 0.28
;MINX:88.383
;MINY:95.517
;MINZ:0.28
;MAXX:146.617
;MAXY:139.483
;MAXZ:17.36
;Generated with Cura_SteamEngine 4.5.0
M140 S50
M105
M190 S50
M104 S200
M105
M109 S200
M82 ;absolute extrusion mode
; Ender 3 Custom Start G-code
G92 E0 ; Reset Extruder
G28 ; Home all axes
G1 Z2.0 F3000 ; Move Z Axis up little to prevent scratching of Heat Bed
G1 X0.1 Y20 Z0.3 F5000.0 ; Move to start position
G1 X0.1 Y200.0 Z0.3 F1500.0 E15 ; Draw the first line
G1 X0.4 Y200.0 Z0.3 F5000.0 ; Move to side a little
G1 X0.4 Y20 Z0.3 F1500.0 E30 ; Draw the second line
G92 E0 ; Reset Extruder
G1 Z2.0 F3000 ; Move Z Axis up little to prevent scratching of Heat Bed
G1 X5 Y20 Z0.3 F5000.0 ; Move over to prevent blob squish
G92 E0
G92 E0
G1 F2700 E-5
;LAYER_COUNT:62
;LAYER:0
M107
G0 F6000 X98.181 Y97.919 Z0.28
;TYPE:SKIRT
G1 F2700 E0
G1 F1200 X98.298 Y97.802 E0.0077
G1 X98.884 Y97.272 E0.0445
G1 X99.52 Y96.805 E0.08124
G1 X100.2 Y96.404 E0.118
G1 X100.918 Y96.074 E0.15479
G1 X101.665 Y95.819 E0.19155
G1 X102.434 Y95.64 E0.22831
G1 X103.218 Y95.54 E0.26511
G1 X103.813 Y95.517 E0.29284
G1 X138.7 Y95.517 E1.91732
G1 X139.489 Y95.557 E1.95411
G1 X140.269 Y95.676 E1.99085
G1 X141.034 Y95.874 E2.02765
G1 X141.774 Y96.148 E2.06439
G1 X142.483 Y96.496 E2.10117
G1 X143.154 Y96.914 E2.13798
G1 X143.778 Y97.397 E2.17472
G1 X144.215 Y97.802 E2.20246
G1 X144.332 Y97.919 E2.21017
G1 X144.862 Y98.505 E2.24696
G1 X145.329 Y99.141 E2.2837
G1 X145.73 Y99.821 E2.32046
G1 X146.06 Y100.539 E2.35726
G1 X146.315 Y101.286 E2.39401
G1 X146.494 Y102.055 E2.43078
G1 X146.594 Y102.839 E2.46758
G1 X146.617 Y103.434 E2.4953
G1 X146.617 Y114.324 E3.00239
G1 X146.577 Y115.113 E3.03917
G1 X146.458 Y115.893 E3.07591
G1 X146.26 Y116.658 E3.11271
G1 X145.986 Y117.398 E3.14945
G1 X145.638 Y118.107 E3.18623
G1 X145.22 Y118.778 E3.22304
G1 X144.737 Y119.402 E3.25979
G1 X144.332 Y119.839 E3.28753
G1 X144.215 Y119.956 E3.29523
G1 X143.629 Y120.486 E3.33202
G1 X142.993 Y120.953 E3.36877
G1 X142.313 Y121.354 E3.40553
G1 X142.241 Y121.387 E3.40921
G1 X142.241 Y131.566 E3.88319
G1 X142.201 Y132.355 E3.91998
G1 X142.082 Y133.135 E3.95672
G1 X141.884 Y133.9 E3.99351
G1 X141.61 Y134.64 E4.03026
G1 X141.262 Y135.349 E4.06703
G1 X140.844 Y136.02 E4.10384
G1 X140.361 Y136.644 E4.14059
G1 X139.956 Y137.081 E4.16833
G1 X139.839 Y137.198 E4.17603
G1 X139.253 Y137.728 E4.21283
G1 X138.617 Y138.195 E4.24957
G1 X137.937 Y138.596 E4.28633
G1 X137.219 Y138.926 E4.32312
G1 X136.472 Y139.181 E4.35988
G1 X135.703 Y139.36 E4.39664
G1 X134.919 Y139.46 E4.43344
G1 X134.324 Y139.483 E4.46117
G1 X96.3 Y139.483 E6.23173
G1 X95.511 Y139.443 E6.26851
G1 X94.731 Y139.324 E6.30525
G1 X93.966 Y139.126 E6.34205
G1 X93.226 Y138.852 E6.37879
G1 X92.517 Y138.504 E6.41557
G1 X91.846 Y138.086 E6.45238
G1 X91.222 Y137.603 E6.48912
G1 X90.785 Y137.198 E6.51687
G1 X90.668 Y137.081 E6.52457
G1 X90.138 Y136.495 E6.56136
G1 X89.671 Y135.859 E6.5981
G1 X89.27 Y135.179 E6.63486
G1 X88.94 Y134.461 E6.67166
G1 X88.685 Y133.714 E6.70841
G1 X88.506 Y132.945 E6.74518
G1 X88.406 Y132.161 E6.78198
G1 X88.383 Y131.566 E6.80971
G1 X88.383 Y111 E7.76735
G1 X88.423 Y110.211 E7.80413
G1 X88.542 Y109.431 E7.84087
G1 X88.74 Y108.666 E7.87767
G1 X89.014 Y107.926 E7.91441
G1 X89.362 Y107.217 E7.95119
G1 X89.78 Y106.546 E7.988
G1 X90.263 Y105.922 E8.02474
G1 X90.668 Y105.485 E8.05249
G1 X90.785 Y105.368 E8.06019
G1 X91.371 Y104.838 E8.09698
G1 X92.007 Y104.371 E8.13372
G1 X92.687 Y103.97 E8.17048
G1 X93.405 Y103.64 E8.20728
G1 X94.152 Y103.385 E8.24403
G1 X94.921 Y103.206 E8.2808
G1 X95.705 Y103.106 E8.3176
G1 X95.913 Y103.098 E8.32729
G1 X95.936 Y102.645 E8.34841
G1 X96.055 Y101.865 E8.38515
G1 X96.253 Y101.1 E8.42195
G1 X96.527 Y100.36 E8.45869
G1 X96.875 Y99.651 E8.49547
G1 X97.293 Y98.98 E8.53228
G1 X97.776 Y98.356 E8.56902
G1 X98.181 Y97.919 E8.59677
G0 F6000 X98.58 Y98.084
G1 F1200 X99.152 Y97.57 E8.63257
G1 X99.774 Y97.117 E8.6684
G1 X100.439 Y96.731 E8.70421
G1 X101.141 Y96.416 E8.74004
G1 X101.872 Y96.176 E8.77586
G1 X102.623 Y96.013 E8.81165
G1 X103.388 Y95.929 E8.84748
G1 X103.813 Y95.917 E8.86728
G1 X138.7 Y95.917 E10.49176
G1 X139.468 Y95.957 E10.52757
G1 X140.228 Y96.076 E10.56339
G1 X140.971 Y96.274 E10.5992
G1 X141.69 Y96.548 E10.63503
G1 X142.376 Y96.895 E10.67082
G1 X143.023 Y97.311 E10.70664
G1 X143.623 Y97.792 E10.74245
G1 X144.05 Y98.201 E10.76998
G1 X144.564 Y98.773 E10.80579
G1 X145.017 Y99.395 E10.84162
G1 X145.403 Y100.06 E10.87742
G1 X145.718 Y100.762 E10.91325
G1 X145.958 Y101.493 E10.94908
G1 X146.121 Y102.244 E10.98486
G1 X146.205 Y103.009 E11.0207
G1 X146.217 Y103.434 E11.0405
G1 X146.217 Y114.324 E11.54758
G1 X146.177 Y115.092 E11.58339
G1 X146.058 Y115.852 E11.61921
G1 X145.86 Y116.595 E11.65501
G1 X145.586 Y117.314 E11.69084
G1 X145.239 Y118 E11.72664
G1 X144.823 Y118.647 E11.76246
G1 X144.342 Y119.247 E11.79826
G1 X143.933 Y119.674 E11.8258
G1 X143.361 Y120.188 E11.8616
G1 X142.739 Y120.641 E11.89743
G1 X142.074 Y121.027 E11.93324
G1 X141.841 Y121.132 E11.94514
G1 X141.841 Y131.566 E12.43099
G1 X141.801 Y132.334 E12.4668
G1 X141.682 Y133.094 E12.50262
G1 X141.484 Y133.837 E12.53842
G1 X141.21 Y134.556 E12.57425
G1 X140.863 Y135.242 E12.61005
G1 X140.447 Y135.889 E12.64587
G1 X139.966 Y136.489 E12.68167
G1 X139.557 Y136.916 E12.70921
G1 X138.985 Y137.43 E12.74501
G1 X138.363 Y137.883 E12.78084
G1 X137.698 Y138.269 E12.81665
G1 X136.996 Y138.584 E12.85248
G1 X136.265 Y138.824 E12.8883
G1 X135.514 Y138.987 E12.92409
G1 X134.749 Y139.071 E12.95992
G1 X134.324 Y139.083 E12.97972
G1 X96.3 Y139.083 E14.75028
G1 X95.532 Y139.043 E14.78609
G1 X94.772 Y138.924 E14.82191
G1 X94.029 Y138.726 E14.85771
G1 X93.31 Y138.452 E14.89354
G1 X92.624 Y138.105 E14.92934
G1 X91.977 Y137.689 E14.96515
G1 X91.377 Y137.208 E15.00096
G1 X90.95 Y136.799 E15.02849
G1 X90.436 Y136.227 E15.0643
G1 X89.983 Y135.605 E15.10013
G1 X89.597 Y134.94 E15.13594
G1 X89.282 Y134.238 E15.17176
G1 X89.042 Y133.507 E15.20759
G1 X88.879 Y132.756 E15.24337
G1 X88.795 Y131.991 E15.27921
G1 X88.783 Y131.566 E15.29901
G1 X88.783 Y111 E16.25665
G1 X88.823 Y110.232 E16.29246
G1 X88.942 Y109.472 E16.32828
G1 X89.14 Y108.729 E16.36408
G1 X89.414 Y108.01 E16.39991
G1 X89.761 Y107.324 E16.43571
G1 X90.177 Y106.677 E16.47152
G1 X90.658 Y106.077 E16.50733
G1 X91.067 Y105.65 E16.53486
G1 X91.639 Y105.136 E16.57067
G1 X92.261 Y104.683 E16.6065
G1 X92.926 Y104.297 E16.64231
G1 X93.628 Y103.982 E16.67813
G1 X94.359 Y103.742 E16.71396
G1 X95.11 Y103.579 E16.74974
G1 X95.875 Y103.495 E16.78558
G1 X96.296 Y103.483 E16.80519
G1 X96.336 Y102.666 E16.84328
G1 X96.455 Y101.906 E16.8791
G1 X96.653 Y101.163 E16.9149
G1 X96.927 Y100.444 E16.95073
G1 X97.274 Y99.758 E16.98653
G1 X97.69 Y99.111 E17.02235
G1 X98.171 Y98.511 E17.05815
G1 X98.58 Y98.084 E17.08569
G0 F6000 X98.746 Y98.484
G1 F1200 X98.863 Y98.367 E17.09339
G1 X99.42 Y97.867 E17.12824
G1 X100.026 Y97.43 E17.16303
G1 X100.676 Y97.059 E17.19788
G1 X101.362 Y96.76 E17.23273
G1 X102.076 Y96.536 E17.26757
G1 X102.809 Y96.389 E17.30238
G1 X103.813 Y96.317 E17.34926
G1 X138.7 Y96.317 E18.97374
G1 X139.447 Y96.357 E19.00857
G1 X140.185 Y96.476 E19.04338
G1 X140.907 Y96.674 E19.07824
G1 X141.603 Y96.947 E19.11305
G1 X142.266 Y97.294 E19.1479
G1 X142.889 Y97.709 E19.18276
G1 X143.65 Y98.367 E19.2296
G1 X143.767 Y98.484 E19.23731
G1 X144.267 Y99.041 E19.27216
G1 X144.704 Y99.647 E19.30695
G1 X145.075 Y100.297 E19.3418
G1 X145.374 Y100.983 E19.37664
G1 X145.598 Y101.697 E19.41149
G1 X145.745 Y102.43 E19.4463
G1 X145.817 Y103.434 E19.49317
G1 X145.817 Y114.324 E20.00025
G1 X145.777 Y115.071 E20.03509
G1 X145.658 Y115.809 E20.0699
G1 X145.46 Y116.531 E20.10476
G1 X145.187 Y117.227 E20.13957
G1 X144.84 Y117.89 E20.17441
G1 X144.425 Y118.513 E20.20927
G1 X143.767 Y119.274 E20.25611
G1 X143.65 Y119.391 E20.26382
G1 X143.093 Y119.891 E20.29867
G1 X142.487 Y120.328 E20.33346
G1 X141.837 Y120.699 E20.36831
G1 X141.441 Y120.872 E20.38843
G1 X141.441 Y131.566 E20.88639
G1 X141.401 Y132.313 E20.92122
G1 X141.282 Y133.051 E20.95603
G1 X141.084 Y133.773 E20.99089
G1 X140.811 Y134.469 E21.02571
G1 X140.464 Y135.132 E21.06055
G1 X140.049 Y135.755 E21.09541
G1 X139.391 Y136.516 E21.14225
G1 X139.274 Y136.633 E21.14996
G1 X138.717 Y137.133 E21.18481
G1 X138.111 Y137.57 E21.2196
G1 X137.461 Y137.941 E21.25445
G1 X136.775 Y138.24 E21.28929
G1 X136.061 Y138.464 E21.32414
G1 X135.328 Y138.611 E21.35895
G1 X134.324 Y138.683 E21.40582
G1 X96.3 Y138.683 E23.17638
G1 X95.553 Y138.643 E23.21121
G1 X94.815 Y138.524 E23.24602
G1 X94.093 Y138.326 E23.28088
G1 X93.397 Y138.053 E23.31569
G1 X92.734 Y137.706 E23.35054
G1 X92.111 Y137.291 E23.38539
G1 X91.35 Y136.633 E23.43224
G1 X91.233 Y136.516 E23.43994
G1 X90.733 Y135.959 E23.4748
G1 X90.296 Y135.353 E23.50959
G1 X89.925 Y134.703 E23.54444
G1 X89.626 Y134.017 E23.57928
G1 X89.402 Y133.303 E23.61413
G1 X89.255 Y132.57 E23.64894
G1 X89.183 Y131.566 E23.69581
G1 X89.183 Y111 E24.65345
G1 X89.223 Y110.253 E24.68828
G1 X89.342 Y109.515 E24.72309
G1 X89.54 Y108.793 E24.75795
G1 X89.813 Y108.097 E24.79276
G1 X90.16 Y107.434 E24.82761
G1 X90.575 Y106.811 E24.86246
G1 X91.233 Y106.05 E24.90931
G1 X91.35 Y105.933 E24.91701
G1 X91.907 Y105.433 E24.95186
G1 X92.513 Y104.996 E24.98665
G1 X93.163 Y104.625 E25.0215
G1 X93.849 Y104.326 E25.05635
G1 X94.563 Y104.102 E25.09119
G1 X95.296 Y103.955 E25.12601
G1 X96.3 Y103.883 E25.17288
G1 X96.696 Y103.883 E25.19131
G1 X96.696 Y103.434 E25.21222
G1 X96.736 Y102.687 E25.24706
G1 X96.855 Y101.949 E25.28186
G1 X97.053 Y101.227 E25.31672
G1 X97.326 Y100.531 E25.35154
G1 X97.673 Y99.868 E25.38638
G1 X98.088 Y99.245 E25.42124
G1 X98.746 Y98.484 E25.46808
G0 F6000 X99.029 Y98.767
G1 F1200 X99.146 Y98.65 E25.47579
G1 X99.687 Y98.166 E25.50959
G1 X100.278 Y97.743 E25.54343
G1 X100.912 Y97.389 E25.57724
G1 X101.581 Y97.106 E25.61107
G1 X102.277 Y96.898 E25.64489
G1 X102.992 Y96.768 E25.67873
G1 X103.813 Y96.717 E25.71703
G1 X138.7 Y96.717 E27.34152
G1 X139.425 Y96.757 E27.37533
G1 X140.142 Y96.876 E27.40917
G1 X140.841 Y97.074 E27.443
G1 X141.514 Y97.347 E27.47682
G1 X142.153 Y97.692 E27.51063
G1 X142.75 Y98.106 E27.54446
G1 X143.367 Y98.65 E27.58276
G1 X143.484 Y98.767 E27.59047
G1 X143.968 Y99.308 E27.62427
G1 X144.391 Y99.899 E27.65811
G1 X144.745 Y100.533 E27.69192
G1 X145.028 Y101.202 E27.72575
G1 X145.236 Y101.898 E27.75957
G1 X145.366 Y102.613 E27.79341
G1 X145.417 Y103.434 E27.83172
G1 X145.417 Y114.324 E28.3388
G1 X145.377 Y115.049 E28.37261
G1 X145.258 Y115.766 E28.40645
G1 X145.06 Y116.465 E28.44028
G1 X144.787 Y117.138 E28.4741
G1 X144.442 Y117.777 E28.50791
G1 X144.028 Y118.374 E28.54174
G1 X143.484 Y118.991 E28.58005
G1 X143.367 Y119.108 E28.58775
G1 X142.826 Y119.592 E28.62155
G1 X142.235 Y120.015 E28.65539
G1 X141.601 Y120.369 E28.68921
G1 X141.041 Y120.606 E28.71752
G1 X141.041 Y131.566 E29.22786
G1 X141.001 Y132.291 E29.26167
G1 X140.882 Y133.008 E29.29552
G1 X140.684 Y133.707 E29.32935
G1 X140.411 Y134.38 E29.36316
G1 X140.066 Y135.019 E29.39698
G1 X139.652 Y135.616 E29.43081
G1 X139.108 Y136.233 E29.46911
G1 X138.991 Y136.35 E29.47681
G1 X138.45 Y136.834 E29.51062
G1 X137.859 Y137.257 E29.54446
G1 X137.225 Y137.611 E29.57827
G1 X136.556 Y137.894 E29.61209
G1 X135.86 Y138.102 E29.64592
G1 X135.145 Y138.232 E29.67976
G1 X134.324 Y138.283 E29.71806
G1 X96.3 Y138.283 E31.48862
G1 X95.575 Y138.243 E31.52243
G1 X94.858 Y138.124 E31.55627
G1 X94.159 Y137.926 E31.5901
G1 X93.486 Y137.653 E31.62392
G1 X92.847 Y137.308 E31.65773
G1 X92.25 Y136.894 E31.69156
G1 X91.633 Y136.35 E31.72986
G1 X91.516 Y136.233 E31.73757
G1 X91.032 Y135.692 E31.77137
G1 X90.609 Y135.101 E31.80521
G1 X90.255 Y134.467 E31.83902
G1 X89.972 Y133.798 E31.87285
G1 X89.764 Y133.102 E31.90667
G1 X89.634 Y132.387 E31.94051
G1 X89.583 Y131.566 E31.97881
G1 X89.583 Y111 E32.93645
G1 X89.623 Y110.275 E32.97026
G1 X89.742 Y109.558 E33.00411
G1 X89.94 Y108.859 E33.03794
G1 X90.213 Y108.186 E33.07175
G1 X90.558 Y107.547 E33.10557
G1 X90.972 Y106.95 E33.1394
G1 X91.516 Y106.333 E33.1777
G1 X91.633 Y106.216 E33.1854
G1 X92.174 Y105.732 E33.2192
G1 X92.765 Y105.309 E33.25305
G1 X93.399 Y104.955 E33.28686
G1 X94.068 Y104.672 E33.32068
G1 X94.764 Y104.464 E33.35451
G1 X95.479 Y104.334 E33.38835
G1 X96.3 Y104.283 E33.42665
G1 X97.096 Y104.283 E33.46371
G1 X97.096 Y103.434 E33.50325
G1 X97.136 Y102.709 E33.53706
G1 X97.255 Y101.992 E33.5709
G1 X97.453 Y101.293 E33.60473
G1 X97.726 Y100.62 E33.63855
G1 X98.071 Y99.981 E33.67236
G1 X98.485 Y99.384 E33.70619
G1 X99.029 Y98.767 E33.74449
G0 F6000 X99.312 Y99.05
G1 F1200 X99.429 Y98.933 E33.7522
G1 X99.954 Y98.464 E33.78498
G1 X100.529 Y98.058 E33.81775
G1 X101.147 Y97.72 E33.85055
G1 X101.798 Y97.453 E33.88332
G1 X102.476 Y97.263 E33.9161
G1 X103.171 Y97.15 E33.94889
G1 X103.813 Y97.117 E33.97883
G1 X138.7 Y97.117 E35.60331
G1 X139.403 Y97.157 E35.6361
G1 X140.097 Y97.276 E35.66889
G1 X140.772 Y97.474 E35.70164
G1 X141.421 Y97.746 E35.73441
G1 X142.035 Y98.091 E35.7672
G1 X142.606 Y98.502 E35.79996
G1 X143.084 Y98.933 E35.82993
G1 X143.201 Y99.05 E35.83764
G1 X143.67 Y99.575 E35.87042
G1 X144.076 Y100.15 E35.90319
G1 X144.414 Y100.768 E35.93599
G1 X144.681 Y101.419 E35.96876
G1 X144.871 Y102.097 E36.00154
G1 X144.984 Y102.792 E36.03433
G1 X145.017 Y103.434 E36.06426
G1 X145.017 Y114.324 E36.57135
G1 X144.977 Y115.027 E36.60413
G1 X144.858 Y115.721 E36.63692
G1 X144.66 Y116.396 E36.66968
G1 X144.388 Y117.045 E36.70244
G1 X144.043 Y117.659 E36.73524
G1 X143.632 Y118.23 E36.768
G1 X143.201 Y118.708 E36.79797
G1 X143.084 Y118.825 E36.80567
G1 X142.559 Y119.294 E36.83845
G1 X141.984 Y119.7 E36.87123
G1 X141.366 Y120.038 E36.90403
G1 X140.715 Y120.305 E36.93679
G1 X140.641 Y120.326 E36.94037
G1 X140.641 Y131.566 E37.46375
G1 X140.601 Y132.269 E37.49654
G1 X140.482 Y132.963 E37.52933
G1 X140.284 Y133.638 E37.56208
G1 X140.012 Y134.287 E37.59485
G1 X139.667 Y134.901 E37.62765
G1 X139.256 Y135.472 E37.66041
G1 X138.825 Y135.95 E37.69038
G1 X138.708 Y136.067 E37.69808
G1 X138.183 Y136.536 E37.73086
G1 X137.608 Y136.942 E37.76364
G1 X136.99 Y137.28 E37.79644
G1 X136.339 Y137.547 E37.8292
G1 X135.661 Y137.737 E37.86199
G1 X134.966 Y137.85 E37.89477
G1 X134.324 Y137.883 E37.92471
G1 X96.3 Y137.883 E39.69526
G1 X95.597 Y137.843 E39.72805
G1 X94.903 Y137.724 E39.76084
G1 X94.228 Y137.526 E39.79359
G1 X93.579 Y137.254 E39.82636
G1 X92.965 Y136.909 E39.85915
G1 X92.394 Y136.498 E39.89191
G1 X91.916 Y136.067 E39.92188
G1 X91.799 Y135.95 E39.92959
G1 X91.33 Y135.425 E39.96237
G1 X90.924 Y134.85 E39.99514
G1 X90.586 Y134.232 E40.02794
G1 X90.319 Y133.581 E40.06071
G1 X90.129 Y132.903 E40.09349
G1 X90.016 Y132.208 E40.12628
G1 X89.983 Y131.566 E40.15622
G1 X89.983 Y111 E41.11385
G1 X90.023 Y110.297 E41.14664
G1 X90.142 Y109.603 E41.17943
G1 X90.34 Y108.928 E41.21218
G1 X90.612 Y108.279 E41.24495
G1 X90.957 Y107.665 E41.27775
G1 X91.368 Y107.094 E41.31051
G1 X91.799 Y106.616 E41.34048
G1 X91.916 Y106.499 E41.34818
G1 X92.441 Y106.03 E41.38096
G1 X93.016 Y105.624 E41.41374
G1 X93.634 Y105.286 E41.44654
G1 X94.285 Y105.019 E41.4793
G1 X94.963 Y104.829 E41.51209
G1 X95.658 Y104.716 E41.54487
G1 X96.3 Y104.683 E41.57481
G1 X97.496 Y104.683 E41.6305
G1 X97.496 Y103.434 E41.68866
G1 X97.536 Y102.731 E41.72144
G1 X97.655 Y102.037 E41.75423
G1 X97.853 Y101.362 E41.78699
G1 X98.125 Y100.713 E41.81975
G1 X98.47 Y100.099 E41.85255
G1 X98.881 Y99.528 E41.88531
G1 X99.312 Y99.05 E41.91528
G0 F6000 X99.595 Y99.333
G1 F1200 X99.712 Y99.216 E41.92298
G1 X100.221 Y98.763 E41.95471
G1 X100.779 Y98.374 E41.98638
G1 X101.379 Y98.052 E42.01809
G1 X102.013 Y97.803 E42.04981
G1 X102.672 Y97.63 E42.08153
G1 X103.346 Y97.536 E42.11322
G1 X103.813 Y97.517 E42.13498
G1 X138.7 Y97.517 E43.75947
G1 X139.38 Y97.557 E43.79119
G1 X140.05 Y97.676 E43.82287
G1 X140.702 Y97.873 E43.85459
G1 X141.326 Y98.145 E43.88629
G1 X141.914 Y98.489 E43.91801
G1 X142.458 Y98.899 E43.94973
G1 X142.801 Y99.216 E43.97147
G1 X142.918 Y99.333 E43.97918
G1 X143.371 Y99.842 E44.01091
G1 X143.76 Y100.4 E44.04258
G1 X144.082 Y101 E44.07429
G1 X144.331 Y101.634 E44.10601
