;FLAVOR:Marlin
;TIME:11778
;Filament used: 10.2665m
;Layer height: 0.28
;MINX:45.892
;MINY:86.356
;MINZ:0.28
;MAXX:189.108
;MAXY:148.644
;MAXZ:28
;Generated with Cura_SteamEngine 4.5.0
M140 S50
M105
M190 S50
M104 S200
M105
M109 S200
M82 ;absolute extrusion mode
; Ender 3 Custom Start G-code
G92 E0 ; Reset Extruder
G28 ; Home all axes
G1 Z2.0 F3000 ; Move Z Axis up little to prevent scratching of Heat Bed
G1 X0.1 Y20 Z0.3 F5000.0 ; Move to start position
G1 X0.1 Y200.0 Z0.3 F1500.0 E15 ; Draw the first line
G1 X0.4 Y200.0 Z0.3 F5000.0 ; Move to side a little
G1 X0.4 Y20 Z0.3 F1500.0 E30 ; Draw the second line
G92 E0 ; Reset Extruder
G1 Z2.0 F3000 ; Move Z Axis up little to prevent scratching of Heat Bed
G1 X5 Y20 Z0.3 F5000.0 ; Move over to prevent blob squish
G92 E0
G92 E0
G1 F2700 E-5
;LAYER_COUNT:100
;LAYER:0
M107
G0 F6000 X50.914 Y110.601 Z0.28
;TYPE:SKIRT
G1 F2700 E0
G1 F1200 X51.661 Y110.346 E0.03675
G1 X52.43 Y110.167 E0.07352
G1 X53.214 Y110.067 E0.11032
G1 X53.809 Y110.044 E0.13805
G1 X128.798 Y110.044 E3.62985
G1 X128.798 Y94.273 E4.36421
G1 X128.838 Y93.484 E4.401
G1 X128.957 Y92.704 E4.43774
G1 X129.155 Y91.939 E4.47454
G1 X129.429 Y91.199 E4.51128
G1 X129.777 Y90.49 E4.54806
G1 X130.195 Y89.819 E4.58487
G1 X130.678 Y89.195 E4.62161
G1 X131.083 Y88.758 E4.64935
G1 X131.2 Y88.641 E4.65706
G1 X131.786 Y88.111 E4.69385
G1 X132.422 Y87.644 E4.73059
G1 X133.102 Y87.243 E4.76735
G1 X133.82 Y86.913 E4.80415
G1 X134.567 Y86.658 E4.8409
G1 X135.336 Y86.479 E4.87767
G1 X136.12 Y86.379 E4.91447
G1 X136.715 Y86.356 E4.94219
G1 X181.191 Y86.356 E7.01318
G1 X181.98 Y86.396 E7.04997
G1 X182.76 Y86.515 E7.08671
G1 X183.525 Y86.713 E7.1235
G1 X184.265 Y86.987 E7.16025
G1 X184.974 Y87.335 E7.19702
G1 X185.645 Y87.753 E7.23384
G1 X186.269 Y88.236 E7.27058
G1 X186.706 Y88.641 E7.29832
G1 X186.823 Y88.758 E7.30603
G1 X187.353 Y89.344 E7.34282
G1 X187.82 Y89.98 E7.37956
G1 X188.221 Y90.66 E7.41632
G1 X188.551 Y91.378 E7.45311
G1 X188.806 Y92.125 E7.48987
G1 X188.985 Y92.894 E7.52663
G1 X189.085 Y93.678 E7.56344
G1 X189.108 Y94.273 E7.59116
G1 X189.108 Y98.039 E7.76652
G1 X189.068 Y98.828 E7.80331
G1 X188.949 Y99.608 E7.84005
G1 X188.751 Y100.373 E7.87685
G1 X188.477 Y101.113 E7.91359
G1 X188.129 Y101.822 E7.95037
G1 X187.711 Y102.493 E7.98718
G1 X187.228 Y103.117 E8.02392
G1 X186.823 Y103.554 E8.05166
G1 X186.706 Y103.671 E8.05937
G1 X186.12 Y104.201 E8.09616
G1 X185.484 Y104.668 E8.1329
G1 X184.804 Y105.069 E8.16966
G1 X184.086 Y105.399 E8.20646
G1 X183.339 Y105.654 E8.24321
G1 X182.57 Y105.833 E8.27997
G1 X181.786 Y105.933 E8.31678
G1 X181.191 Y105.956 E8.3445
G1 X148.398 Y105.956 E9.87148
G1 X148.398 Y129.044 E10.94656
G1 X181.191 Y129.044 E12.47354
G1 X181.98 Y129.084 E12.51032
G1 X182.76 Y129.203 E12.54706
G1 X183.525 Y129.401 E12.58386
G1 X184.265 Y129.675 E12.6206
G1 X184.974 Y130.023 E12.65738
G1 X185.645 Y130.441 E12.69419
G1 X186.269 Y130.924 E12.73093
G1 X186.706 Y131.329 E12.75868
G1 X186.823 Y131.446 E12.76638
G1 X187.353 Y132.032 E12.80317
G1 X187.82 Y132.668 E12.83991
G1 X188.221 Y133.348 E12.87667
G1 X188.551 Y134.066 E12.91347
G1 X188.806 Y134.813 E12.95022
G1 X188.985 Y135.582 E12.98699
G1 X189.085 Y136.366 E13.02379
G1 X189.108 Y136.961 E13.05152
G1 X189.108 Y140.727 E13.22688
G1 X189.068 Y141.516 E13.26366
G1 X188.949 Y142.296 E13.3004
G1 X188.751 Y143.061 E13.3372
G1 X188.477 Y143.801 E13.37394
G1 X188.129 Y144.51 E13.41072
G1 X187.711 Y145.181 E13.44753
G1 X187.228 Y145.805 E13.48427
G1 X186.823 Y146.242 E13.51202
G1 X186.706 Y146.359 E13.51972
G1 X186.12 Y146.889 E13.55651
G1 X185.484 Y147.356 E13.59325
G1 X184.804 Y147.757 E13.63001
G1 X184.086 Y148.087 E13.66681
G1 X183.339 Y148.342 E13.70356
G1 X182.57 Y148.521 E13.74033
G1 X181.786 Y148.621 E13.77713
G1 X181.191 Y148.644 E13.80486
G1 X136.715 Y148.644 E15.87585
G1 X135.926 Y148.604 E15.91263
G1 X135.146 Y148.485 E15.94937
G1 X134.381 Y148.287 E15.98617
G1 X133.641 Y148.013 E16.02291
G1 X132.932 Y147.665 E16.05969
G1 X132.261 Y147.247 E16.0965
G1 X131.637 Y146.764 E16.13324
G1 X131.2 Y146.359 E16.16099
G1 X131.083 Y146.242 E16.16869
G1 X130.553 Y145.656 E16.20548
G1 X130.086 Y145.02 E16.24222
G1 X129.685 Y144.34 E16.27898
G1 X129.355 Y143.622 E16.31578
G1 X129.1 Y142.875 E16.35253
G1 X128.921 Y142.106 E16.3893
G1 X128.862 Y141.644 E16.41098
G1 X53.809 Y141.644 E19.90577
G1 X53.02 Y141.604 E19.94255
G1 X52.24 Y141.485 E19.97929
G1 X51.475 Y141.287 E20.01609
G1 X50.735 Y141.013 E20.05283
G1 X50.026 Y140.665 E20.08961
G1 X49.355 Y140.247 E20.12642
G1 X48.731 Y139.764 E20.16316
G1 X48.294 Y139.359 E20.19091
G1 X48.177 Y139.242 E20.19861
G1 X47.647 Y138.656 E20.2354
G1 X47.18 Y138.02 E20.27214
G1 X46.779 Y137.34 E20.3089
G1 X46.449 Y136.622 E20.3457
G1 X46.194 Y135.875 E20.38245
G1 X46.015 Y135.106 E20.41922
G1 X45.915 Y134.322 E20.45602
G1 X45.892 Y133.727 E20.48375
G1 X45.892 Y117.961 E21.21788
G1 X45.932 Y117.172 E21.25466
G1 X46.051 Y116.392 E21.2914
G1 X46.249 Y115.627 E21.3282
G1 X46.523 Y114.887 E21.36494
G1 X46.871 Y114.178 E21.40172
G1 X47.289 Y113.507 E21.43853
G1 X47.772 Y112.883 E21.47527
G1 X48.177 Y112.446 E21.50302
G1 X48.294 Y112.329 E21.51072
G1 X48.88 Y111.799 E21.54751
G1 X49.516 Y111.332 E21.58425
G1 X50.196 Y110.931 E21.62101
G1 X50.914 Y110.601 E21.65781
G0 F6000 X51.137 Y110.943
G1 F1200 X51.868 Y110.703 E21.69364
G1 X52.619 Y110.54 E21.72942
G1 X53.384 Y110.456 E21.76525
G1 X53.809 Y110.444 E21.78505
G1 X129.198 Y110.444 E25.29548
G1 X129.198 Y94.273 E26.04847
G1 X129.238 Y93.505 E26.08428
G1 X129.357 Y92.745 E26.1201
G1 X129.555 Y92.002 E26.1559
G1 X129.829 Y91.283 E26.19173
G1 X130.176 Y90.597 E26.22753
G1 X130.592 Y89.95 E26.26335
G1 X131.073 Y89.35 E26.29915
G1 X131.482 Y88.923 E26.32669
G1 X132.054 Y88.409 E26.36249
G1 X132.676 Y87.956 E26.39832
G1 X133.341 Y87.57 E26.43413
G1 X134.043 Y87.255 E26.46996
G1 X134.774 Y87.015 E26.50578
G1 X135.525 Y86.852 E26.54157
G1 X136.29 Y86.768 E26.5774
G1 X136.715 Y86.756 E26.5972
G1 X181.191 Y86.756 E28.66819
G1 X181.959 Y86.796 E28.704
G1 X182.719 Y86.915 E28.73982
G1 X183.462 Y87.113 E28.77562
G1 X184.181 Y87.387 E28.81145
G1 X184.867 Y87.734 E28.84725
G1 X185.514 Y88.15 E28.88307
G1 X186.114 Y88.631 E28.91887
G1 X186.541 Y89.04 E28.94641
G1 X187.055 Y89.612 E28.98221
G1 X187.508 Y90.234 E29.01804
G1 X187.894 Y90.899 E29.05385
G1 X188.209 Y91.601 E29.08968
G1 X188.449 Y92.332 E29.1255
G1 X188.612 Y93.083 E29.16129
G1 X188.696 Y93.848 E29.19712
G1 X188.708 Y94.273 E29.21692
G1 X188.708 Y98.039 E29.39228
G1 X188.668 Y98.807 E29.42809
G1 X188.549 Y99.567 E29.46391
G1 X188.351 Y100.31 E29.49971
G1 X188.077 Y101.029 E29.53554
G1 X187.73 Y101.715 E29.57134
G1 X187.314 Y102.362 E29.60716
G1 X186.833 Y102.962 E29.64296
G1 X186.424 Y103.389 E29.6705
G1 X185.852 Y103.903 E29.70631
G1 X185.23 Y104.356 E29.74214
G1 X184.565 Y104.742 E29.77794
G1 X183.863 Y105.057 E29.81377
G1 X183.132 Y105.297 E29.84959
G1 X182.381 Y105.46 E29.88538
G1 X181.616 Y105.544 E29.92121
G1 X181.191 Y105.556 E29.94101
G1 X147.998 Y105.556 E31.48662
G1 X147.998 Y129.444 E32.59894
G1 X181.191 Y129.444 E34.14455
G1 X181.959 Y129.484 E34.18036
G1 X182.719 Y129.603 E34.21618
G1 X183.462 Y129.801 E34.25198
G1 X184.181 Y130.075 E34.28781
G1 X184.867 Y130.422 E34.32361
G1 X185.514 Y130.838 E34.35942
G1 X186.114 Y131.319 E34.39523
G1 X186.541 Y131.728 E34.42276
G1 X187.055 Y132.3 E34.45857
G1 X187.508 Y132.922 E34.4944
G1 X187.894 Y133.587 E34.53021
G1 X188.209 Y134.289 E34.56603
G1 X188.449 Y135.02 E34.60186
G1 X188.612 Y135.771 E34.63764
G1 X188.696 Y136.536 E34.67348
G1 X188.708 Y136.961 E34.69328
G1 X188.708 Y140.727 E34.86864
G1 X188.668 Y141.495 E34.90445
G1 X188.549 Y142.255 E34.94027
G1 X188.351 Y142.998 E34.97607
G1 X188.077 Y143.717 E35.0119
G1 X187.73 Y144.403 E35.0477
G1 X187.314 Y145.05 E35.08351
G1 X186.833 Y145.65 E35.11932
G1 X186.424 Y146.077 E35.14685
G1 X185.852 Y146.591 E35.18266
G1 X185.23 Y147.044 E35.21849
G1 X184.565 Y147.43 E35.2543
G1 X183.863 Y147.745 E35.29012
G1 X183.132 Y147.985 E35.32595
G1 X182.381 Y148.148 E35.36173
G1 X181.616 Y148.232 E35.39757
G1 X181.191 Y148.244 E35.41737
G1 X136.715 Y148.244 E37.48836
G1 X135.947 Y148.204 E37.52417
G1 X135.187 Y148.085 E37.55999
G1 X134.444 Y147.887 E37.59579
G1 X133.725 Y147.613 E37.63162
G1 X133.039 Y147.266 E37.66742
G1 X132.392 Y146.85 E37.70323
G1 X131.792 Y146.369 E37.73904
G1 X131.365 Y145.96 E37.76657
G1 X130.851 Y145.388 E37.80238
G1 X130.398 Y144.766 E37.83821
G1 X130.012 Y144.101 E37.87402
G1 X129.697 Y143.399 E37.90984
G1 X129.457 Y142.668 E37.94567
G1 X129.294 Y141.917 E37.98145
G1 X129.22 Y141.244 E38.01298
G1 X53.809 Y141.244 E41.52443
G1 X53.041 Y141.204 E41.56024
G1 X52.281 Y141.085 E41.59606
G1 X51.538 Y140.887 E41.63187
G1 X50.819 Y140.613 E41.6677
G1 X50.133 Y140.266 E41.70349
G1 X49.486 Y139.85 E41.73931
G1 X48.886 Y139.369 E41.77512
G1 X48.459 Y138.96 E41.80265
G1 X47.945 Y138.388 E41.83846
G1 X47.492 Y137.766 E41.87429
G1 X47.106 Y137.101 E41.91009
G1 X46.791 Y136.399 E41.94592
G1 X46.551 Y135.668 E41.98175
G1 X46.388 Y134.917 E42.01753
G1 X46.304 Y134.152 E42.05337
G1 X46.292 Y133.727 E42.07316
G1 X46.292 Y117.961 E42.80729
G1 X46.332 Y117.193 E42.8431
G1 X46.451 Y116.433 E42.87892
G1 X46.649 Y115.69 E42.91473
G1 X46.923 Y114.971 E42.95056
G1 X47.27 Y114.285 E42.98635
G1 X47.686 Y113.638 E43.02217
G1 X48.167 Y113.038 E43.05798
G1 X48.576 Y112.611 E43.08551
G1 X49.148 Y112.097 E43.12132
G1 X49.77 Y111.644 E43.15715
G1 X50.435 Y111.258 E43.19295
G1 X51.137 Y110.943 E43.22878
G0 F6000 X51.358 Y111.287
G1 F1200 X52.072 Y111.063 E43.26363
G1 X52.805 Y110.916 E43.29844
G1 X53.809 Y110.844 E43.34531
G1 X129.598 Y110.844 E46.87436
G1 X129.598 Y94.273 E47.64598
G1 X129.638 Y93.526 E47.68081
G1 X129.757 Y92.788 E47.71562
G1 X129.955 Y92.066 E47.75048
G1 X130.228 Y91.37 E47.78529
G1 X130.575 Y90.707 E47.82014
G1 X130.99 Y90.084 E47.85499
G1 X131.648 Y89.323 E47.90184
G1 X131.765 Y89.206 E47.90954
G1 X132.322 Y88.706 E47.94439
G1 X132.928 Y88.269 E47.97918
G1 X133.578 Y87.898 E48.01403
G1 X134.264 Y87.599 E48.04888
G1 X134.978 Y87.375 E48.08372
G1 X135.711 Y87.228 E48.11854
G1 X136.715 Y87.156 E48.16541
G1 X181.191 Y87.156 E50.23639
G1 X181.938 Y87.196 E50.27123
G1 X182.676 Y87.315 E50.30604
G1 X183.398 Y87.513 E50.3409
G1 X184.094 Y87.786 E50.37571
G1 X184.757 Y88.133 E50.41055
G1 X185.38 Y88.548 E50.44541
G1 X186.141 Y89.206 E50.49226
G1 X186.258 Y89.323 E50.49996
G1 X186.758 Y89.88 E50.53481
G1 X187.195 Y90.486 E50.5696
G1 X187.566 Y91.136 E50.60445
G1 X187.865 Y91.822 E50.6393
G1 X188.089 Y92.536 E50.67414
G1 X188.236 Y93.269 E50.70895
G1 X188.308 Y94.273 E50.75582
G1 X188.308 Y98.039 E50.93118
G1 X188.268 Y98.786 E50.96602
G1 X188.149 Y99.524 E51.00083
G1 X187.951 Y100.246 E51.03569
G1 X187.678 Y100.942 E51.0705
G1 X187.331 Y101.605 E51.10534
G1 X186.916 Y102.228 E51.1402
G1 X186.258 Y102.989 E51.18705
G1 X186.141 Y103.106 E51.19475
G1 X185.584 Y103.606 E51.2296
G1 X184.978 Y104.043 E51.26439
G1 X184.328 Y104.414 E51.29924
G1 X183.642 Y104.713 E51.33409
G1 X182.928 Y104.937 E51.36893
G1 X182.195 Y105.084 E51.40374
G1 X181.191 Y105.156 E51.45061
G1 X147.598 Y105.156 E53.01485
G1 X147.598 Y129.844 E54.16442
G1 X181.191 Y129.844 E55.72865
G1 X181.938 Y129.884 E55.76349
G1 X182.676 Y130.003 E55.79829
G1 X183.398 Y130.201 E55.83315
G1 X184.094 Y130.474 E55.86797
G1 X184.757 Y130.821 E55.90281
G1 X185.38 Y131.236 E55.93767
G1 X186.141 Y131.894 E55.98451
G1 X186.258 Y132.011 E55.99222
G1 X186.758 Y132.568 E56.02707
G1 X187.195 Y133.174 E56.06186
G1 X187.566 Y133.824 E56.09671
G1 X187.865 Y134.51 E56.13156
G1 X188.089 Y135.224 E56.1664
G1 X188.236 Y135.957 E56.20121
G1 X188.308 Y136.961 E56.24808
G1 X188.308 Y140.727 E56.42344
G1 X188.268 Y141.474 E56.45828
G1 X188.149 Y142.212 E56.49308
G1 X187.951 Y142.934 E56.52794
G1 X187.678 Y143.63 E56.56276
G1 X187.331 Y144.293 E56.5976
G1 X186.916 Y144.916 E56.63246
G1 X186.258 Y145.677 E56.6793
G1 X186.141 Y145.794 E56.68701
G1 X185.584 Y146.294 E56.72186
G1 X184.978 Y146.731 E56.75665
G1 X184.328 Y147.102 E56.7915
G1 X183.642 Y147.401 E56.82635
G1 X182.928 Y147.625 E56.86119
G1 X182.195 Y147.772 E56.896
G1 X181.191 Y147.844 E56.94287
G1 X136.715 Y147.844 E59.01386
G1 X135.968 Y147.804 E59.04869
G1 X135.23 Y147.685 E59.0835
G1 X134.508 Y147.487 E59.11836
G1 X133.812 Y147.214 E59.15318
G1 X133.149 Y146.867 E59.18802
G1 X132.526 Y146.452 E59.22288
G1 X131.765 Y145.794 E59.26972
G1 X131.648 Y145.677 E59.27743
G1 X131.148 Y145.12 E59.31228
G1 X130.711 Y144.514 E59.34707
G1 X130.34 Y143.864 E59.38192
G1 X130.041 Y143.178 E59.41676
G1 X129.817 Y142.464 E59.45161
G1 X129.67 Y141.731 E59.48642
G1 X129.606 Y140.844 E59.52783
G1 X53.809 Y140.844 E63.05726
G1 X53.062 Y140.804 E63.09209
G1 X52.324 Y140.685 E63.1269
G1 X51.602 Y140.487 E63.16176
G1 X50.906 Y140.214 E63.19657
G1 X50.243 Y139.867 E63.23142
G1 X49.62 Y139.452 E63.26627
G1 X48.859 Y138.794 E63.31312
G1 X48.742 Y138.677 E63.32082
G1 X48.242 Y138.12 E63.35567
G1 X47.805 Y137.514 E63.39046
G1 X47.434 Y136.864 E63.42531
G1 X47.135 Y136.178 E63.46016
G1 X46.911 Y135.464 E63.495
G1 X46.764 Y134.731 E63.52981
G1 X46.692 Y133.727 E63.57669
G1 X46.692 Y117.961 E64.31082
G1 X46.732 Y117.214 E64.34565
G1 X46.851 Y116.476 E64.38046
G1 X47.049 Y115.754 E64.41532
G1 X47.322 Y115.058 E64.45013
G1 X47.669 Y114.395 E64.48498
G1 X48.084 Y113.772 E64.51983
G1 X48.742 Y113.011 E64.56668
G1 X48.859 Y112.894 E64.57438
G1 X49.416 Y112.394 E64.60923
G1 X50.022 Y111.957 E64.64402
G1 X50.672 Y111.586 E64.67887
G1 X51.358 Y111.287 E64.71372
G0 F6000 X51.577 Y111.633
G1 F1200 X52.273 Y111.425 E64.74754
G1 X52.988 Y111.295 E64.78138
G1 X53.809 Y111.244 E64.81969
G1 X129.998 Y111.244 E68.36737
G1 X129.998 Y94.273 E69.15761
G1 X130.038 Y93.548 E69.19142
G1 X130.157 Y92.831 E69.22526
G1 X130.355 Y92.132 E69.25909
G1 X130.628 Y91.459 E69.29291
G1 X130.973 Y90.82 E69.32672
G1 X131.387 Y90.223 E69.36055
G1 X131.931 Y89.606 E69.39885
G1 X132.048 Y89.489 E69.40656
G1 X132.589 Y89.005 E69.44036
G1 X133.18 Y88.582 E69.4742
G1 X133.814 Y88.228 E69.50801
G1 X134.483 Y87.945 E69.54184
G1 X135.179 Y87.737 E69.57566
G1 X135.894 Y87.607 E69.6095
G1 X136.715 Y87.556 E69.6478
G1 X181.191 Y87.556 E71.71879
G1 X181.916 Y87.596 E71.7526
G1 X182.633 Y87.715 E71.78645
G1 X183.332 Y87.913 E71.82027
G1 X184.005 Y88.186 E71.85409
G1 X184.644 Y88.531 E71.88791
G1 X185.241 Y88.945 E71.92174
G1 X185.858 Y89.489 E71.96004
G1 X185.975 Y89.606 E71.96774
G1 X186.459 Y90.147 E72.00154
G1 X186.882 Y90.738 E72.03539
G1 X187.236 Y91.372 E72.0692
G1 X187.519 Y92.041 E72.10302
G1 X187.727 Y92.737 E72.13685
G1 X187.857 Y93.452 E72.17069
G1 X187.908 Y94.273 E72.20899
G1 X187.908 Y98.039 E72.38435
G1 X187.868 Y98.764 E72.41816
G1 X187.749 Y99.481 E72.452
G1 X187.551 Y100.18 E72.48583
G1 X187.278 Y100.853 E72.51965
G1 X186.933 Y101.492 E72.55346
G1 X186.519 Y102.089 E72.58729
G1 X185.975 Y102.706 E72.6256
G1 X185.858 Y102.823 E72.6333
G1 X185.317 Y103.307 E72.6671
G1 X184.726 Y103.73 E72.70094
G1 X184.092 Y104.084 E72.73476
G1 X183.423 Y104.367 E72.76858
G1 X182.727 Y104.575 E72.8024
G1 X182.012 Y104.705 E72.83624
G1 X181.191 Y104.756 E72.87455
G1 X147.198 Y104.756 E74.4574
G1 X147.198 Y130.244 E75.64423
G1 X181.191 Y130.244 E77.22709
G1 X181.916 Y130.284 E77.2609
G1 X182.633 Y130.403 E77.29474
G1 X183.332 Y130.601 E77.32857
G1 X184.005 Y130.874 E77.36239
G1 X184.644 Y131.219 E77.3962
G1 X185.241 Y131.633 E77.43003
G1 X185.858 Y132.177 E77.46833
G1 X185.975 Y132.294 E77.47604
G1 X186.459 Y132.835 E77.50984
G1 X186.882 Y133.426 E77.54368
G1 X187.236 Y134.06 E77.57749
G1 X187.519 Y134.729 E77.61132
G1 X187.727 Y135.425 E77.64514
G1 X187.857 Y136.14 E77.67898
G1 X187.908 Y136.961 E77.71728
G1 X187.908 Y140.727 E77.89265
G1 X187.868 Y141.452 E77.92646
G1 X187.749 Y142.169 E77.9603
G1 X187.551 Y142.868 E77.99413
G1 X187.278 Y143.541 E78.02795
G1 X186.933 Y144.18 E78.06176
G1 X186.519 Y144.777 E78.09559
G1 X185.975 Y145.394 E78.13389
G1 X185.858 Y145.511 E78.1416
G1 X185.317 Y145.995 E78.1754
G1 X184.726 Y146.418 E78.20924
G1 X184.092 Y146.772 E78.24305
G1 X183.423 Y147.055 E78.27687
