;FLAVOR:Marlin
;TIME:9068
;Filament used: 7.93088m
;Layer height: 0.28
;MINX:64.608
;MINY:82.7
;MINZ:0.28
;MAXX:170.392
;MAXY:152.3
;MAXZ:28
;Generated with Cura_SteamEngine 4.5.0
M140 S50
M105
M190 S50
M104 S200
M105
M109 S200
M82 ;absolute extrusion mode
; Ender 3 Custom Start G-code
G92 E0 ; Reset Extruder
G28 ; Home all axes
G1 Z2.0 F3000 ; Move Z Axis up little to prevent scratching of Heat Bed
G1 X0.1 Y20 Z0.3 F5000.0 ; Move to start position
G1 X0.1 Y200.0 Z0.3 F1500.0 E15 ; Draw the first line
G1 X0.4 Y200.0 Z0.3 F5000.0 ; Move to side a little
G1 X0.4 Y20 Z0.3 F1500.0 E30 ; Draw the second line
G92 E0 ; Reset Extruder
G1 Z2.0 F3000 ; Move Z Axis up little to prevent scratching of Heat Bed
G1 X5 Y20 Z0.3 F5000.0 ; Move over to prevent blob squish
G92 E0
G92 E0
G1 F2700 E-5
;LAYER_COUNT:100
;LAYER:0
M107
G0 F6000 X67.596 Y84.455 Z0.28
;TYPE:SKIRT
G1 F2700 E0
G1 F1200 X68.232 Y83.988 E0.03674
G1 X68.912 Y83.587 E0.0735
G1 X69.63 Y83.257 E0.1103
G1 X70.377 Y83.002 E0.14705
G1 X71.146 Y82.823 E0.18381
G1 X71.93 Y82.723 E0.22062
G1 X72.525 Y82.7 E0.24834
G1 X76.28 Y82.7 E0.42319
G1 X77.069 Y82.74 E0.45998
G1 X77.849 Y82.859 E0.49672
G1 X78.614 Y83.057 E0.53351
G1 X79.354 Y83.331 E0.57026
G1 X80.063 Y83.679 E0.60703
G1 X80.734 Y84.097 E0.64385
G1 X81.539 Y84.74 E0.69182
G1 X81.654 Y84.845 E0.69907
G1 X82.21 Y85.406 E0.73585
G1 X82.706 Y86.021 E0.77264
G1 X83.137 Y86.682 E0.80938
G1 X83.499 Y87.384 E0.84616
G1 X83.788 Y88.119 E0.88294
G1 X84.002 Y88.879 E0.9197
G1 X84.137 Y89.657 E0.95647
G1 X84.195 Y90.603 E1.0006
G1 X84.206 Y132.7 E2.96081
G1 X105.955 Y132.7 E3.97354
G1 X105.955 Y90.617 E5.9331
G1 X105.995 Y89.828 E5.96989
G1 X106.114 Y89.048 E6.00663
G1 X106.312 Y88.283 E6.04342
G1 X106.586 Y87.543 E6.08017
G1 X106.934 Y86.834 E6.11694
G1 X107.352 Y86.163 E6.15375
G1 X107.835 Y85.539 E6.1905
G1 X108.24 Y85.102 E6.21824
G1 X108.357 Y84.985 E6.22595
G1 X108.943 Y84.455 E6.26274
G1 X109.579 Y83.988 E6.29948
G1 X110.259 Y83.587 E6.33624
G1 X110.977 Y83.257 E6.37303
G1 X111.724 Y83.002 E6.40979
G1 X112.493 Y82.823 E6.44655
G1 X113.277 Y82.723 E6.48335
G1 X113.872 Y82.7 E6.51108
G1 X117.638 Y82.7 E6.68644
G1 X118.427 Y82.74 E6.72323
G1 X119.207 Y82.859 E6.75997
G1 X119.972 Y83.057 E6.79676
G1 X120.712 Y83.331 E6.83351
G1 X121.421 Y83.679 E6.87028
G1 X122.092 Y84.097 E6.90709
G1 X122.716 Y84.58 E6.94384
G1 X123.153 Y84.985 E6.97158
G1 X123.27 Y85.102 E6.97929
G1 X123.8 Y85.688 E7.01608
G1 X124.267 Y86.324 E7.05282
G1 X124.668 Y87.004 E7.08958
G1 X124.998 Y87.722 E7.12637
G1 X125.253 Y88.469 E7.16313
G1 X125.432 Y89.238 E7.19989
G1 X125.532 Y90.022 E7.23669
G1 X125.555 Y90.617 E7.26442
G1 X125.554 Y102.679 E7.82608
G1 X162.479 Y102.7 E9.54546
G1 X163.268 Y102.74 E9.58225
G1 X164.049 Y102.86 E9.61904
G1 X164.813 Y103.059 E9.6558
G1 X165.553 Y103.333 E9.69255
G1 X166.262 Y103.681 E9.72932
G1 X166.932 Y104.099 E9.76609
G1 X167.557 Y104.583 E9.8029
G1 X167.99 Y104.985 E9.83042
G1 X168.107 Y105.102 E9.83812
G1 X168.637 Y105.688 E9.87491
G1 X169.104 Y106.324 E9.91165
G1 X169.505 Y107.004 E9.94841
G1 X169.835 Y107.722 E9.98521
G1 X170.09 Y108.469 E10.02196
G1 X170.269 Y109.238 E10.05873
G1 X170.369 Y110.022 E10.09553
G1 X170.392 Y110.617 E10.12325
G1 X170.392 Y127.383 E10.90395
G1 X170.352 Y128.172 E10.94074
G1 X170.233 Y128.952 E10.97748
G1 X170.035 Y129.717 E11.01427
G1 X169.761 Y130.457 E11.05102
G1 X169.413 Y131.166 E11.08779
G1 X168.995 Y131.837 E11.1246
G1 X168.512 Y132.461 E11.16135
G1 X168.107 Y132.898 E11.18909
G1 X167.99 Y133.015 E11.19679
G1 X167.404 Y133.545 E11.23359
G1 X166.768 Y134.012 E11.27033
G1 X166.088 Y134.413 E11.30709
G1 X165.37 Y134.743 E11.34388
G1 X164.623 Y134.998 E11.38064
G1 X163.854 Y135.177 E11.4174
G1 X163.07 Y135.277 E11.4542
G1 X162.475 Y135.3 E11.48193
G1 X125.555 Y135.3 E13.20108
G1 X125.555 Y144.383 E13.62402
G1 X125.515 Y145.172 E13.66081
G1 X125.396 Y145.952 E13.69755
G1 X125.198 Y146.717 E13.73434
G1 X124.924 Y147.457 E13.77109
G1 X124.576 Y148.166 E13.80786
G1 X124.158 Y148.837 E13.84468
G1 X123.675 Y149.461 E13.88142
G1 X123.27 Y149.898 E13.90916
G1 X123.153 Y150.015 E13.91687
G1 X122.567 Y150.545 E13.95366
G1 X121.931 Y151.012 E13.9904
G1 X121.251 Y151.413 E14.02716
G1 X120.533 Y151.743 E14.06395
G1 X119.786 Y151.998 E14.10071
G1 X119.017 Y152.177 E14.13747
G1 X118.233 Y152.277 E14.17428
G1 X117.638 Y152.3 E14.202
G1 X72.525 Y152.3 E16.30265
G1 X71.736 Y152.26 E16.33944
G1 X70.956 Y152.141 E16.37618
G1 X70.191 Y151.943 E16.41297
G1 X69.451 Y151.669 E16.44972
G1 X68.742 Y151.321 E16.48649
G1 X68.071 Y150.903 E16.52331
G1 X67.447 Y150.42 E16.56005
G1 X67.01 Y150.015 E16.58779
G1 X66.893 Y149.898 E16.5955
G1 X66.363 Y149.312 E16.63229
G1 X65.896 Y148.676 E16.66903
G1 X65.495 Y147.996 E16.70579
G1 X65.165 Y147.278 E16.74258
G1 X64.91 Y146.531 E16.77934
G1 X64.731 Y145.762 E16.8161
G1 X64.631 Y144.978 E16.85291
G1 X64.608 Y144.383 E16.88063
G1 X64.608 Y90.617 E19.3842
G1 X64.648 Y89.828 E19.42099
G1 X64.767 Y89.048 E19.45773
G1 X64.965 Y88.283 E19.49452
G1 X65.239 Y87.543 E19.53127
G1 X65.587 Y86.834 E19.56804
G1 X66.005 Y86.163 E19.60486
G1 X66.488 Y85.539 E19.6416
G1 X66.893 Y85.102 E19.66934
G1 X67.01 Y84.985 E19.67705
G1 X67.596 Y84.455 E19.71384
G0 F6000 X67.864 Y84.753
G1 F1200 X68.486 Y84.3 E19.74967
G1 X69.151 Y83.914 E19.78547
G1 X69.853 Y83.599 E19.8213
G1 X70.584 Y83.359 E19.85713
G1 X71.335 Y83.196 E19.89291
G1 X72.1 Y83.112 E19.92875
G1 X72.525 Y83.1 E19.94854
G1 X76.28 Y83.1 E20.12339
G1 X77.048 Y83.14 E20.1592
G1 X77.808 Y83.259 E20.19502
G1 X78.551 Y83.457 E20.23083
G1 X79.27 Y83.731 E20.26666
G1 X79.956 Y84.078 E20.30245
G1 X80.603 Y84.494 E20.33827
G1 X81.27 Y85.035 E20.37826
G1 X81.385 Y85.14 E20.38551
G1 X81.925 Y85.688 E20.42133
G1 X82.405 Y86.288 E20.45711
G1 X82.821 Y86.935 E20.49293
G1 X83.167 Y87.622 E20.52875
G1 X83.44 Y88.341 E20.56456
G1 X83.637 Y89.085 E20.6004
G1 X83.756 Y89.845 E20.63622
G1 X83.795 Y90.603 E20.67156
G1 X83.806 Y133.1 E22.6504
G1 X106.355 Y133.1 E23.70037
G1 X106.355 Y90.617 E25.67856
G1 X106.395 Y89.849 E25.71437
G1 X106.514 Y89.089 E25.75019
G1 X106.712 Y88.346 E25.786
G1 X106.986 Y87.627 E25.82182
G1 X107.333 Y86.941 E25.85762
G1 X107.749 Y86.294 E25.89344
G1 X108.23 Y85.694 E25.92925
G1 X108.639 Y85.267 E25.95678
G1 X109.211 Y84.753 E25.99259
G1 X109.833 Y84.3 E26.02842
G1 X110.498 Y83.914 E26.06422
G1 X111.2 Y83.599 E26.10005
G1 X111.931 Y83.359 E26.13587
G1 X112.682 Y83.196 E26.17166
G1 X113.447 Y83.112 E26.20749
G1 X113.872 Y83.1 E26.22729
G1 X117.638 Y83.1 E26.40265
G1 X118.406 Y83.14 E26.43846
G1 X119.166 Y83.259 E26.47428
G1 X119.909 Y83.457 E26.51009
G1 X120.628 Y83.731 E26.54591
G1 X121.314 Y84.078 E26.58171
G1 X121.961 Y84.494 E26.61753
G1 X122.561 Y84.975 E26.65334
G1 X122.988 Y85.384 E26.68087
G1 X123.502 Y85.956 E26.71668
G1 X123.955 Y86.578 E26.75251
G1 X124.341 Y87.243 E26.78831
G1 X124.656 Y87.945 E26.82414
G1 X124.896 Y88.676 E26.85997
G1 X125.059 Y89.427 E26.89575
G1 X125.143 Y90.192 E26.93159
G1 X125.155 Y90.617 E26.95138
G1 X125.154 Y103.079 E27.53167
G1 X162.479 Y103.1 E29.26967
G1 X163.247 Y103.14 E29.30548
G1 X164.007 Y103.26 E29.34131
G1 X164.75 Y103.458 E29.37712
G1 X165.469 Y103.733 E29.41296
G1 X166.155 Y104.08 E29.44876
G1 X166.802 Y104.497 E29.4846
G1 X167.401 Y104.978 E29.52037
G1 X167.825 Y105.384 E29.54771
G1 X168.339 Y105.956 E29.58351
G1 X168.792 Y106.578 E29.61934
G1 X169.178 Y107.243 E29.65515
G1 X169.493 Y107.945 E29.69098
G1 X169.733 Y108.676 E29.7268
G1 X169.896 Y109.427 E29.76259
G1 X169.98 Y110.192 E29.79842
G1 X169.992 Y110.617 E29.81822
G1 X169.992 Y127.383 E30.59892
G1 X169.952 Y128.151 E30.63472
G1 X169.833 Y128.911 E30.67054
G1 X169.635 Y129.654 E30.70635
G1 X169.361 Y130.373 E30.74218
G1 X169.014 Y131.059 E30.77797
G1 X168.598 Y131.706 E30.81379
G1 X168.117 Y132.306 E30.8496
G1 X167.708 Y132.733 E30.87713
G1 X167.136 Y133.247 E30.91294
G1 X166.514 Y133.7 E30.94877
G1 X165.849 Y134.086 E30.98457
G1 X165.147 Y134.401 E31.0204
G1 X164.416 Y134.641 E31.05623
G1 X163.665 Y134.804 E31.09201
G1 X162.9 Y134.888 E31.12785
G1 X162.475 Y134.9 E31.14765
G1 X125.155 Y134.9 E32.88542
G1 X125.155 Y144.383 E33.32699
G1 X125.115 Y145.151 E33.3628
G1 X124.996 Y145.911 E33.39862
G1 X124.798 Y146.654 E33.43442
G1 X124.524 Y147.373 E33.47025
G1 X124.177 Y148.059 E33.50605
G1 X123.761 Y148.706 E33.54187
G1 X123.28 Y149.306 E33.57767
G1 X122.871 Y149.733 E33.60521
G1 X122.299 Y150.247 E33.64101
G1 X121.677 Y150.7 E33.67684
G1 X121.012 Y151.086 E33.71265
G1 X120.31 Y151.401 E33.74848
G1 X119.579 Y151.641 E33.7843
G1 X118.828 Y151.804 E33.82009
G1 X118.063 Y151.888 E33.85592
G1 X117.638 Y151.9 E33.87572
G1 X72.525 Y151.9 E35.97637
G1 X71.757 Y151.86 E36.01218
G1 X70.997 Y151.741 E36.048
G1 X70.254 Y151.543 E36.0838
G1 X69.535 Y151.269 E36.11963
G1 X68.849 Y150.922 E36.15543
G1 X68.202 Y150.506 E36.19125
G1 X67.602 Y150.025 E36.22705
G1 X67.175 Y149.616 E36.25459
G1 X66.661 Y149.044 E36.2904
G1 X66.208 Y148.422 E36.32623
G1 X65.822 Y147.757 E36.36203
G1 X65.507 Y147.055 E36.39786
G1 X65.267 Y146.324 E36.43368
G1 X65.104 Y145.573 E36.46947
G1 X65.02 Y144.808 E36.5053
G1 X65.008 Y144.383 E36.5251
G1 X65.008 Y90.617 E39.02867
G1 X65.048 Y89.849 E39.06448
G1 X65.167 Y89.089 E39.1003
G1 X65.365 Y88.346 E39.13611
G1 X65.639 Y87.627 E39.17193
G1 X65.986 Y86.941 E39.20773
G1 X66.402 Y86.294 E39.24355
G1 X66.883 Y85.694 E39.27936
G1 X67.292 Y85.267 E39.30689
G1 X67.864 Y84.753 E39.3427
G0 F6000 X68.132 Y85.05
G1 F1200 X68.738 Y84.613 E39.37749
G1 X69.388 Y84.242 E39.41234
G1 X70.074 Y83.943 E39.44718
G1 X70.788 Y83.719 E39.48203
G1 X71.521 Y83.572 E39.51684
G1 X72.525 Y83.5 E39.56371
G1 X76.28 Y83.5 E39.73856
G1 X77.027 Y83.54 E39.77339
G1 X77.765 Y83.659 E39.8082
G1 X78.487 Y83.857 E39.84306
G1 X79.183 Y84.13 E39.87787
G1 X79.846 Y84.477 E39.91272
G1 X80.469 Y84.892 E39.94757
G1 X81 Y85.331 E39.97965
G1 X81.115 Y85.436 E39.9869
G1 X81.64 Y85.969 E40.02174
G1 X82.104 Y86.555 E40.05655
G1 X82.504 Y87.187 E40.09137
G1 X82.834 Y87.859 E40.12623
G1 X83.09 Y88.562 E40.16107
G1 X83.27 Y89.288 E40.1959
G1 X83.371 Y90.029 E40.23072
G1 X83.395 Y90.603 E40.25747
G1 X83.406 Y133.5 E42.25494
G1 X106.755 Y133.5 E43.34217
G1 X106.755 Y90.617 E45.33898
G1 X106.795 Y89.87 E45.37381
G1 X106.914 Y89.132 E45.40862
G1 X107.112 Y88.41 E45.44348
G1 X107.385 Y87.714 E45.47829
G1 X107.732 Y87.051 E45.51314
G1 X108.147 Y86.428 E45.54799
G1 X108.805 Y85.667 E45.59484
G1 X108.922 Y85.55 E45.60254
G1 X109.479 Y85.05 E45.6374
G1 X110.085 Y84.613 E45.67219
G1 X110.735 Y84.242 E45.70704
G1 X111.421 Y83.943 E45.74188
G1 X112.135 Y83.719 E45.77673
G1 X112.868 Y83.572 E45.81154
G1 X113.872 Y83.5 E45.85841
G1 X117.638 Y83.5 E46.03377
G1 X118.385 Y83.54 E46.0686
G1 X119.123 Y83.659 E46.10341
G1 X119.845 Y83.857 E46.13827
G1 X120.541 Y84.13 E46.17308
G1 X121.204 Y84.477 E46.20793
G1 X121.827 Y84.892 E46.24278
G1 X122.588 Y85.55 E46.28963
G1 X122.705 Y85.667 E46.29733
G1 X123.205 Y86.224 E46.33219
G1 X123.642 Y86.83 E46.36698
G1 X124.013 Y87.48 E46.40183
G1 X124.312 Y88.166 E46.43667
G1 X124.536 Y88.88 E46.47152
G1 X124.683 Y89.613 E46.50633
G1 X124.755 Y90.617 E46.5532
G1 X124.754 Y103.479 E47.15211
G1 X162.479 Y103.5 E48.90874
G1 X163.226 Y103.54 E48.94357
G1 X163.964 Y103.66 E48.97839
G1 X164.686 Y103.858 E49.01325
G1 X165.382 Y104.132 E49.04808
G1 X166.045 Y104.479 E49.08292
G1 X166.667 Y104.894 E49.11774
G1 X167.425 Y105.55 E49.16442
G1 X167.542 Y105.667 E49.17213
G1 X168.042 Y106.224 E49.20698
G1 X168.479 Y106.83 E49.24177
G1 X168.85 Y107.48 E49.27662
G1 X169.149 Y108.166 E49.31146
G1 X169.373 Y108.88 E49.34631
G1 X169.52 Y109.613 E49.38112
G1 X169.592 Y110.617 E49.42799
G1 X169.592 Y127.383 E50.20868
G1 X169.552 Y128.13 E50.24352
G1 X169.433 Y128.868 E50.27833
G1 X169.235 Y129.59 E50.31319
G1 X168.962 Y130.286 E50.348
G1 X168.615 Y130.949 E50.38284
G1 X168.2 Y131.572 E50.4177
G1 X167.542 Y132.333 E50.46455
G1 X167.425 Y132.45 E50.47225
G1 X166.868 Y132.95 E50.5071
G1 X166.262 Y133.387 E50.54189
G1 X165.612 Y133.758 E50.57674
G1 X164.926 Y134.057 E50.61159
G1 X164.212 Y134.281 E50.64643
G1 X163.479 Y134.428 E50.68124
G1 X162.475 Y134.5 E50.72811
G1 X124.755 Y134.5 E52.48452
G1 X124.755 Y144.383 E52.94471
G1 X124.715 Y145.13 E52.97954
G1 X124.596 Y145.868 E53.01435
G1 X124.398 Y146.59 E53.04921
G1 X124.125 Y147.286 E53.08402
G1 X123.778 Y147.949 E53.11887
G1 X123.363 Y148.572 E53.15373
G1 X122.705 Y149.333 E53.20057
G1 X122.588 Y149.45 E53.20827
G1 X122.031 Y149.95 E53.24313
G1 X121.425 Y150.387 E53.27792
G1 X120.775 Y150.758 E53.31277
G1 X120.089 Y151.057 E53.34761
G1 X119.375 Y151.281 E53.38246
G1 X118.642 Y151.428 E53.41727
G1 X117.638 Y151.5 E53.46414
G1 X72.525 Y151.5 E55.56479
G1 X71.778 Y151.46 E55.59962
G1 X71.04 Y151.341 E55.63443
G1 X70.318 Y151.143 E55.66929
G1 X69.622 Y150.87 E55.7041
G1 X68.959 Y150.523 E55.73895
G1 X68.336 Y150.108 E55.77381
G1 X67.575 Y149.45 E55.82065
G1 X67.458 Y149.333 E55.82835
G1 X66.958 Y148.776 E55.86321
G1 X66.521 Y148.17 E55.898
G1 X66.15 Y147.52 E55.93285
G1 X65.851 Y146.834 E55.96769
G1 X65.627 Y146.12 E56.00254
G1 X65.48 Y145.387 E56.03735
G1 X65.408 Y144.383 E56.08422
G1 X65.408 Y90.617 E58.58779
G1 X65.448 Y89.87 E58.62262
G1 X65.567 Y89.132 E58.65743
G1 X65.765 Y88.41 E58.69229
G1 X66.038 Y87.714 E58.7271
G1 X66.385 Y87.051 E58.76195
G1 X66.8 Y86.428 E58.7968
G1 X67.458 Y85.667 E58.84365
G1 X67.575 Y85.55 E58.85135
G1 X68.132 Y85.05 E58.88621
G0 F6000 X68.399 Y85.349
G1 F1200 X68.99 Y84.926 E58.92005
G1 X69.624 Y84.572 E58.95386
G1 X70.293 Y84.289 E58.98769
G1 X70.989 Y84.081 E59.02151
G1 X71.704 Y83.951 E59.05535
G1 X72.525 Y83.9 E59.09365
G1 X76.28 Y83.9 E59.2685
G1 X77.005 Y83.94 E59.30231
G1 X77.722 Y84.059 E59.33615
G1 X78.421 Y84.257 E59.36998
G1 X79.094 Y84.53 E59.4038
G1 X79.733 Y84.875 E59.43762
G1 X80.33 Y85.289 E59.47144
G1 X80.73 Y85.626 E59.4958
G1 X80.845 Y85.731 E59.50305
G1 X81.354 Y86.25 E59.5369
G1 X81.802 Y86.821 E59.57069
G1 X82.185 Y87.438 E59.60451
G1 X82.498 Y88.093 E59.63831
G1 X82.737 Y88.779 E59.67214
G1 X82.9 Y89.487 E59.70597
G1 X82.983 Y90.209 E59.73981
G1 X82.995 Y90.603 E59.75816
G1 X83.006 Y133.9 E61.77425
G1 X107.155 Y133.9 E62.89873
G1 X107.155 Y90.617 E64.91417
G1 X107.195 Y89.892 E64.94798
G1 X107.314 Y89.175 E64.98182
G1 X107.512 Y88.476 E65.01565
G1 X107.785 Y87.803 E65.04947
G1 X108.13 Y87.164 E65.08329
G1 X108.544 Y86.567 E65.11711
G1 X109.088 Y85.95 E65.15542
G1 X109.205 Y85.833 E65.16312
G1 X109.746 Y85.349 E65.19692
G1 X110.337 Y84.926 E65.23076
G1 X110.971 Y84.572 E65.26458
G1 X111.64 Y84.289 E65.2984
G1 X112.336 Y84.081 E65.33223
G1 X113.051 Y83.951 E65.36606
G1 X113.872 Y83.9 E65.40437
G1 X117.638 Y83.9 E65.57973
G1 X118.363 Y83.94 E65.61354
G1 X119.08 Y84.059 E65.64738
G1 X119.779 Y84.257 E65.68121
G1 X120.452 Y84.53 E65.71503
G1 X121.091 Y84.875 E65.74884
G1 X121.688 Y85.289 E65.78267
G1 X122.305 Y85.833 E65.82097
G1 X122.422 Y85.95 E65.82868
G1 X122.906 Y86.491 E65.86248
G1 X123.329 Y87.082 E65.89632
G1 X123.683 Y87.716 E65.93013
G1 X123.966 Y88.385 E65.96396
G1 X124.174 Y89.081 E65.99778
G1 X124.304 Y89.796 E66.03162
G1 X124.355 Y90.617 E66.06993
G1 X124.354 Y103.879 E66.68746
G1 X162.479 Y103.9 E68.46272
G1 X163.204 Y103.94 E68.49653
G1 X163.92 Y104.06 E68.53033
G1 X164.619 Y104.258 E68.56416
G1 X165.292 Y104.531 E68.59798
G1 X165.931 Y104.877 E68.63182
G1 X166.528 Y105.291 E68.66565
G1 X167.142 Y105.833 E68.70378
G1 X167.259 Y105.95 E68.71149
G1 X167.743 Y106.491 E68.74529
G1 X168.166 Y107.082 E68.77913
G1 X168.52 Y107.716 E68.81294
G1 X168.803 Y108.385 E68.84677
G1 X169.011 Y109.081 E68.88059
G1 X169.141 Y109.796 E68.91443
G1 X169.192 Y110.617 E68.95273
G1 X169.192 Y127.383 E69.73343
G1 X169.152 Y128.108 E69.76724
G1 X169.033 Y128.825 E69.80108
G1 X168.835 Y129.524 E69.83491
G1 X168.562 Y130.197 E69.86873
G1 X168.217 Y130.836 E69.90254
G1 X167.803 Y131.433 E69.93637
G1 X167.259 Y132.05 E69.97467
G1 X167.142 Y132.167 E69.98238
G1 X166.601 Y132.651 E70.01618
G1 X166.01 Y133.074 E70.05002
G1 X165.376 Y133.428 E70.08383
G1 X164.707 Y133.711 E70.11766
G1 X164.011 Y133.919 E70.15148
G1 X163.296 Y134.049 E70.18532
G1 X162.475 Y134.1 E70.22363
