;FLAVOR:Marlin
;TIME:2490
;Filament used: 2.07201m
;Layer height: 0.28
;MINX:90.706
;MINY:100.896
;MINZ:0.28
;MAXX:144.294
;MAXY:134.104
;MAXZ:20.72
;Generated with Cura_SteamEngine 4.5.0
M140 S50
M105
M190 S50
M104 S200
M105
M109 S200
M82 ;absolute extrusion mode
; Ender 3 Custom Start G-code
G92 E0 ; Reset Extruder
G28 ; Home all axes
G1 Z2.0 F3000 ; Move Z Axis up little to prevent scratching of Heat Bed
G1 X0.1 Y20 Z0.3 F5000.0 ; Move to start position
G1 X0.1 Y200.0 Z0.3 F1500.0 E15 ; Draw the first line
G1 X0.4 Y200.0 Z0.3 F5000.0 ; Move to side a little
G1 X0.4 Y20 Z0.3 F1500.0 E30 ; Draw the second line
G92 E0 ; Reset Extruder
G1 Z2.0 F3000 ; Move Z Axis up little to prevent scratching of Heat Bed
G1 X5 Y20 Z0.3 F5000.0 ; Move over to prevent blob squish
G92 E0
G92 E0
G1 F2700 E-5
;LAYER_COUNT:74
;LAYER:0
M107
G0 F6000 X93.108 Y103.181 Z0.28
;TYPE:SKIRT
G1 F2700 E0
G1 F1200 X93.694 Y102.651 E0.03679
G1 X94.33 Y102.184 E0.07353
G1 X95.01 Y101.783 E0.11029
G1 X95.728 Y101.453 E0.14709
G1 X96.475 Y101.198 E0.18384
G1 X97.244 Y101.019 E0.22061
G1 X98.028 Y100.919 E0.25741
G1 X98.623 Y100.896 E0.28513
G1 X136.377 Y100.896 E2.04312
G1 X137.166 Y100.936 E2.07991
G1 X137.946 Y101.055 E2.11665
G1 X138.711 Y101.253 E2.15344
G1 X139.451 Y101.527 E2.19019
G1 X140.16 Y101.875 E2.22696
G1 X140.831 Y102.293 E2.26377
G1 X141.455 Y102.776 E2.30052
G1 X141.892 Y103.181 E2.32826
G1 X142.009 Y103.298 E2.33596
G1 X142.539 Y103.884 E2.37276
G1 X143.006 Y104.52 E2.4095
G1 X143.407 Y105.2 E2.44626
G1 X143.737 Y105.918 E2.48305
G1 X143.992 Y106.665 E2.51981
G1 X144.171 Y107.434 E2.55657
G1 X144.271 Y108.218 E2.59337
G1 X144.294 Y108.813 E2.6211
G1 X144.294 Y126.187 E3.43011
G1 X144.254 Y126.976 E3.46689
G1 X144.135 Y127.756 E3.50363
G1 X143.937 Y128.521 E3.54043
G1 X143.663 Y129.261 E3.57717
G1 X143.315 Y129.97 E3.61395
G1 X142.897 Y130.641 E3.65076
G1 X142.414 Y131.265 E3.6875
G1 X142.009 Y131.702 E3.71525
G1 X141.892 Y131.819 E3.72295
G1 X141.306 Y132.349 E3.75974
G1 X140.67 Y132.816 E3.79648
G1 X139.99 Y133.217 E3.83324
G1 X139.272 Y133.547 E3.87004
G1 X138.525 Y133.802 E3.90679
G1 X137.756 Y133.981 E3.94356
G1 X136.972 Y134.081 E3.98036
G1 X136.377 Y134.104 E4.00809
G1 X98.623 Y134.104 E5.76607
G1 X97.834 Y134.064 E5.80286
G1 X97.054 Y133.945 E5.8396
G1 X96.289 Y133.747 E5.87639
G1 X95.549 Y133.473 E5.91314
G1 X94.84 Y133.125 E5.94991
G1 X94.169 Y132.707 E5.98672
G1 X93.545 Y132.224 E6.02347
G1 X93.108 Y131.819 E6.05121
G1 X92.991 Y131.702 E6.05891
G1 X92.461 Y131.116 E6.09571
G1 X91.994 Y130.48 E6.13245
G1 X91.593 Y129.8 E6.16921
G1 X91.263 Y129.082 E6.206
G1 X91.008 Y128.335 E6.24276
G1 X90.829 Y127.566 E6.27952
G1 X90.729 Y126.782 E6.31632
G1 X90.706 Y126.187 E6.34405
G1 X90.706 Y108.813 E7.15306
G1 X90.746 Y108.024 E7.18984
G1 X90.865 Y107.244 E7.22658
G1 X91.063 Y106.479 E7.26338
G1 X91.337 Y105.739 E7.30012
G1 X91.685 Y105.03 E7.3369
G1 X92.103 Y104.359 E7.37371
G1 X92.586 Y103.735 E7.41045
G1 X92.991 Y103.298 E7.4382
G1 X93.108 Y103.181 E7.4459
G0 F6000 X93.39 Y103.463
G1 F1200 X93.962 Y102.949 E7.48171
G1 X94.584 Y102.496 E7.51754
G1 X95.249 Y102.11 E7.55334
G1 X95.951 Y101.795 E7.58917
G1 X96.682 Y101.555 E7.625
G1 X97.433 Y101.392 E7.66078
G1 X98.198 Y101.308 E7.69662
G1 X98.623 Y101.296 E7.71641
G1 X136.377 Y101.296 E9.4744
G1 X137.145 Y101.336 E9.51021
G1 X137.905 Y101.455 E9.54603
G1 X138.648 Y101.653 E9.58183
G1 X139.367 Y101.927 E9.61766
G1 X140.053 Y102.274 E9.65346
G1 X140.7 Y102.69 E9.68928
G1 X141.3 Y103.171 E9.72508
G1 X141.727 Y103.58 E9.75262
G1 X142.241 Y104.152 E9.78842
G1 X142.694 Y104.774 E9.82425
G1 X143.08 Y105.439 E9.86006
G1 X143.395 Y106.141 E9.89589
G1 X143.635 Y106.872 E9.93171
G1 X143.798 Y107.623 E9.9675
G1 X143.882 Y108.388 E10.00333
G1 X143.894 Y108.813 E10.02313
G1 X143.894 Y126.187 E10.83214
G1 X143.854 Y126.955 E10.86795
G1 X143.735 Y127.715 E10.90377
G1 X143.537 Y128.458 E10.93957
G1 X143.263 Y129.177 E10.9754
G1 X142.916 Y129.863 E11.0112
G1 X142.5 Y130.51 E11.04701
G1 X142.019 Y131.11 E11.08282
G1 X141.61 Y131.537 E11.11035
G1 X141.038 Y132.051 E11.14616
G1 X140.416 Y132.504 E11.18199
G1 X139.751 Y132.89 E11.21779
G1 X139.049 Y133.205 E11.25362
G1 X138.318 Y133.445 E11.28945
G1 X137.567 Y133.608 E11.32523
G1 X136.802 Y133.692 E11.36107
G1 X136.377 Y133.704 E11.38087
G1 X98.623 Y133.704 E13.13885
G1 X97.855 Y133.664 E13.17466
G1 X97.095 Y133.545 E13.21048
G1 X96.352 Y133.347 E13.24628
G1 X95.633 Y133.073 E13.28211
G1 X94.947 Y132.726 E13.31791
G1 X94.3 Y132.31 E13.35373
G1 X93.7 Y131.829 E13.38953
G1 X93.273 Y131.42 E13.41707
G1 X92.759 Y130.848 E13.45288
G1 X92.306 Y130.226 E13.48871
G1 X91.92 Y129.561 E13.52451
G1 X91.605 Y128.859 E13.56034
G1 X91.365 Y128.128 E13.59616
G1 X91.202 Y127.377 E13.63195
G1 X91.118 Y126.612 E13.66778
G1 X91.106 Y126.187 E13.68758
G1 X91.106 Y108.813 E14.49659
G1 X91.146 Y108.045 E14.5324
G1 X91.265 Y107.285 E14.56822
G1 X91.463 Y106.542 E14.60402
G1 X91.737 Y105.823 E14.63985
G1 X92.084 Y105.137 E14.67565
G1 X92.5 Y104.49 E14.71146
G1 X92.981 Y103.89 E14.74727
G1 X93.39 Y103.463 E14.7748
G0 F6000 X93.673 Y103.746
G1 F1200 X94.23 Y103.246 E14.80966
G1 X94.836 Y102.809 E14.84445
G1 X95.486 Y102.438 E14.8793
G1 X96.172 Y102.139 E14.91414
G1 X96.886 Y101.915 E14.94899
G1 X97.619 Y101.768 E14.9838
G1 X98.623 Y101.696 E15.03067
G1 X136.377 Y101.696 E16.78865
G1 X137.124 Y101.736 E16.82349
G1 X137.862 Y101.855 E16.85829
G1 X138.584 Y102.053 E16.89315
G1 X139.28 Y102.326 E16.92797
G1 X139.943 Y102.673 E16.96281
G1 X140.566 Y103.088 E16.99767
G1 X141.327 Y103.746 E17.04451
G1 X141.444 Y103.863 E17.05222
G1 X141.944 Y104.42 E17.08707
G1 X142.381 Y105.026 E17.12186
G1 X142.752 Y105.676 E17.15671
G1 X143.051 Y106.362 E17.19156
G1 X143.275 Y107.076 E17.2264
G1 X143.422 Y107.809 E17.26121
G1 X143.494 Y108.813 E17.30808
G1 X143.494 Y126.187 E18.11709
G1 X143.454 Y126.934 E18.15192
G1 X143.335 Y127.672 E18.18673
G1 X143.137 Y128.394 E18.22159
G1 X142.864 Y129.09 E18.2564
G1 X142.517 Y129.753 E18.29125
G1 X142.102 Y130.376 E18.3261
G1 X141.444 Y131.137 E18.37295
G1 X141.327 Y131.254 E18.38065
G1 X140.77 Y131.754 E18.41551
G1 X140.164 Y132.191 E18.4503
G1 X139.514 Y132.562 E18.48515
G1 X138.828 Y132.861 E18.51999
G1 X138.114 Y133.085 E18.55484
G1 X137.381 Y133.232 E18.58965
G1 X136.377 Y133.304 E18.63652
G1 X98.623 Y133.304 E20.3945
G1 X97.876 Y133.264 E20.42934
G1 X97.138 Y133.145 E20.46414
G1 X96.416 Y132.947 E20.499
G1 X95.72 Y132.674 E20.53382
G1 X95.057 Y132.327 E20.56866
G1 X94.434 Y131.912 E20.60352
G1 X93.673 Y131.254 E20.65036
G1 X93.556 Y131.137 E20.65807
G1 X93.056 Y130.58 E20.69292
G1 X92.619 Y129.974 E20.72771
G1 X92.248 Y129.324 E20.76256
G1 X91.949 Y128.638 E20.79741
G1 X91.725 Y127.924 E20.83225
G1 X91.578 Y127.191 E20.86706
G1 X91.506 Y126.187 E20.91393
G1 X91.506 Y108.813 E21.72294
G1 X91.546 Y108.066 E21.75777
G1 X91.665 Y107.328 E21.79258
G1 X91.863 Y106.606 E21.82744
G1 X92.136 Y105.91 E21.86225
G1 X92.483 Y105.247 E21.8971
G1 X92.898 Y104.624 E21.93195
G1 X93.556 Y103.863 E21.9788
G1 X93.673 Y103.746 E21.9865
G0 F6000 X93.956 Y104.029
G1 F1200 X94.497 Y103.545 E22.0203
G1 X95.088 Y103.122 E22.05415
G1 X95.722 Y102.768 E22.08796
G1 X96.391 Y102.485 E22.12178
G1 X97.087 Y102.277 E22.15561
G1 X97.802 Y102.147 E22.18945
G1 X98.623 Y102.096 E22.22775
G1 X136.377 Y102.096 E23.98573
G1 X137.102 Y102.136 E24.01954
G1 X137.819 Y102.255 E24.05339
G1 X138.518 Y102.453 E24.08722
G1 X139.191 Y102.726 E24.12103
G1 X139.83 Y103.071 E24.15485
G1 X140.427 Y103.485 E24.18868
G1 X141.044 Y104.029 E24.22698
G1 X141.161 Y104.146 E24.23468
G1 X141.645 Y104.687 E24.26849
G1 X142.068 Y105.278 E24.30233
G1 X142.422 Y105.912 E24.33614
G1 X142.705 Y106.581 E24.36996
G1 X142.913 Y107.277 E24.40379
G1 X143.043 Y107.992 E24.43763
G1 X143.094 Y108.813 E24.47593
G1 X143.094 Y126.187 E25.28494
G1 X143.054 Y126.912 E25.31875
G1 X142.935 Y127.629 E25.35259
G1 X142.737 Y128.328 E25.38642
G1 X142.464 Y129.001 E25.42024
G1 X142.119 Y129.64 E25.45405
G1 X141.705 Y130.237 E25.48788
G1 X141.161 Y130.854 E25.52618
G1 X141.044 Y130.971 E25.53389
G1 X140.503 Y131.455 E25.56769
G1 X139.912 Y131.878 E25.60153
G1 X139.278 Y132.232 E25.63534
G1 X138.609 Y132.515 E25.66917
G1 X137.913 Y132.723 E25.70299
G1 X137.198 Y132.853 E25.73683
G1 X136.377 Y132.904 E25.77513
G1 X98.623 Y132.904 E27.53312
G1 X97.898 Y132.864 E27.56693
G1 X97.181 Y132.745 E27.60077
G1 X96.482 Y132.547 E27.6346
G1 X95.809 Y132.274 E27.66842
G1 X95.17 Y131.929 E27.70223
G1 X94.573 Y131.515 E27.73606
G1 X93.956 Y130.971 E27.77436
G1 X93.839 Y130.854 E27.78207
G1 X93.355 Y130.313 E27.81587
G1 X92.932 Y129.722 E27.84971
G1 X92.578 Y129.088 E27.88352
G1 X92.295 Y128.419 E27.91735
G1 X92.087 Y127.723 E27.95117
G1 X91.957 Y127.008 E27.98501
G1 X91.906 Y126.187 E28.02331
G1 X91.906 Y108.813 E28.83232
G1 X91.946 Y108.088 E28.86613
G1 X92.065 Y107.371 E28.89997
G1 X92.263 Y106.672 E28.9338
G1 X92.536 Y105.999 E28.96762
G1 X92.881 Y105.36 E29.00144
G1 X93.295 Y104.763 E29.03526
G1 X93.839 Y104.146 E29.07357
G1 X93.956 Y104.029 E29.08127
G0 F6000 X94.239 Y104.312
G1 F1200 X94.764 Y103.843 E29.11405
G1 X95.339 Y103.437 E29.14683
G1 X95.957 Y103.099 E29.17963
G1 X96.608 Y102.832 E29.21239
G1 X97.286 Y102.642 E29.24518
G1 X97.981 Y102.529 E29.27797
G1 X98.623 Y102.496 E29.3079
G1 X136.377 Y102.496 E31.06588
G1 X137.08 Y102.536 E31.09867
G1 X137.774 Y102.655 E31.13146
G1 X138.449 Y102.853 E31.16421
G1 X139.098 Y103.125 E31.19698
G1 X139.712 Y103.47 E31.22977
G1 X140.283 Y103.881 E31.26253
G1 X140.761 Y104.312 E31.2925
G1 X140.878 Y104.429 E31.30021
G1 X141.347 Y104.954 E31.33299
G1 X141.753 Y105.529 E31.36576
G1 X142.091 Y106.147 E31.39856
G1 X142.358 Y106.798 E31.43133
G1 X142.548 Y107.476 E31.46411
G1 X142.661 Y108.171 E31.4969
G1 X142.694 Y108.813 E31.52684
G1 X142.694 Y126.187 E32.33584
G1 X142.654 Y126.89 E32.36863
G1 X142.535 Y127.584 E32.40142
G1 X142.337 Y128.259 E32.43417
G1 X142.065 Y128.908 E32.46694
G1 X141.72 Y129.522 E32.49973
G1 X141.309 Y130.093 E32.53249
G1 X140.878 Y130.571 E32.56246
G1 X140.761 Y130.688 E32.57017
G1 X140.236 Y131.157 E32.60295
G1 X139.661 Y131.563 E32.63572
G1 X139.043 Y131.901 E32.66852
G1 X138.392 Y132.168 E32.70129
G1 X137.714 Y132.358 E32.73407
G1 X137.019 Y132.471 E32.76686
G1 X136.377 Y132.504 E32.79679
G1 X98.623 Y132.504 E34.55478
G1 X97.92 Y132.464 E34.58757
G1 X97.226 Y132.345 E34.62035
G1 X96.551 Y132.147 E34.65311
G1 X95.902 Y131.875 E34.68587
G1 X95.288 Y131.53 E34.71867
G1 X94.717 Y131.119 E34.75143
G1 X94.239 Y130.688 E34.7814
G1 X94.122 Y130.571 E34.7891
G1 X93.653 Y130.046 E34.82188
G1 X93.247 Y129.471 E34.85466
G1 X92.909 Y128.853 E34.88746
G1 X92.642 Y128.202 E34.92022
G1 X92.452 Y127.524 E34.95301
G1 X92.339 Y126.829 E34.9858
G1 X92.306 Y126.187 E35.01573
G1 X92.306 Y108.813 E35.82474
G1 X92.346 Y108.11 E35.85752
G1 X92.465 Y107.416 E35.89031
G1 X92.663 Y106.741 E35.92307
G1 X92.935 Y106.092 E35.95583
G1 X93.28 Y105.478 E35.98863
G1 X93.691 Y104.907 E36.02139
G1 X94.122 Y104.429 E36.05136
G1 X94.239 Y104.312 E36.05906
G0 F6000 X94.522 Y104.595
G1 F1200 X95.031 Y104.142 E36.09079
G1 X95.589 Y103.753 E36.12246
G1 X96.189 Y103.431 E36.15417
G1 X96.823 Y103.182 E36.18589
G1 X97.482 Y103.009 E36.21761
G1 X98.156 Y102.915 E36.2493
G1 X98.623 Y102.896 E36.27106
G1 X136.377 Y102.896 E38.02905
G1 X137.057 Y102.936 E38.06077
G1 X137.727 Y103.055 E38.09245
G1 X138.379 Y103.252 E38.12417
G1 X139.003 Y103.524 E38.15587
G1 X139.591 Y103.868 E38.18759
G1 X140.135 Y104.278 E38.21931
G1 X140.478 Y104.595 E38.24105
G1 X140.595 Y104.712 E38.24876
G1 X141.048 Y105.221 E38.28049
G1 X141.437 Y105.779 E38.31216
G1 X141.759 Y106.379 E38.34387
G1 X142.008 Y107.013 E38.37559
G1 X142.181 Y107.672 E38.40731
G1 X142.275 Y108.346 E38.439
G1 X142.294 Y108.813 E38.46076
G1 X142.294 Y126.187 E39.26977
G1 X142.254 Y126.867 E39.30149
G1 X142.135 Y127.537 E39.33317
G1 X141.938 Y128.189 E39.36489
G1 X141.666 Y128.813 E39.39659
G1 X141.322 Y129.401 E39.42831
G1 X140.912 Y129.945 E39.46003
G1 X140.595 Y130.288 E39.48177
G1 X140.478 Y130.405 E39.48948
G1 X139.969 Y130.858 E39.52121
G1 X139.411 Y131.247 E39.55288
G1 X138.811 Y131.569 E39.58459
G1 X138.177 Y131.818 E39.6163
G1 X137.518 Y131.991 E39.64803
G1 X136.844 Y132.085 E39.67972
G1 X136.377 Y132.104 E39.70148
G1 X98.623 Y132.104 E41.45947
G1 X97.943 Y132.064 E41.49118
G1 X97.273 Y131.945 E41.52287
G1 X96.621 Y131.748 E41.55459
G1 X95.997 Y131.476 E41.58628
G1 X95.409 Y131.132 E41.618
G1 X94.865 Y130.722 E41.64972
G1 X94.522 Y130.405 E41.67147
G1 X94.405 Y130.288 E41.67918
G1 X93.952 Y129.779 E41.7109
G1 X93.563 Y129.221 E41.74258
G1 X93.241 Y128.621 E41.77429
G1 X92.992 Y127.987 E41.806
G1 X92.819 Y127.328 E41.83773
G1 X92.725 Y126.654 E41.86942
G1 X92.706 Y126.187 E41.89118
G1 X92.706 Y108.813 E42.70019
G1 X92.746 Y108.133 E42.7319
G1 X92.865 Y107.463 E42.76359
G1 X93.062 Y106.811 E42.79531
G1 X93.334 Y106.187 E42.827
G1 X93.678 Y105.599 E42.85872
G1 X94.088 Y105.055 E42.89044
G1 X94.405 Y104.712 E42.91219
G1 X94.522 Y104.595 E42.9199
G0 F6000 X94.805 Y104.878
G1 F1200 X95.297 Y104.442 E42.95051
G1 X95.838 Y104.07 E42.98108
G1 X96.42 Y103.766 E43.01165
G1 X97.035 Y103.535 E43.04224
G1 X97.674 Y103.38 E43.07286
G1 X98.623 Y103.296 E43.11722
G1 X136.377 Y103.296 E44.87521
G1 X137.033 Y103.336 E44.90581
G1 X137.679 Y103.455 E44.9364
G1 X138.306 Y103.652 E44.967
G1 X138.904 Y103.924 E44.99759
G1 X139.465 Y104.266 E45.02818
G1 X140.195 Y104.878 E45.07254
G1 X140.312 Y104.995 E45.08025
G1 X140.748 Y105.487 E45.11086
G1 X141.12 Y106.028 E45.14143
G1 X141.424 Y106.61 E45.172
G1 X141.655 Y107.225 E45.20259
G1 X141.81 Y107.864 E45.23321
G1 X141.894 Y108.813 E45.27757
G1 X141.894 Y126.187 E46.08658
G1 X141.854 Y126.843 E46.11718
G1 X141.735 Y127.489 E46.14777
G1 X141.538 Y128.116 E46.17837
G1 X141.266 Y128.714 E46.20896
G1 X140.924 Y129.275 E46.23956
G1 X140.312 Y130.005 E46.28391
G1 X140.195 Y130.122 E46.29162
G1 X139.703 Y130.558 E46.32223
G1 X139.162 Y130.93 E46.3528
G1 X138.58 Y131.234 E46.38337
G1 X137.965 Y131.465 E46.41397
G1 X137.326 Y131.62 E46.44458
G1 X136.377 Y131.704 E46.48894
G1 X98.623 Y131.704 E48.24693
G1 X97.967 Y131.664 E48.27753
G1 X97.321 Y131.545 E48.30812
G1 X96.694 Y131.348 E48.33872
G1 X96.096 Y131.076 E48.36931
G1 X95.535 Y130.734 E48.39991
G1 X94.805 Y130.122 E48.44426
G1 X94.688 Y130.005 E48.45197
G1 X94.252 Y129.513 E48.48258
G1 X93.88 Y128.972 E48.51315
G1 X93.576 Y128.39 E48.54372
G1 X93.345 Y127.775 E48.57432
G1 X93.19 Y127.136 E48.60493
G1 X93.106 Y126.187 E48.64929
G1 X93.106 Y108.813 E49.4583
G1 X93.146 Y108.157 E49.4889
G1 X93.265 Y107.511 E49.51949
G1 X93.462 Y106.884 E49.55009
G1 X93.734 Y106.286 E49.58068
G1 X94.076 Y105.725 E49.61128
G1 X94.688 Y104.995 E49.65563
G1 X94.805 Y104.878 E49.66334
G0 F6000 X95.087 Y105.16
G1 F1200 X95.562 Y104.743 E49.69277
G1 X96.085 Y104.388 E49.7222
G1 X96.649 Y104.102 E49.75165
G1 X97.244 Y103.89 E49.78106
G1 X97.862 Y103.754 E49.81053
G1 X98.623 Y103.696 E49.84607
G1 X136.377 Y103.696 E51.60405
G1 X137.008 Y103.736 E51.63349
G1 X137.629 Y103.855 E51.66293
G1 X138.229 Y104.052 E51.69234
G1 X138.801 Y104.323 E51.72181
G1 X139.333 Y104.663 E51.75121
G1 X139.913 Y105.16 E51.78678
G1 X140.03 Y105.277 E51.79448
G1 X140.447 Y105.752 E51.82391
G1 X140.802 Y106.275 E51.85335
G1 X141.088 Y106.839 E51.88279
G1 X141.3 Y107.434 E51.91221
G1 X141.436 Y108.052 E51.94167
G1 X141.494 Y108.813 E51.97721
G1 X141.494 Y126.187 E52.78621
G1 X141.454 Y126.818 E52.81566
G1 X141.335 Y127.439 E52.8451
G1 X141.138 Y128.039 E52.8745
G1 X140.867 Y128.611 E52.90398
G1 X140.527 Y129.143 E52.93338
G1 X140.03 Y129.723 E52.96894
G1 X139.913 Y129.84 E52.97665
G1 X139.438 Y130.257 E53.00608
G1 X138.915 Y130.612 E53.03551
G1 X138.351 Y130.898 E53.06496
G1 X137.756 Y131.11 E53.09437
G1 X137.138 Y131.246 E53.12384
G1 X136.377 Y131.304 E53.15937
G1 X98.623 Y131.304 E54.91736
G1 X97.992 Y131.264 E54.9468
G1 X97.371 Y131.145 E54.97624
G1 X96.771 Y130.948 E55.00565
G1 X96.199 Y130.677 E55.03512
G1 X95.667 Y130.337 E55.06452
G1 X95.087 Y129.84 E55.10009
G1 X94.97 Y129.723 E55.10779
G1 X94.553 Y129.248 E55.13722
