;FLAVOR:Marlin
;TIME:2719
;Filament used: 2.15998m
;Layer height: 0.28
;MINX:90.707
;MINY:100.896
;MINZ:0.28
;MAXX:144.293
;MAXY:134.104
;MAXZ:20.72
;Generated with Cura_SteamEngine 4.5.0
M140 S50
M105
M190 S50
M104 S200
M105
M109 S200
M82 ;absolute extrusion mode
; Ender 3 Custom Start G-code
G92 E0 ; Reset Extruder
G28 ; Home all axes
G1 Z2.0 F3000 ; Move Z Axis up little to prevent scratching of Heat Bed
G1 X0.1 Y20 Z0.3 F5000.0 ; Move to start position
G1 X0.1 Y200.0 Z0.3 F1500.0 E15 ; Draw the first line
G1 X0.4 Y200.0 Z0.3 F5000.0 ; Move to side a little
G1 X0.4 Y20 Z0.3 F1500.0 E30 ; Draw the second line
G92 E0 ; Reset Extruder
G1 Z2.0 F3000 ; Move Z Axis up little to prevent scratching of Heat Bed
G1 X5 Y20 Z0.3 F5000.0 ; Move over to prevent blob squish
G92 E0
G92 E0
G1 F2700 E-5
;LAYER_COUNT:74
;LAYER:0
M107
G0 F6000 X93.109 Y103.181 Z0.28
;TYPE:SKIRT
G1 F2700 E0
G1 F1200 X93.695 Y102.651 E0.03679
G1 X94.331 Y102.184 E0.07353
G1 X95.011 Y101.783 E0.11029
G1 X95.729 Y101.453 E0.14709
G1 X96.476 Y101.198 E0.18384
G1 X97.245 Y101.019 E0.22061
G1 X98.029 Y100.919 E0.25741
G1 X98.624 Y100.896 E0.28513
G1 X136.376 Y100.896 E2.04303
G1 X137.165 Y100.936 E2.07981
G1 X137.945 Y101.055 E2.11655
G1 X138.71 Y101.253 E2.15335
G1 X139.45 Y101.527 E2.19009
G1 X140.159 Y101.875 E2.22687
G1 X140.83 Y102.293 E2.26368
G1 X141.454 Y102.776 E2.30042
G1 X141.891 Y103.181 E2.32817
G1 X142.008 Y103.298 E2.33587
G1 X142.538 Y103.884 E2.37266
G1 X143.005 Y104.52 E2.4094
G1 X143.406 Y105.2 E2.44616
G1 X143.736 Y105.918 E2.48296
G1 X143.991 Y106.665 E2.51971
G1 X144.17 Y107.434 E2.55648
G1 X144.27 Y108.218 E2.59328
G1 X144.293 Y108.813 E2.62101
G1 X144.293 Y126.187 E3.43001
G1 X144.253 Y126.976 E3.4668
G1 X144.134 Y127.756 E3.50354
G1 X143.936 Y128.521 E3.54033
G1 X143.662 Y129.261 E3.57708
G1 X143.314 Y129.97 E3.61385
G1 X142.896 Y130.641 E3.65067
G1 X142.413 Y131.265 E3.68741
G1 X142.008 Y131.702 E3.71515
G1 X141.891 Y131.819 E3.72286
G1 X141.305 Y132.349 E3.75965
G1 X140.669 Y132.816 E3.79639
G1 X139.989 Y133.217 E3.83315
G1 X139.271 Y133.547 E3.86994
G1 X138.524 Y133.802 E3.9067
G1 X137.755 Y133.981 E3.94346
G1 X136.971 Y134.081 E3.98027
G1 X136.376 Y134.104 E4.00799
G1 X98.624 Y134.104 E5.76588
G1 X97.835 Y134.064 E5.80267
G1 X97.055 Y133.945 E5.83941
G1 X96.29 Y133.747 E5.87621
G1 X95.55 Y133.473 E5.91295
G1 X94.841 Y133.125 E5.94973
G1 X94.17 Y132.707 E5.98654
G1 X93.546 Y132.224 E6.02328
G1 X93.109 Y131.819 E6.05102
G1 X92.992 Y131.702 E6.05873
G1 X92.462 Y131.116 E6.09552
G1 X91.995 Y130.48 E6.13226
G1 X91.594 Y129.8 E6.16902
G1 X91.264 Y129.082 E6.20582
G1 X91.009 Y128.335 E6.24257
G1 X90.83 Y127.566 E6.27933
G1 X90.73 Y126.782 E6.31614
G1 X90.707 Y126.187 E6.34386
G1 X90.707 Y108.813 E7.15287
G1 X90.747 Y108.024 E7.18966
G1 X90.866 Y107.244 E7.2264
G1 X91.064 Y106.479 E7.26319
G1 X91.338 Y105.739 E7.29994
G1 X91.686 Y105.03 E7.33671
G1 X92.104 Y104.359 E7.37352
G1 X92.587 Y103.735 E7.41027
G1 X92.992 Y103.298 E7.43801
G1 X93.109 Y103.181 E7.44571
G0 F6000 X93.391 Y103.463
G1 F1200 X93.963 Y102.949 E7.48152
G1 X94.585 Y102.496 E7.51735
G1 X95.25 Y102.11 E7.55316
G1 X95.952 Y101.795 E7.58898
G1 X96.683 Y101.555 E7.62481
G1 X97.434 Y101.392 E7.66059
G1 X98.199 Y101.308 E7.69643
G1 X98.624 Y101.296 E7.71623
G1 X136.376 Y101.296 E9.47412
G1 X137.144 Y101.336 E9.50993
G1 X137.904 Y101.455 E9.54575
G1 X138.647 Y101.653 E9.58155
G1 X139.366 Y101.927 E9.61738
G1 X140.052 Y102.274 E9.65318
G1 X140.699 Y102.69 E9.689
G1 X141.299 Y103.171 E9.7248
G1 X141.726 Y103.58 E9.75234
G1 X142.24 Y104.152 E9.78814
G1 X142.693 Y104.774 E9.82397
G1 X143.079 Y105.439 E9.85978
G1 X143.394 Y106.141 E9.89561
G1 X143.634 Y106.872 E9.93143
G1 X143.797 Y107.623 E9.96722
G1 X143.881 Y108.388 E10.00305
G1 X143.893 Y108.813 E10.02285
G1 X143.893 Y126.187 E10.83186
G1 X143.853 Y126.955 E10.86767
G1 X143.734 Y127.715 E10.90349
G1 X143.536 Y128.458 E10.93929
G1 X143.262 Y129.177 E10.97512
G1 X142.915 Y129.863 E11.01092
G1 X142.499 Y130.51 E11.04673
G1 X142.018 Y131.11 E11.08254
G1 X141.609 Y131.537 E11.11007
G1 X141.037 Y132.051 E11.14588
G1 X140.415 Y132.504 E11.18171
G1 X139.75 Y132.89 E11.21752
G1 X139.048 Y133.205 E11.25334
G1 X138.317 Y133.445 E11.28917
G1 X137.566 Y133.608 E11.32495
G1 X136.801 Y133.692 E11.36079
G1 X136.376 Y133.704 E11.38059
G1 X98.624 Y133.704 E13.13848
G1 X97.856 Y133.664 E13.17429
G1 X97.096 Y133.545 E13.21011
G1 X96.353 Y133.347 E13.24591
G1 X95.634 Y133.073 E13.28174
G1 X94.948 Y132.726 E13.31754
G1 X94.301 Y132.31 E13.35335
G1 X93.701 Y131.829 E13.38916
G1 X93.274 Y131.42 E13.41669
G1 X92.76 Y130.848 E13.4525
G1 X92.307 Y130.226 E13.48833
G1 X91.921 Y129.561 E13.52414
G1 X91.606 Y128.859 E13.55996
G1 X91.366 Y128.128 E13.59579
G1 X91.203 Y127.377 E13.63157
G1 X91.119 Y126.612 E13.66741
G1 X91.107 Y126.187 E13.68721
G1 X91.107 Y108.813 E14.49621
G1 X91.147 Y108.045 E14.53202
G1 X91.266 Y107.285 E14.56784
G1 X91.464 Y106.542 E14.60365
G1 X91.738 Y105.823 E14.63948
G1 X92.085 Y105.137 E14.67527
G1 X92.501 Y104.49 E14.71109
G1 X92.982 Y103.89 E14.7469
G1 X93.391 Y103.463 E14.77443
G0 F6000 X93.674 Y103.746
G1 F1200 X94.231 Y103.246 E14.80928
G1 X94.837 Y102.809 E14.84407
G1 X95.487 Y102.438 E14.87892
G1 X96.173 Y102.139 E14.91377
G1 X96.887 Y101.915 E14.94861
G1 X97.62 Y101.768 E14.98343
G1 X98.624 Y101.696 E15.0303
G1 X136.376 Y101.696 E16.78819
G1 X137.123 Y101.736 E16.82302
G1 X137.861 Y101.855 E16.85783
G1 X138.583 Y102.053 E16.89269
G1 X139.279 Y102.326 E16.9275
G1 X139.942 Y102.673 E16.96235
G1 X140.565 Y103.088 E16.9972
G1 X141.326 Y103.746 E17.04405
G1 X141.443 Y103.863 E17.05175
G1 X141.943 Y104.42 E17.08661
G1 X142.38 Y105.026 E17.1214
G1 X142.751 Y105.676 E17.15624
G1 X143.05 Y106.362 E17.19109
G1 X143.274 Y107.076 E17.22593
G1 X143.421 Y107.809 E17.26075
G1 X143.493 Y108.813 E17.30762
G1 X143.493 Y126.187 E18.11662
G1 X143.453 Y126.934 E18.15146
G1 X143.334 Y127.672 E18.18626
G1 X143.136 Y128.394 E18.22112
G1 X142.863 Y129.09 E18.25594
G1 X142.516 Y129.753 E18.29078
G1 X142.101 Y130.376 E18.32564
G1 X141.443 Y131.137 E18.37248
G1 X141.326 Y131.254 E18.38019
G1 X140.769 Y131.754 E18.41504
G1 X140.163 Y132.191 E18.44983
G1 X139.513 Y132.562 E18.48468
G1 X138.827 Y132.861 E18.51953
G1 X138.113 Y133.085 E18.55437
G1 X137.38 Y133.232 E18.58918
G1 X136.376 Y133.304 E18.63605
G1 X98.624 Y133.304 E20.39394
G1 X97.877 Y133.264 E20.42878
G1 X97.139 Y133.145 E20.46359
G1 X96.417 Y132.947 E20.49845
G1 X95.721 Y132.674 E20.53326
G1 X95.058 Y132.327 E20.5681
G1 X94.435 Y131.912 E20.60296
G1 X93.674 Y131.254 E20.6498
G1 X93.557 Y131.137 E20.65751
G1 X93.057 Y130.58 E20.69236
G1 X92.62 Y129.974 E20.72715
G1 X92.249 Y129.324 E20.762
G1 X91.95 Y128.638 E20.79685
G1 X91.726 Y127.924 E20.83169
G1 X91.579 Y127.191 E20.8665
G1 X91.507 Y126.187 E20.91337
G1 X91.507 Y108.813 E21.72238
G1 X91.547 Y108.066 E21.75721
G1 X91.666 Y107.328 E21.79202
G1 X91.864 Y106.606 E21.82688
G1 X92.137 Y105.91 E21.86169
G1 X92.484 Y105.247 E21.89654
G1 X92.899 Y104.624 E21.9314
G1 X93.557 Y103.863 E21.97824
G1 X93.674 Y103.746 E21.98594
G0 F6000 X93.957 Y104.029
G1 F1200 X94.498 Y103.545 E22.01975
G1 X95.089 Y103.122 E22.05359
G1 X95.723 Y102.768 E22.0874
G1 X96.392 Y102.485 E22.12122
G1 X97.088 Y102.277 E22.15505
G1 X97.803 Y102.147 E22.18889
G1 X98.624 Y102.096 E22.22719
G1 X136.376 Y102.096 E23.98508
G1 X137.101 Y102.136 E24.01889
G1 X137.818 Y102.255 E24.05274
G1 X138.517 Y102.453 E24.08656
G1 X139.19 Y102.726 E24.12038
G1 X139.829 Y103.071 E24.1542
G1 X140.426 Y103.485 E24.18803
G1 X141.043 Y104.029 E24.22633
G1 X141.16 Y104.146 E24.23403
G1 X141.644 Y104.687 E24.26783
G1 X142.067 Y105.278 E24.30168
G1 X142.421 Y105.912 E24.33549
G1 X142.704 Y106.581 E24.36931
G1 X142.912 Y107.277 E24.40314
G1 X143.042 Y107.992 E24.43698
G1 X143.093 Y108.813 E24.47528
G1 X143.093 Y126.187 E25.28428
G1 X143.053 Y126.912 E25.3181
G1 X142.934 Y127.629 E25.35194
G1 X142.736 Y128.328 E25.38577
G1 X142.463 Y129.001 E25.41959
G1 X142.118 Y129.64 E25.4534
G1 X141.704 Y130.237 E25.48723
G1 X141.16 Y130.854 E25.52553
G1 X141.043 Y130.971 E25.53324
G1 X140.502 Y131.455 E25.56704
G1 X139.911 Y131.878 E25.60088
G1 X139.277 Y132.232 E25.63469
G1 X138.608 Y132.515 E25.66851
G1 X137.912 Y132.723 E25.70234
G1 X137.197 Y132.853 E25.73618
G1 X136.376 Y132.904 E25.77448
G1 X98.624 Y132.904 E27.53237
G1 X97.899 Y132.864 E27.56618
G1 X97.182 Y132.745 E27.60003
G1 X96.483 Y132.547 E27.63386
G1 X95.81 Y132.274 E27.66767
G1 X95.171 Y131.929 E27.70149
G1 X94.574 Y131.515 E27.73532
G1 X93.957 Y130.971 E27.77362
G1 X93.84 Y130.854 E27.78132
G1 X93.356 Y130.313 E27.81512
G1 X92.933 Y129.722 E27.84897
G1 X92.579 Y129.088 E27.88278
G1 X92.296 Y128.419 E27.9166
G1 X92.088 Y127.723 E27.95043
G1 X91.958 Y127.008 E27.98427
G1 X91.907 Y126.187 E28.02257
G1 X91.907 Y108.813 E28.83158
G1 X91.947 Y108.088 E28.86539
G1 X92.066 Y107.371 E28.89923
G1 X92.264 Y106.672 E28.93306
G1 X92.537 Y105.999 E28.96688
G1 X92.882 Y105.36 E29.00069
G1 X93.296 Y104.763 E29.03452
G1 X93.84 Y104.146 E29.07282
G1 X93.957 Y104.029 E29.08053
G0 F6000 X94.24 Y104.312
G1 F1200 X94.765 Y103.843 E29.11331
G1 X95.34 Y103.437 E29.14608
G1 X95.958 Y103.099 E29.17888
G1 X96.609 Y102.832 E29.21165
G1 X97.287 Y102.642 E29.24443
G1 X97.982 Y102.529 E29.27722
G1 X98.624 Y102.496 E29.30715
G1 X136.376 Y102.496 E31.06504
G1 X137.079 Y102.536 E31.09783
G1 X137.773 Y102.655 E31.13062
G1 X138.448 Y102.853 E31.16337
G1 X139.097 Y103.125 E31.19614
G1 X139.711 Y103.47 E31.22894
G1 X140.282 Y103.881 E31.2617
G1 X140.76 Y104.312 E31.29167
G1 X140.877 Y104.429 E31.29937
G1 X141.346 Y104.954 E31.33215
G1 X141.752 Y105.529 E31.36493
G1 X142.09 Y106.147 E31.39773
G1 X142.357 Y106.798 E31.43049
G1 X142.547 Y107.476 E31.46328
G1 X142.66 Y108.171 E31.49606
G1 X142.693 Y108.813 E31.526
G1 X142.693 Y126.187 E32.335
G1 X142.653 Y126.89 E32.36779
G1 X142.534 Y127.584 E32.40058
G1 X142.336 Y128.259 E32.43333
G1 X142.064 Y128.908 E32.4661
G1 X141.719 Y129.522 E32.49889
G1 X141.308 Y130.093 E32.53165
G1 X140.877 Y130.571 E32.56162
G1 X140.76 Y130.688 E32.56933
G1 X140.235 Y131.157 E32.60211
G1 X139.66 Y131.563 E32.63488
G1 X139.042 Y131.901 E32.66768
G1 X138.391 Y132.168 E32.70045
G1 X137.713 Y132.358 E32.73323
G1 X137.018 Y132.471 E32.76602
G1 X136.376 Y132.504 E32.79596
G1 X98.624 Y132.504 E34.55385
G1 X97.921 Y132.464 E34.58663
G1 X97.227 Y132.345 E34.61942
G1 X96.552 Y132.147 E34.65218
G1 X95.903 Y131.875 E34.68494
G1 X95.289 Y131.53 E34.71774
G1 X94.718 Y131.119 E34.7505
G1 X94.24 Y130.688 E34.78047
G1 X94.123 Y130.571 E34.78817
G1 X93.654 Y130.046 E34.82095
G1 X93.248 Y129.471 E34.85373
G1 X92.91 Y128.853 E34.88653
G1 X92.643 Y128.202 E34.91929
G1 X92.453 Y127.524 E34.95208
G1 X92.34 Y126.829 E34.98487
G1 X92.307 Y126.187 E35.0148
G1 X92.307 Y108.813 E35.82381
G1 X92.347 Y108.11 E35.85659
G1 X92.466 Y107.416 E35.88938
G1 X92.664 Y106.741 E35.92214
G1 X92.936 Y106.092 E35.9549
G1 X93.281 Y105.478 E35.9877
G1 X93.692 Y104.907 E36.02046
G1 X94.123 Y104.429 E36.05043
G1 X94.24 Y104.312 E36.05813
G0 F6000 X94.523 Y104.595
G1 F1200 X95.032 Y104.142 E36.08986
G1 X95.59 Y103.753 E36.12153
G1 X96.19 Y103.431 E36.15324
G1 X96.824 Y103.182 E36.18496
G1 X97.483 Y103.009 E36.21668
G1 X98.157 Y102.915 E36.24837
G1 X98.624 Y102.896 E36.27013
G1 X136.376 Y102.896 E38.02802
G1 X137.056 Y102.936 E38.05974
G1 X137.726 Y103.055 E38.09143
G1 X138.378 Y103.252 E38.12314
G1 X139.002 Y103.524 E38.15484
G1 X139.59 Y103.868 E38.18656
G1 X140.134 Y104.278 E38.21828
G1 X140.477 Y104.595 E38.24003
G1 X140.594 Y104.712 E38.24773
G1 X141.047 Y105.221 E38.27946
G1 X141.436 Y105.779 E38.31114
G1 X141.758 Y106.379 E38.34284
G1 X142.007 Y107.013 E38.37456
G1 X142.18 Y107.672 E38.40629
G1 X142.274 Y108.346 E38.43797
G1 X142.293 Y108.813 E38.45974
G1 X142.293 Y126.187 E39.26874
G1 X142.253 Y126.867 E39.30046
G1 X142.134 Y127.537 E39.33215
G1 X141.937 Y128.189 E39.36386
G1 X141.665 Y128.813 E39.39556
G1 X141.321 Y129.401 E39.42728
G1 X140.911 Y129.945 E39.459
G1 X140.594 Y130.288 E39.48075
G1 X140.477 Y130.405 E39.48845
G1 X139.968 Y130.858 E39.52018
G1 X139.41 Y131.247 E39.55186
G1 X138.81 Y131.569 E39.58356
G1 X138.176 Y131.818 E39.61528
G1 X137.517 Y131.991 E39.64701
G1 X136.843 Y132.085 E39.67869
G1 X136.376 Y132.104 E39.70046
G1 X98.624 Y132.104 E41.45835
G1 X97.944 Y132.064 E41.49007
G1 X97.274 Y131.945 E41.52175
G1 X96.622 Y131.748 E41.55347
G1 X95.998 Y131.476 E41.58517
G1 X95.41 Y131.132 E41.61689
G1 X94.866 Y130.722 E41.64861
G1 X94.523 Y130.405 E41.67035
G1 X94.406 Y130.288 E41.67806
G1 X93.953 Y129.779 E41.70979
G1 X93.564 Y129.221 E41.74146
G1 X93.242 Y128.621 E41.77317
G1 X92.993 Y127.987 E41.80488
G1 X92.82 Y127.328 E41.83661
G1 X92.726 Y126.654 E41.8683
G1 X92.707 Y126.187 E41.89006
G1 X92.707 Y108.813 E42.69907
G1 X92.747 Y108.133 E42.73079
G1 X92.866 Y107.463 E42.76247
G1 X93.063 Y106.811 E42.79419
G1 X93.335 Y106.187 E42.82588
G1 X93.679 Y105.599 E42.85761
G1 X94.089 Y105.055 E42.88933
G1 X94.406 Y104.712 E42.91107
G1 X94.523 Y104.595 E42.91878
G0 F6000 X94.806 Y104.878
G1 F1200 X95.298 Y104.442 E42.94939
G1 X95.839 Y104.07 E42.97996
G1 X96.421 Y103.766 E43.01054
G1 X97.036 Y103.535 E43.04113
G1 X97.675 Y103.38 E43.07174
G1 X98.624 Y103.296 E43.11611
G1 X136.376 Y103.296 E44.874
G1 X137.032 Y103.336 E44.9046
G1 X137.678 Y103.455 E44.93519
G1 X138.305 Y103.652 E44.96579
G1 X138.903 Y103.924 E44.99638
G1 X139.464 Y104.266 E45.02697
G1 X140.194 Y104.878 E45.07133
G1 X140.311 Y104.995 E45.07903
G1 X140.747 Y105.487 E45.10965
G1 X141.119 Y106.028 E45.14022
G1 X141.423 Y106.61 E45.17079
G1 X141.654 Y107.225 E45.20138
G1 X141.809 Y107.864 E45.232
G1 X141.893 Y108.813 E45.27636
G1 X141.893 Y126.187 E46.08537
G1 X141.853 Y126.843 E46.11597
G1 X141.734 Y127.489 E46.14656
G1 X141.537 Y128.116 E46.17716
G1 X141.265 Y128.714 E46.20775
G1 X140.923 Y129.275 E46.23835
G1 X140.311 Y130.005 E46.2827
G1 X140.194 Y130.122 E46.29041
G1 X139.702 Y130.558 E46.32102
G1 X139.161 Y130.93 E46.35159
G1 X138.579 Y131.234 E46.38216
G1 X137.964 Y131.465 E46.41275
G1 X137.325 Y131.62 E46.44337
G1 X136.376 Y131.704 E46.48773
G1 X98.624 Y131.704 E48.24563
G1 X97.968 Y131.664 E48.27623
G1 X97.322 Y131.545 E48.30681
G1 X96.695 Y131.348 E48.33742
G1 X96.097 Y131.076 E48.36801
G1 X95.536 Y130.734 E48.3986
G1 X94.806 Y130.122 E48.44296
G1 X94.689 Y130.005 E48.45066
G1 X94.253 Y129.513 E48.48127
G1 X93.881 Y128.972 E48.51185
G1 X93.577 Y128.39 E48.54242
G1 X93.346 Y127.775 E48.57301
G1 X93.191 Y127.136 E48.60363
G1 X93.107 Y126.187 E48.64799
G1 X93.107 Y108.813 E49.457
G1 X93.147 Y108.157 E49.4876
G1 X93.266 Y107.511 E49.51819
G1 X93.463 Y106.884 E49.54879
G1 X93.735 Y106.286 E49.57938
G1 X94.077 Y105.725 E49.60997
G1 X94.689 Y104.995 E49.65433
G1 X94.806 Y104.878 E49.66204
G0 F6000 X95.088 Y105.16
G1 F1200 X95.563 Y104.743 E49.69147
G1 X96.086 Y104.388 E49.7209
G1 X96.65 Y104.102 E49.75035
G1 X97.245 Y103.89 E49.77976
G1 X97.863 Y103.754 E49.80922
G1 X98.624 Y103.696 E49.84476
G1 X136.376 Y103.696 E51.60265
G1 X137.007 Y103.736 E51.63209
G1 X137.628 Y103.855 E51.66154
G1 X138.228 Y104.052 E51.69094
G1 X138.8 Y104.323 E51.72042
G1 X139.332 Y104.663 E51.74981
G1 X139.912 Y105.16 E51.78538
G1 X140.029 Y105.277 E51.79309
G1 X140.446 Y105.752 E51.82252
G1 X140.801 Y106.275 E51.85195
G1 X141.087 Y106.839 E51.8814
G1 X141.299 Y107.434 E51.91081
G1 X141.435 Y108.052 E51.94027
G1 X141.493 Y108.813 E51.97581
G1 X141.493 Y126.187 E52.78482
G1 X141.453 Y126.818 E52.81426
G1 X141.334 Y127.439 E52.8437
G1 X141.137 Y128.039 E52.87311
G1 X140.866 Y128.611 E52.90258
G1 X140.526 Y129.143 E52.93198
G1 X140.029 Y129.723 E52.96755
G1 X139.912 Y129.84 E52.97525
G1 X139.437 Y130.257 E53.00468
G1 X138.914 Y130.612 E53.03412
G1 X138.35 Y130.898 E53.06356
G1 X137.755 Y131.11 E53.09297
G1 X137.137 Y131.246 E53.12244
G1 X136.376 Y131.304 E53.15798
G1 X98.624 Y131.304 E54.91587
G1 X97.993 Y131.264 E54.94531
G1 X97.372 Y131.145 E54.97475
G1 X96.772 Y130.948 E55.00416
G1 X96.2 Y130.677 E55.03363
G1 X95.668 Y130.337 E55.06303
G1 X95.088 Y129.84 E55.0986
G1 X94.971 Y129.723 E55.1063
G1 X94.554 Y129.248 E55.13573
