;FLAVOR:Marlin
;TIME:9041
;Filament used: 7.96747m
;Layer height: 0.28
;MINX:63.924
;MINY:82.7
;MINZ:0.28
;MAXX:171.076
;MAXY:152.3
;MAXZ:28
;Generated with Cura_SteamEngine 4.5.0
M140 S50
M105
M190 S50
M104 S200
M105
M109 S200
M82 ;absolute extrusion mode
; Ender 3 Custom Start G-code
G92 E0 ; Reset Extruder
G28 ; Home all axes
G1 Z2.0 F3000 ; Move Z Axis up little to prevent scratching of Heat Bed
G1 X0.1 Y20 Z0.3 F5000.0 ; Move to start position
G1 X0.1 Y200.0 Z0.3 F1500.0 E15 ; Draw the first line
G1 X0.4 Y200.0 Z0.3 F5000.0 ; Move to side a little
G1 X0.4 Y20 Z0.3 F1500.0 E30 ; Draw the second line
G92 E0 ; Reset Extruder
G1 Z2.0 F3000 ; Move Z Axis up little to prevent scratching of Heat Bed
G1 X5 Y20 Z0.3 F5000.0 ; Move over to prevent blob squish
G92 E0
G92 E0
G1 F2700 E-5
;LAYER_COUNT:100
;LAYER:0
M107
G0 F6000 X66.912 Y84.455 Z0.28
;TYPE:SKIRT
G1 F2700 E0
G1 F1200 X67.548 Y83.988 E0.03674
G1 X68.228 Y83.587 E0.0735
G1 X68.946 Y83.257 E0.1103
G1 X69.693 Y83.002 E0.14705
G1 X70.462 Y82.823 E0.18381
G1 X71.246 Y82.723 E0.22062
G1 X71.841 Y82.7 E0.24834
G1 X75.596 Y82.7 E0.42319
G1 X76.385 Y82.74 E0.45998
G1 X77.165 Y82.859 E0.49672
G1 X77.93 Y83.057 E0.53351
G1 X78.67 Y83.331 E0.57026
G1 X79.379 Y83.679 E0.60703
G1 X80.05 Y84.097 E0.64385
G1 X80.855 Y84.74 E0.69182
G1 X80.97 Y84.845 E0.69907
G1 X81.526 Y85.406 E0.73585
G1 X82.022 Y86.021 E0.77264
G1 X82.453 Y86.682 E0.80938
G1 X82.815 Y87.384 E0.84616
G1 X83.104 Y88.119 E0.88294
G1 X83.318 Y88.879 E0.9197
G1 X83.453 Y89.657 E0.95647
G1 X83.511 Y90.603 E1.0006
G1 X83.522 Y132.7 E2.96081
G1 X105.272 Y132.7 E3.97359
G1 X105.272 Y90.617 E5.93315
G1 X105.312 Y89.828 E5.96993
G1 X105.431 Y89.048 E6.00667
G1 X105.629 Y88.283 E6.04347
G1 X105.903 Y87.543 E6.08021
G1 X106.251 Y86.834 E6.11699
G1 X106.669 Y86.163 E6.1538
G1 X107.152 Y85.539 E6.19054
G1 X107.557 Y85.102 E6.21829
G1 X107.674 Y84.985 E6.22599
G1 X108.26 Y84.455 E6.26278
G1 X108.896 Y83.988 E6.29952
G1 X109.576 Y83.587 E6.33628
G1 X110.294 Y83.257 E6.37308
G1 X111.041 Y83.002 E6.40983
G1 X111.81 Y82.823 E6.4466
G1 X112.594 Y82.723 E6.4834
G1 X113.189 Y82.7 E6.51113
G1 X116.934 Y82.7 E6.68551
G1 X117.723 Y82.74 E6.7223
G1 X118.503 Y82.859 E6.75904
G1 X119.268 Y83.057 E6.79583
G1 X120.008 Y83.331 E6.83258
G1 X120.717 Y83.679 E6.86935
G1 X121.388 Y84.097 E6.90616
G1 X122.012 Y84.58 E6.94291
G1 X122.449 Y84.985 E6.97065
G1 X122.566 Y85.102 E6.97835
G1 X123.096 Y85.688 E7.01515
G1 X123.563 Y86.324 E7.05189
G1 X123.964 Y87.004 E7.08865
G1 X124.294 Y87.722 E7.12544
G1 X124.549 Y88.469 E7.1622
G1 X124.728 Y89.238 E7.19896
G1 X124.828 Y90.022 E7.23576
G1 X124.851 Y90.609 E7.26312
G1 X124.864 Y102.7 E7.82613
G1 X163.159 Y102.7 E9.6093
G1 X163.948 Y102.74 E9.64609
G1 X164.728 Y102.859 E9.68283
G1 X165.493 Y103.057 E9.71962
G1 X166.233 Y103.331 E9.75637
G1 X166.942 Y103.679 E9.79314
G1 X167.613 Y104.097 E9.82995
G1 X168.237 Y104.58 E9.8667
G1 X168.674 Y104.985 E9.89444
G1 X168.791 Y105.102 E9.90215
G1 X169.321 Y105.688 E9.93894
G1 X169.788 Y106.324 E9.97568
G1 X170.189 Y107.004 E10.01244
G1 X170.519 Y107.722 E10.04923
G1 X170.774 Y108.469 E10.08599
G1 X170.953 Y109.238 E10.12275
G1 X171.053 Y110.022 E10.15955
G1 X171.076 Y110.617 E10.18728
G1 X171.076 Y127.383 E10.96798
G1 X171.036 Y128.172 E11.00476
G1 X170.917 Y128.952 E11.0415
G1 X170.719 Y129.717 E11.0783
G1 X170.445 Y130.457 E11.11504
G1 X170.097 Y131.166 E11.15182
G1 X169.679 Y131.837 E11.18863
G1 X169.196 Y132.461 E11.22537
G1 X168.791 Y132.898 E11.25312
G1 X168.674 Y133.015 E11.26082
G1 X168.088 Y133.545 E11.29761
G1 X167.452 Y134.012 E11.33435
G1 X166.772 Y134.413 E11.37111
G1 X166.054 Y134.743 E11.40791
G1 X165.307 Y134.998 E11.44466
G1 X164.538 Y135.177 E11.48143
G1 X163.754 Y135.277 E11.51823
G1 X163.159 Y135.3 E11.54596
G1 X124.872 Y135.3 E13.32876
G1 X124.872 Y144.383 E13.7517
G1 X124.832 Y145.172 E13.78849
G1 X124.713 Y145.952 E13.82523
G1 X124.515 Y146.717 E13.86202
G1 X124.241 Y147.457 E13.89877
G1 X123.893 Y148.166 E13.93554
G1 X123.475 Y148.837 E13.97235
G1 X122.992 Y149.461 E14.0091
G1 X122.587 Y149.898 E14.03684
G1 X122.47 Y150.015 E14.04455
G1 X121.884 Y150.545 E14.08134
G1 X121.248 Y151.012 E14.11808
G1 X120.568 Y151.413 E14.15484
G1 X119.85 Y151.743 E14.19163
G1 X119.103 Y151.998 E14.22839
G1 X118.334 Y152.177 E14.26515
G1 X117.55 Y152.277 E14.30195
G1 X116.955 Y152.3 E14.32968
G1 X71.841 Y152.3 E16.43038
G1 X71.052 Y152.26 E16.46716
G1 X70.272 Y152.141 E16.5039
G1 X69.507 Y151.943 E16.5407
G1 X68.767 Y151.669 E16.57744
G1 X68.058 Y151.321 E16.61422
G1 X67.387 Y150.903 E16.65103
G1 X66.763 Y150.42 E16.68777
G1 X66.326 Y150.015 E16.71552
G1 X66.209 Y149.898 E16.72322
G1 X65.679 Y149.312 E16.76001
G1 X65.212 Y148.676 E16.79676
G1 X64.811 Y147.996 E16.83351
G1 X64.481 Y147.278 E16.87031
G1 X64.226 Y146.531 E16.90706
G1 X64.047 Y145.762 E16.94383
G1 X63.947 Y144.978 E16.98063
G1 X63.924 Y144.383 E17.00836
G1 X63.924 Y90.617 E19.51193
G1 X63.964 Y89.828 E19.54871
G1 X64.083 Y89.048 E19.58545
G1 X64.281 Y88.283 E19.62225
G1 X64.555 Y87.543 E19.65899
G1 X64.903 Y86.834 E19.69577
G1 X65.321 Y86.163 E19.73258
G1 X65.804 Y85.539 E19.76932
G1 X66.209 Y85.102 E19.79707
G1 X66.326 Y84.985 E19.80477
G1 X66.912 Y84.455 E19.84156
G0 F6000 X67.18 Y84.753
G1 F1200 X67.802 Y84.3 E19.87739
G1 X68.467 Y83.914 E19.9132
G1 X69.169 Y83.599 E19.94903
G1 X69.9 Y83.359 E19.98485
G1 X70.651 Y83.196 E20.02064
G1 X71.416 Y83.112 E20.05647
G1 X71.841 Y83.1 E20.07627
G1 X75.596 Y83.1 E20.25112
G1 X76.364 Y83.14 E20.28693
G1 X77.124 Y83.259 E20.32275
G1 X77.867 Y83.457 E20.35855
G1 X78.586 Y83.731 E20.39438
G1 X79.272 Y84.078 E20.43018
G1 X79.919 Y84.494 E20.46599
G1 X80.586 Y85.035 E20.50599
G1 X80.701 Y85.14 E20.51324
G1 X81.241 Y85.688 E20.54906
G1 X81.721 Y86.288 E20.58484
G1 X82.137 Y86.935 E20.62066
G1 X82.483 Y87.622 E20.65647
G1 X82.756 Y88.341 E20.69229
G1 X82.953 Y89.085 E20.72812
G1 X83.072 Y89.845 E20.76394
G1 X83.111 Y90.603 E20.79929
G1 X83.122 Y133.1 E22.77812
G1 X105.672 Y133.1 E23.82815
G1 X105.672 Y90.617 E25.80633
G1 X105.712 Y89.849 E25.84214
G1 X105.831 Y89.089 E25.87796
G1 X106.029 Y88.346 E25.91377
G1 X106.303 Y87.627 E25.9496
G1 X106.65 Y86.941 E25.98539
G1 X107.066 Y86.294 E26.02121
G1 X107.547 Y85.694 E26.05702
G1 X107.956 Y85.267 E26.08455
G1 X108.528 Y84.753 E26.12036
G1 X109.15 Y84.3 E26.15619
G1 X109.815 Y83.914 E26.19199
G1 X110.517 Y83.599 E26.22782
G1 X111.248 Y83.359 E26.26365
G1 X111.999 Y83.196 E26.29943
G1 X112.764 Y83.112 E26.33527
G1 X113.189 Y83.1 E26.35506
G1 X116.934 Y83.1 E26.52945
G1 X117.702 Y83.14 E26.56526
G1 X118.462 Y83.259 E26.60108
G1 X119.205 Y83.457 E26.63688
G1 X119.924 Y83.731 E26.67271
G1 X120.61 Y84.078 E26.70851
G1 X121.257 Y84.494 E26.74432
G1 X121.857 Y84.975 E26.78013
G1 X122.284 Y85.384 E26.80766
G1 X122.798 Y85.956 E26.84347
G1 X123.251 Y86.578 E26.8793
G1 X123.637 Y87.243 E26.91511
G1 X123.952 Y87.945 E26.95093
G1 X124.192 Y88.676 E26.98676
G1 X124.355 Y89.427 E27.02254
G1 X124.439 Y90.192 E27.05838
G1 X124.451 Y90.609 E27.0778
G1 X124.464 Y103.1 E27.65944
G1 X163.159 Y103.1 E29.46124
G1 X163.927 Y103.14 E29.49705
G1 X164.687 Y103.259 E29.53287
G1 X165.43 Y103.457 E29.56867
G1 X166.149 Y103.731 E29.6045
G1 X166.835 Y104.078 E29.6403
G1 X167.482 Y104.494 E29.67612
G1 X168.082 Y104.975 E29.71192
G1 X168.509 Y105.384 E29.73946
G1 X169.023 Y105.956 E29.77527
G1 X169.476 Y106.578 E29.8111
G1 X169.862 Y107.243 E29.8469
G1 X170.177 Y107.945 E29.88273
G1 X170.417 Y108.676 E29.91855
G1 X170.58 Y109.427 E29.95434
G1 X170.664 Y110.192 E29.99017
G1 X170.676 Y110.617 E30.00997
G1 X170.676 Y127.383 E30.79067
G1 X170.636 Y128.151 E30.82648
G1 X170.517 Y128.911 E30.8623
G1 X170.319 Y129.654 E30.8981
G1 X170.045 Y130.373 E30.93393
G1 X169.698 Y131.059 E30.96973
G1 X169.282 Y131.706 E31.00554
G1 X168.801 Y132.306 E31.04135
G1 X168.392 Y132.733 E31.06888
G1 X167.82 Y133.247 E31.10469
G1 X167.198 Y133.7 E31.14052
G1 X166.533 Y134.086 E31.17632
G1 X165.831 Y134.401 E31.21215
G1 X165.1 Y134.641 E31.24798
G1 X164.349 Y134.804 E31.28376
G1 X163.584 Y134.888 E31.3196
G1 X163.159 Y134.9 E31.3394
G1 X124.472 Y134.9 E33.14082
G1 X124.472 Y144.383 E33.58239
G1 X124.432 Y145.151 E33.6182
G1 X124.313 Y145.911 E33.65402
G1 X124.115 Y146.654 E33.68983
G1 X123.841 Y147.373 E33.72566
G1 X123.494 Y148.059 E33.76145
G1 X123.078 Y148.706 E33.79727
G1 X122.597 Y149.306 E33.83308
G1 X122.188 Y149.733 E33.86061
G1 X121.616 Y150.247 E33.89642
G1 X120.994 Y150.7 E33.93225
G1 X120.329 Y151.086 E33.96805
G1 X119.627 Y151.401 E34.00388
G1 X118.896 Y151.641 E34.03971
G1 X118.145 Y151.804 E34.07549
G1 X117.38 Y151.888 E34.11133
G1 X116.955 Y151.9 E34.13112
G1 X71.841 Y151.9 E36.23182
G1 X71.073 Y151.86 E36.26763
G1 X70.313 Y151.741 E36.30345
G1 X69.57 Y151.543 E36.33925
G1 X68.851 Y151.269 E36.37508
G1 X68.165 Y150.922 E36.41088
G1 X67.518 Y150.506 E36.4467
G1 X66.918 Y150.025 E36.4825
G1 X66.491 Y149.616 E36.51004
G1 X65.977 Y149.044 E36.54585
G1 X65.524 Y148.422 E36.58168
G1 X65.138 Y147.757 E36.61748
G1 X64.823 Y147.055 E36.65331
G1 X64.583 Y146.324 E36.68913
G1 X64.42 Y145.573 E36.72492
G1 X64.336 Y144.808 E36.76075
G1 X64.324 Y144.383 E36.78055
G1 X64.324 Y90.617 E39.28412
G1 X64.364 Y89.849 E39.31993
G1 X64.483 Y89.089 E39.35575
G1 X64.681 Y88.346 E39.39156
G1 X64.955 Y87.627 E39.42738
G1 X65.302 Y86.941 E39.46318
G1 X65.718 Y86.294 E39.499
G1 X66.199 Y85.694 E39.53481
G1 X66.608 Y85.267 E39.56234
G1 X67.18 Y84.753 E39.59815
G0 F6000 X67.448 Y85.05
G1 F1200 X68.054 Y84.613 E39.63294
G1 X68.704 Y84.242 E39.66779
G1 X69.39 Y83.943 E39.70263
G1 X70.104 Y83.719 E39.73748
G1 X70.837 Y83.572 E39.77229
G1 X71.841 Y83.5 E39.81916
G1 X75.596 Y83.5 E39.99401
G1 X76.343 Y83.54 E40.02884
G1 X77.081 Y83.659 E40.06365
G1 X77.803 Y83.857 E40.09851
G1 X78.499 Y84.13 E40.13332
G1 X79.162 Y84.477 E40.16817
G1 X79.785 Y84.892 E40.20302
G1 X80.316 Y85.331 E40.2351
G1 X80.431 Y85.436 E40.24235
G1 X80.956 Y85.969 E40.27719
G1 X81.42 Y86.555 E40.312
G1 X81.82 Y87.187 E40.34682
G1 X82.15 Y87.859 E40.38168
G1 X82.406 Y88.562 E40.41652
G1 X82.586 Y89.288 E40.45135
G1 X82.687 Y90.029 E40.48617
G1 X82.711 Y90.603 E40.51292
G1 X82.722 Y133.5 E42.51039
G1 X106.072 Y133.5 E43.59766
G1 X106.072 Y90.617 E45.59447
G1 X106.112 Y89.87 E45.62931
G1 X106.231 Y89.132 E45.66412
G1 X106.429 Y88.41 E45.69898
G1 X106.702 Y87.714 E45.73379
G1 X107.049 Y87.051 E45.76863
G1 X107.464 Y86.428 E45.80349
G1 X108.122 Y85.667 E45.85034
G1 X108.239 Y85.55 E45.85804
G1 X108.796 Y85.05 E45.89289
G1 X109.402 Y84.613 E45.92768
G1 X110.052 Y84.242 E45.96253
G1 X110.738 Y83.943 E45.99738
G1 X111.452 Y83.719 E46.03222
G1 X112.185 Y83.572 E46.06703
G1 X113.189 Y83.5 E46.1139
G1 X116.934 Y83.5 E46.28829
G1 X117.681 Y83.54 E46.32312
G1 X118.419 Y83.659 E46.35793
G1 X119.141 Y83.857 E46.39279
G1 X119.837 Y84.13 E46.4276
G1 X120.5 Y84.477 E46.46245
G1 X121.123 Y84.892 E46.4973
G1 X121.884 Y85.55 E46.54415
G1 X122.001 Y85.667 E46.55185
G1 X122.501 Y86.224 E46.58671
G1 X122.938 Y86.83 E46.6215
G1 X123.309 Y87.48 E46.65635
G1 X123.608 Y88.166 E46.69119
G1 X123.832 Y88.88 E46.72603
G1 X123.979 Y89.613 E46.76085
G1 X124.051 Y90.61 E46.80739
G1 X124.065 Y103.5 E47.4076
G1 X163.159 Y103.5 E49.22798
G1 X163.906 Y103.54 E49.26282
G1 X164.644 Y103.659 E49.29763
G1 X165.366 Y103.857 E49.33249
G1 X166.062 Y104.13 E49.3673
G1 X166.725 Y104.477 E49.40214
G1 X167.348 Y104.892 E49.437
G1 X168.109 Y105.55 E49.48385
G1 X168.226 Y105.667 E49.49155
G1 X168.726 Y106.224 E49.5264
G1 X169.163 Y106.83 E49.56119
G1 X169.534 Y107.48 E49.59604
G1 X169.833 Y108.166 E49.63089
G1 X170.057 Y108.88 E49.66573
G1 X170.204 Y109.613 E49.70054
G1 X170.276 Y110.617 E49.74741
G1 X170.276 Y127.383 E50.52811
G1 X170.236 Y128.13 E50.56294
G1 X170.117 Y128.868 E50.59775
G1 X169.919 Y129.59 E50.63261
G1 X169.646 Y130.286 E50.66742
G1 X169.299 Y130.949 E50.70227
G1 X168.884 Y131.572 E50.73713
G1 X168.226 Y132.333 E50.78397
G1 X168.109 Y132.45 E50.79167
G1 X167.552 Y132.95 E50.82653
G1 X166.946 Y133.387 E50.86132
G1 X166.296 Y133.758 E50.89617
G1 X165.61 Y134.057 E50.93101
G1 X164.896 Y134.281 E50.96586
G1 X164.163 Y134.428 E51.00067
G1 X163.159 Y134.5 E51.04754
G1 X124.072 Y134.5 E52.86759
G1 X124.072 Y144.383 E53.32779
G1 X124.032 Y145.13 E53.36262
G1 X123.913 Y145.868 E53.39743
G1 X123.715 Y146.59 E53.43229
G1 X123.442 Y147.286 E53.4671
G1 X123.095 Y147.949 E53.50195
G1 X122.68 Y148.572 E53.5368
G1 X122.022 Y149.333 E53.58365
G1 X121.905 Y149.45 E53.59135
G1 X121.348 Y149.95 E53.62621
G1 X120.742 Y150.387 E53.661
G1 X120.092 Y150.758 E53.69585
G1 X119.406 Y151.057 E53.73069
G1 X118.692 Y151.281 E53.76554
G1 X117.959 Y151.428 E53.80035
G1 X116.955 Y151.5 E53.84722
G1 X71.841 Y151.5 E55.94791
G1 X71.094 Y151.46 E55.98275
G1 X70.356 Y151.341 E56.01756
G1 X69.634 Y151.143 E56.05242
G1 X68.938 Y150.87 E56.08723
G1 X68.275 Y150.523 E56.12207
G1 X67.652 Y150.108 E56.15693
G1 X66.891 Y149.45 E56.20377
G1 X66.774 Y149.333 E56.21148
G1 X66.274 Y148.776 E56.24633
G1 X65.837 Y148.17 E56.28112
G1 X65.466 Y147.52 E56.31597
G1 X65.167 Y146.834 E56.35082
G1 X64.943 Y146.12 E56.38566
G1 X64.796 Y145.387 E56.42047
G1 X64.724 Y144.383 E56.46734
G1 X64.724 Y90.617 E58.97091
G1 X64.764 Y89.87 E59.00575
G1 X64.883 Y89.132 E59.04055
G1 X65.081 Y88.41 E59.07542
G1 X65.354 Y87.714 E59.11023
G1 X65.701 Y87.051 E59.14507
G1 X66.116 Y86.428 E59.17993
G1 X66.774 Y85.667 E59.22677
G1 X66.891 Y85.55 E59.23448
G1 X67.448 Y85.05 E59.26933
G0 F6000 X67.715 Y85.349
G1 F1200 X68.306 Y84.926 E59.30317
G1 X68.94 Y84.572 E59.33699
G1 X69.609 Y84.289 E59.37081
G1 X70.305 Y84.081 E59.40463
G1 X71.02 Y83.951 E59.43847
G1 X71.841 Y83.9 E59.47678
G1 X75.596 Y83.9 E59.65163
G1 X76.321 Y83.94 E59.68544
G1 X77.038 Y84.059 E59.71928
G1 X77.737 Y84.257 E59.75311
G1 X78.41 Y84.53 E59.78693
G1 X79.049 Y84.875 E59.82074
G1 X79.646 Y85.289 E59.85457
G1 X80.046 Y85.626 E59.87892
G1 X80.161 Y85.731 E59.88617
G1 X80.67 Y86.25 E59.92002
G1 X81.118 Y86.821 E59.95382
G1 X81.501 Y87.438 E59.98763
G1 X81.814 Y88.093 E60.02144
G1 X82.053 Y88.779 E60.05526
G1 X82.216 Y89.487 E60.08909
G1 X82.299 Y90.209 E60.12293
G1 X82.311 Y90.603 E60.14129
G1 X82.322 Y133.9 E62.15738
G1 X106.472 Y133.9 E63.2819
G1 X106.472 Y90.617 E65.29734
G1 X106.512 Y89.892 E65.33115
G1 X106.631 Y89.175 E65.365
G1 X106.829 Y88.476 E65.39882
G1 X107.102 Y87.803 E65.43264
G1 X107.447 Y87.164 E65.46646
G1 X107.861 Y86.567 E65.50029
G1 X108.405 Y85.95 E65.53859
G1 X108.522 Y85.833 E65.54629
G1 X109.063 Y85.349 E65.58009
G1 X109.654 Y84.926 E65.61394
G1 X110.288 Y84.572 E65.64775
G1 X110.957 Y84.289 E65.68157
G1 X111.653 Y84.081 E65.7154
G1 X112.368 Y83.951 E65.74924
G1 X113.189 Y83.9 E65.78754
G1 X116.934 Y83.9 E65.96192
G1 X117.659 Y83.94 E65.99573
G1 X118.376 Y84.059 E66.02958
G1 X119.075 Y84.257 E66.0634
G1 X119.748 Y84.53 E66.09722
G1 X120.387 Y84.875 E66.13104
G1 X120.984 Y85.289 E66.16487
G1 X121.601 Y85.833 E66.20317
G1 X121.718 Y85.95 E66.21087
G1 X122.202 Y86.491 E66.24467
G1 X122.625 Y87.082 E66.27852
G1 X122.979 Y87.716 E66.31233
G1 X123.262 Y88.385 E66.34615
G1 X123.47 Y89.081 E66.37998
G1 X123.6 Y89.796 E66.41382
G1 X123.651 Y90.61 E66.45179
G1 X123.665 Y103.9 E67.07063
G1 X163.159 Y103.9 E68.90964
G1 X163.884 Y103.94 E68.94345
G1 X164.601 Y104.059 E68.97729
G1 X165.3 Y104.257 E69.01112
G1 X165.973 Y104.53 E69.04494
G1 X166.612 Y104.875 E69.07875
G1 X167.209 Y105.289 E69.11258
G1 X167.826 Y105.833 E69.15088
G1 X167.943 Y105.95 E69.15859
G1 X168.427 Y106.491 E69.19239
G1 X168.85 Y107.082 E69.22623
G1 X169.204 Y107.716 E69.26004
G1 X169.487 Y108.385 E69.29387
G1 X169.695 Y109.081 E69.32769
G1 X169.825 Y109.796 E69.36153
G1 X169.876 Y110.617 E69.39983
G1 X169.876 Y127.383 E70.18053
G1 X169.836 Y128.108 E70.21434
G1 X169.717 Y128.825 E70.24818
G1 X169.519 Y129.524 E70.28201
G1 X169.246 Y130.197 E70.31583
G1 X168.901 Y130.836 E70.34964
G1 X168.487 Y131.433 E70.38347
G1 X167.943 Y132.05 E70.42178
G1 X167.826 Y132.167 E70.42948
G1 X167.285 Y132.651 E70.46328
G1 X166.694 Y133.074 E70.49712
G1 X166.06 Y133.428 E70.53094
G1 X165.391 Y133.711 E70.56476
G1 X164.695 Y133.919 E70.59858
G1 X163.98 Y134.049 E70.63242
