;FLAVOR:Marlin
;TIME:2686
;Filament used: 1.99814m
;Layer height: 0.28
;MINX:90.566
;MINY:100.896
;MINZ:0.28
;MAXX:144.434
;MAXY:134.104
;MAXZ:20.72
;Generated with Cura_SteamEngine 4.5.0
M140 S50
M105
M190 S50
M104 S200
M105
M109 S200
M82 ;absolute extrusion mode
; Ender 3 Custom Start G-code
G92 E0 ; Reset Extruder
G28 ; Home all axes
G1 Z2.0 F3000 ; Move Z Axis up little to prevent scratching of Heat Bed
G1 X0.1 Y20 Z0.3 F5000.0 ; Move to start position
G1 X0.1 Y200.0 Z0.3 F1500.0 E15 ; Draw the first line
G1 X0.4 Y200.0 Z0.3 F5000.0 ; Move to side a little
G1 X0.4 Y20 Z0.3 F1500.0 E30 ; Draw the second line
G92 E0 ; Reset Extruder
G1 Z2.0 F3000 ; Move Z Axis up little to prevent scratching of Heat Bed
G1 X5 Y20 Z0.3 F5000.0 ; Move over to prevent blob squish
G92 E0
G92 E0
G1 F2700 E-5
;LAYER_COUNT:74
;LAYER:0
M107
G0 F6000 X92.968 Y103.181 Z0.28
;TYPE:SKIRT
G1 F2700 E0
G1 F1200 X93.554 Y102.651 E0.03679
G1 X94.19 Y102.184 E0.07353
G1 X94.87 Y101.783 E0.11029
G1 X95.588 Y101.453 E0.14709
G1 X96.335 Y101.198 E0.18384
G1 X97.104 Y101.019 E0.22061
G1 X97.888 Y100.919 E0.25741
G1 X98.483 Y100.896 E0.28513
G1 X136.517 Y100.896 E2.05616
G1 X137.306 Y100.936 E2.09294
G1 X138.086 Y101.055 E2.12968
G1 X138.851 Y101.253 E2.16648
G1 X139.591 Y101.527 E2.20322
G1 X140.3 Y101.875 E2.24
G1 X140.971 Y102.293 E2.27681
G1 X141.595 Y102.776 E2.31355
G1 X142.032 Y103.181 E2.3413
G1 X142.149 Y103.298 E2.349
G1 X142.679 Y103.884 E2.38579
G1 X143.146 Y104.52 E2.42253
G1 X143.547 Y105.2 E2.45929
G1 X143.877 Y105.918 E2.49609
G1 X144.132 Y106.665 E2.53284
G1 X144.311 Y107.434 E2.56961
G1 X144.411 Y108.218 E2.60641
G1 X144.434 Y108.813 E2.63414
G1 X144.434 Y126.187 E3.44314
G1 X144.394 Y126.976 E3.47993
G1 X144.275 Y127.756 E3.51667
G1 X144.077 Y128.521 E3.55347
G1 X143.803 Y129.261 E3.59021
G1 X143.455 Y129.97 E3.62699
G1 X143.037 Y130.641 E3.6638
G1 X142.554 Y131.265 E3.70054
G1 X142.149 Y131.702 E3.72828
G1 X142.032 Y131.819 E3.73599
G1 X141.446 Y132.349 E3.77278
G1 X140.81 Y132.816 E3.80952
G1 X140.13 Y133.217 E3.84628
G1 X139.412 Y133.547 E3.88308
G1 X138.665 Y133.802 E3.91983
G1 X137.896 Y133.981 E3.95659
G1 X137.112 Y134.081 E3.9934
G1 X136.517 Y134.104 E4.02112
G1 X98.483 Y134.104 E5.79215
G1 X97.694 Y134.064 E5.82893
G1 X96.914 Y133.945 E5.86567
G1 X96.149 Y133.747 E5.90247
G1 X95.409 Y133.473 E5.93921
G1 X94.7 Y133.125 E5.97599
G1 X94.029 Y132.707 E6.0128
G1 X93.405 Y132.224 E6.04954
G1 X92.968 Y131.819 E6.07729
G1 X92.851 Y131.702 E6.08499
G1 X92.321 Y131.116 E6.12178
G1 X91.854 Y130.48 E6.15852
G1 X91.453 Y129.8 E6.19528
G1 X91.123 Y129.082 E6.23208
G1 X90.868 Y128.335 E6.26883
G1 X90.689 Y127.566 E6.3056
G1 X90.589 Y126.782 E6.3424
G1 X90.566 Y126.187 E6.37013
G1 X90.566 Y108.813 E7.17913
G1 X90.606 Y108.024 E7.21592
G1 X90.725 Y107.244 E7.25266
G1 X90.923 Y106.479 E7.28945
G1 X91.197 Y105.739 E7.3262
G1 X91.545 Y105.03 E7.36297
G1 X91.963 Y104.359 E7.39979
G1 X92.446 Y103.735 E7.43653
G1 X92.851 Y103.298 E7.46427
G1 X92.968 Y103.181 E7.47198
G0 F6000 X93.25 Y103.463
G1 F1200 X93.822 Y102.949 E7.50779
G1 X94.444 Y102.496 E7.54362
G1 X95.109 Y102.11 E7.57942
G1 X95.811 Y101.795 E7.61525
G1 X96.542 Y101.555 E7.65107
G1 X97.293 Y101.392 E7.68686
G1 X98.058 Y101.308 E7.72269
G1 X98.483 Y101.296 E7.74249
G1 X136.517 Y101.296 E9.51351
G1 X137.285 Y101.336 E9.54932
G1 X138.045 Y101.455 E9.58514
G1 X138.788 Y101.653 E9.62095
G1 X139.507 Y101.927 E9.65678
G1 X140.193 Y102.274 E9.69257
G1 X140.84 Y102.69 E9.72839
G1 X141.44 Y103.171 E9.7642
G1 X141.867 Y103.58 E9.79173
G1 X142.381 Y104.152 E9.82754
G1 X142.834 Y104.774 E9.86337
G1 X143.22 Y105.439 E9.89917
G1 X143.535 Y106.141 E9.935
G1 X143.775 Y106.872 E9.97083
G1 X143.938 Y107.623 E10.00661
G1 X144.022 Y108.388 E10.04245
G1 X144.034 Y108.813 E10.06224
G1 X144.034 Y126.187 E10.87125
G1 X143.994 Y126.955 E10.90706
G1 X143.875 Y127.715 E10.94288
G1 X143.677 Y128.458 E10.97868
G1 X143.403 Y129.177 E11.01451
G1 X143.056 Y129.863 E11.05031
G1 X142.64 Y130.51 E11.08613
G1 X142.159 Y131.11 E11.12193
G1 X141.75 Y131.537 E11.14947
G1 X141.178 Y132.051 E11.18527
G1 X140.556 Y132.504 E11.2211
G1 X139.891 Y132.89 E11.25691
G1 X139.189 Y133.205 E11.29274
G1 X138.458 Y133.445 E11.32856
G1 X137.707 Y133.608 E11.36435
G1 X136.942 Y133.692 E11.40018
G1 X136.517 Y133.704 E11.41998
G1 X98.483 Y133.704 E13.191
G1 X97.715 Y133.664 E13.22681
G1 X96.955 Y133.545 E13.26263
G1 X96.212 Y133.347 E13.29844
G1 X95.493 Y133.073 E13.33426
G1 X94.807 Y132.726 E13.37006
G1 X94.16 Y132.31 E13.40588
G1 X93.56 Y131.829 E13.44169
G1 X93.133 Y131.42 E13.46922
G1 X92.619 Y130.848 E13.50503
G1 X92.166 Y130.226 E13.54086
G1 X91.78 Y129.561 E13.57666
G1 X91.465 Y128.859 E13.61249
G1 X91.225 Y128.128 E13.64832
G1 X91.062 Y127.377 E13.6841
G1 X90.978 Y126.612 E13.71994
G1 X90.966 Y126.187 E13.73973
G1 X90.966 Y108.813 E14.54874
G1 X91.006 Y108.045 E14.58455
G1 X91.125 Y107.285 E14.62037
G1 X91.323 Y106.542 E14.65617
G1 X91.597 Y105.823 E14.692
G1 X91.944 Y105.137 E14.7278
G1 X92.36 Y104.49 E14.76362
G1 X92.841 Y103.89 E14.79942
G1 X93.25 Y103.463 E14.82696
G0 F6000 X93.533 Y103.746
G1 F1200 X94.09 Y103.246 E14.86181
G1 X94.696 Y102.809 E14.8966
G1 X95.346 Y102.438 E14.93145
G1 X96.032 Y102.139 E14.96629
G1 X96.746 Y101.915 E15.00114
G1 X97.479 Y101.768 E15.03595
G1 X98.483 Y101.696 E15.08282
G1 X136.517 Y101.696 E16.85384
G1 X137.264 Y101.736 E16.88868
G1 X138.002 Y101.855 E16.92348
G1 X138.724 Y102.053 E16.95834
G1 X139.42 Y102.326 E16.99316
G1 X140.083 Y102.673 E17.028
G1 X140.706 Y103.088 E17.06286
G1 X141.467 Y103.746 E17.1097
G1 X141.584 Y103.863 E17.11741
G1 X142.084 Y104.42 E17.15226
G1 X142.521 Y105.026 E17.18705
G1 X142.892 Y105.676 E17.2219
G1 X143.191 Y106.362 E17.25675
G1 X143.415 Y107.076 E17.29159
G1 X143.562 Y107.809 E17.3264
G1 X143.634 Y108.813 E17.37327
G1 X143.634 Y126.187 E18.18228
G1 X143.594 Y126.934 E18.21711
G1 X143.475 Y127.672 E18.25192
G1 X143.277 Y128.394 E18.28678
G1 X143.004 Y129.09 E18.32159
G1 X142.657 Y129.753 E18.35644
G1 X142.242 Y130.376 E18.39129
G1 X141.584 Y131.137 E18.43814
G1 X141.467 Y131.254 E18.44584
G1 X140.91 Y131.754 E18.4807
G1 X140.304 Y132.191 E18.51549
G1 X139.654 Y132.562 E18.55034
G1 X138.968 Y132.861 E18.58518
G1 X138.254 Y133.085 E18.62003
G1 X137.521 Y133.232 E18.65484
G1 X136.517 Y133.304 E18.70171
G1 X98.483 Y133.304 E20.47273
G1 X97.736 Y133.264 E20.50756
G1 X96.998 Y133.145 E20.54237
G1 X96.276 Y132.947 E20.57723
G1 X95.58 Y132.674 E20.61204
G1 X94.917 Y132.327 E20.64689
G1 X94.294 Y131.912 E20.68175
G1 X93.533 Y131.254 E20.72859
G1 X93.416 Y131.137 E20.7363
G1 X92.916 Y130.58 E20.77115
G1 X92.479 Y129.974 E20.80594
G1 X92.108 Y129.324 E20.84079
G1 X91.809 Y128.638 E20.87563
G1 X91.585 Y127.924 E20.91048
G1 X91.438 Y127.191 E20.94529
G1 X91.366 Y126.187 E20.99216
G1 X91.366 Y108.813 E21.80117
G1 X91.406 Y108.066 E21.836
G1 X91.525 Y107.328 E21.87081
G1 X91.723 Y106.606 E21.90567
G1 X91.996 Y105.91 E21.94048
G1 X92.343 Y105.247 E21.97533
G1 X92.758 Y104.624 E22.01018
G1 X93.416 Y103.863 E22.05703
G1 X93.533 Y103.746 E22.06473
G0 F6000 X93.816 Y104.029
G1 F1200 X94.357 Y103.545 E22.09853
G1 X94.948 Y103.122 E22.13237
G1 X95.582 Y102.768 E22.16619
G1 X96.251 Y102.485 E22.20001
G1 X96.947 Y102.277 E22.23384
G1 X97.662 Y102.147 E22.26767
G1 X98.483 Y102.096 E22.30598
G1 X136.517 Y102.096 E24.077
G1 X137.242 Y102.136 E24.11081
G1 X137.959 Y102.255 E24.14465
G1 X138.658 Y102.453 E24.17848
G1 X139.331 Y102.726 E24.2123
G1 X139.97 Y103.071 E24.24611
G1 X140.567 Y103.485 E24.27994
G1 X141.184 Y104.029 E24.31825
G1 X141.301 Y104.146 E24.32595
G1 X141.785 Y104.687 E24.35975
G1 X142.208 Y105.278 E24.39359
G1 X142.562 Y105.912 E24.42741
G1 X142.845 Y106.581 E24.46123
G1 X143.053 Y107.277 E24.49505
G1 X143.183 Y107.992 E24.52889
G1 X143.234 Y108.813 E24.5672
G1 X143.234 Y126.187 E25.3762
G1 X143.194 Y126.912 E25.41001
G1 X143.075 Y127.629 E25.44386
G1 X142.877 Y128.328 E25.47769
G1 X142.604 Y129.001 E25.5115
G1 X142.259 Y129.64 E25.54532
G1 X141.845 Y130.237 E25.57915
G1 X141.301 Y130.854 E25.61745
G1 X141.184 Y130.971 E25.62515
G1 X140.643 Y131.455 E25.65895
G1 X140.052 Y131.878 E25.6928
G1 X139.418 Y132.232 E25.72661
G1 X138.749 Y132.515 E25.76043
G1 X138.053 Y132.723 E25.79426
G1 X137.338 Y132.853 E25.8281
G1 X136.517 Y132.904 E25.8664
G1 X98.483 Y132.904 E27.63742
G1 X97.758 Y132.864 E27.67123
G1 X97.041 Y132.745 E27.70508
G1 X96.342 Y132.547 E27.7389
G1 X95.669 Y132.274 E27.77272
G1 X95.03 Y131.929 E27.80654
G1 X94.433 Y131.515 E27.84037
G1 X93.816 Y130.971 E27.87867
G1 X93.699 Y130.854 E27.88637
G1 X93.215 Y130.313 E27.92017
G1 X92.792 Y129.722 E27.95402
G1 X92.438 Y129.088 E27.98783
G1 X92.155 Y128.419 E28.02165
G1 X91.947 Y127.723 E28.05548
G1 X91.817 Y127.008 E28.08932
G1 X91.766 Y126.187 E28.12762
G1 X91.766 Y108.813 E28.93662
G1 X91.806 Y108.088 E28.97044
G1 X91.925 Y107.371 E29.00428
G1 X92.123 Y106.672 E29.03811
G1 X92.396 Y105.999 E29.07193
G1 X92.741 Y105.36 E29.10574
G1 X93.155 Y104.763 E29.13957
G1 X93.699 Y104.146 E29.17787
G1 X93.816 Y104.029 E29.18558
G0 F6000 X94.099 Y104.312
G1 F1200 X94.624 Y103.843 E29.21836
G1 X95.199 Y103.437 E29.25113
G1 X95.817 Y103.099 E29.28393
G1 X96.468 Y102.832 E29.31669
G1 X97.146 Y102.642 E29.34948
G1 X97.841 Y102.529 E29.38227
G1 X98.483 Y102.496 E29.4122
G1 X136.517 Y102.496 E31.18322
G1 X137.22 Y102.536 E31.21601
G1 X137.914 Y102.655 E31.2488
G1 X138.589 Y102.853 E31.28155
G1 X139.238 Y103.125 E31.31432
G1 X139.852 Y103.47 E31.34712
G1 X140.423 Y103.881 E31.37988
G1 X140.901 Y104.312 E31.40985
G1 X141.018 Y104.429 E31.41755
G1 X141.487 Y104.954 E31.45033
G1 X141.893 Y105.529 E31.48311
G1 X142.231 Y106.147 E31.51591
G1 X142.498 Y106.798 E31.54867
G1 X142.688 Y107.476 E31.58146
G1 X142.801 Y108.171 E31.61424
G1 X142.834 Y108.813 E31.64418
G1 X142.834 Y126.187 E32.45318
G1 X142.794 Y126.89 E32.48597
G1 X142.675 Y127.584 E32.51876
G1 X142.477 Y128.259 E32.55151
G1 X142.205 Y128.908 E32.58428
G1 X141.86 Y129.522 E32.61707
G1 X141.449 Y130.093 E32.64983
G1 X141.018 Y130.571 E32.6798
G1 X140.901 Y130.688 E32.68751
G1 X140.376 Y131.157 E32.72029
G1 X139.801 Y131.563 E32.75306
G1 X139.183 Y131.901 E32.78586
G1 X138.532 Y132.168 E32.81863
G1 X137.854 Y132.358 E32.85141
G1 X137.159 Y132.471 E32.8842
G1 X136.517 Y132.504 E32.91414
G1 X98.483 Y132.504 E34.68516
G1 X97.78 Y132.464 E34.71795
G1 X97.086 Y132.345 E34.75073
G1 X96.411 Y132.147 E34.78349
G1 X95.762 Y131.875 E34.81625
G1 X95.148 Y131.53 E34.84905
G1 X94.577 Y131.119 E34.88181
G1 X94.099 Y130.688 E34.91178
G1 X93.982 Y130.571 E34.91948
G1 X93.513 Y130.046 E34.95226
G1 X93.107 Y129.471 E34.98504
G1 X92.769 Y128.853 E35.01784
G1 X92.502 Y128.202 E35.0506
G1 X92.312 Y127.524 E35.08339
G1 X92.199 Y126.829 E35.11618
G1 X92.166 Y126.187 E35.14611
G1 X92.166 Y108.813 E35.95512
G1 X92.206 Y108.11 E35.9879
G1 X92.325 Y107.416 E36.02069
G1 X92.523 Y106.741 E36.05345
G1 X92.795 Y106.092 E36.08621
G1 X93.14 Y105.478 E36.11901
G1 X93.551 Y104.907 E36.15177
G1 X93.982 Y104.429 E36.18174
G1 X94.099 Y104.312 E36.18944
G0 F6000 X94.382 Y104.595
G1 F1200 X94.891 Y104.142 E36.22117
G1 X95.449 Y103.753 E36.25284
G1 X96.049 Y103.431 E36.28455
G1 X96.683 Y103.182 E36.31627
G1 X97.342 Y103.009 E36.34799
G1 X98.016 Y102.915 E36.37968
G1 X98.483 Y102.896 E36.40144
G1 X136.517 Y102.896 E38.17247
G1 X137.197 Y102.936 E38.20419
G1 X137.867 Y103.055 E38.23587
G1 X138.519 Y103.252 E38.26759
G1 X139.143 Y103.524 E38.29928
G1 X139.731 Y103.868 E38.331
G1 X140.275 Y104.278 E38.36272
G1 X140.618 Y104.595 E38.38447
G1 X140.735 Y104.712 E38.39218
G1 X141.188 Y105.221 E38.42391
G1 X141.577 Y105.779 E38.45558
G1 X141.899 Y106.379 E38.48729
G1 X142.148 Y107.013 E38.519
G1 X142.321 Y107.672 E38.55073
G1 X142.415 Y108.346 E38.58242
G1 X142.434 Y108.813 E38.60418
G1 X142.434 Y126.187 E39.41319
G1 X142.394 Y126.867 E39.4449
G1 X142.275 Y127.537 E39.47659
G1 X142.078 Y128.189 E39.50831
G1 X141.806 Y128.813 E39.54
G1 X141.462 Y129.401 E39.57172
G1 X141.052 Y129.945 E39.60344
G1 X140.735 Y130.288 E39.62519
G1 X140.618 Y130.405 E39.6329
G1 X140.109 Y130.858 E39.66462
G1 X139.551 Y131.247 E39.6963
G1 X138.951 Y131.569 E39.72801
G1 X138.317 Y131.818 E39.75972
G1 X137.658 Y131.991 E39.79145
G1 X136.984 Y132.085 E39.82314
G1 X136.517 Y132.104 E39.8449
G1 X98.483 Y132.104 E41.61592
G1 X97.803 Y132.064 E41.64764
G1 X97.133 Y131.945 E41.67933
G1 X96.481 Y131.748 E41.71104
G1 X95.857 Y131.476 E41.74274
G1 X95.269 Y131.132 E41.77446
G1 X94.725 Y130.722 E41.80618
G1 X94.382 Y130.405 E41.82793
G1 X94.265 Y130.288 E41.83563
G1 X93.812 Y129.779 E41.86736
G1 X93.423 Y129.221 E41.89903
G1 X93.101 Y128.621 E41.93074
G1 X92.852 Y127.987 E41.96246
G1 X92.679 Y127.328 E41.99418
G1 X92.585 Y126.654 E42.02587
G1 X92.566 Y126.187 E42.04763
G1 X92.566 Y108.813 E42.85664
G1 X92.606 Y108.133 E42.88836
G1 X92.725 Y107.463 E42.92005
G1 X92.922 Y106.811 E42.95176
G1 X93.194 Y106.187 E42.98346
G1 X93.538 Y105.599 E43.01518
G1 X93.948 Y105.055 E43.0469
G1 X94.265 Y104.712 E43.06865
G1 X94.382 Y104.595 E43.07635
G0 F6000 X94.665 Y104.878
G1 F1200 X95.157 Y104.442 E43.10696
G1 X95.698 Y104.07 E43.13753
G1 X96.28 Y103.766 E43.16811
G1 X96.895 Y103.535 E43.1987
G1 X97.534 Y103.38 E43.22932
G1 X98.483 Y103.296 E43.27368
G1 X136.517 Y103.296 E45.0447
G1 X137.173 Y103.336 E45.0753
G1 X137.819 Y103.455 E45.10589
G1 X138.446 Y103.652 E45.13649
G1 X139.044 Y103.924 E45.16708
G1 X139.605 Y104.266 E45.19768
G1 X140.335 Y104.878 E45.24203
G1 X140.452 Y104.995 E45.24974
G1 X140.888 Y105.487 E45.28035
G1 X141.26 Y106.028 E45.31092
G1 X141.564 Y106.61 E45.3415
G1 X141.795 Y107.225 E45.37209
G1 X141.95 Y107.864 E45.4027
G1 X142.034 Y108.813 E45.44707
G1 X142.034 Y126.187 E46.25607
G1 X141.994 Y126.843 E46.28668
G1 X141.875 Y127.489 E46.31726
G1 X141.678 Y128.116 E46.34786
G1 X141.406 Y128.714 E46.37846
G1 X141.064 Y129.275 E46.40905
G1 X140.452 Y130.005 E46.45341
G1 X140.335 Y130.122 E46.46111
G1 X139.843 Y130.558 E46.49172
G1 X139.302 Y130.93 E46.52229
G1 X138.72 Y131.234 E46.55287
G1 X138.105 Y131.465 E46.58346
G1 X137.466 Y131.62 E46.61408
G1 X136.517 Y131.704 E46.65844
G1 X98.483 Y131.704 E48.42946
G1 X97.827 Y131.664 E48.46006
G1 X97.181 Y131.545 E48.49065
G1 X96.554 Y131.348 E48.52125
G1 X95.956 Y131.076 E48.55184
G1 X95.395 Y130.734 E48.58244
G1 X94.665 Y130.122 E48.62679
G1 X94.548 Y130.005 E48.6345
G1 X94.112 Y129.513 E48.66511
G1 X93.74 Y128.972 E48.69568
G1 X93.436 Y128.39 E48.72626
G1 X93.205 Y127.775 E48.75685
G1 X93.05 Y127.136 E48.78746
G1 X92.966 Y126.187 E48.83183
G1 X92.966 Y108.813 E49.64083
G1 X93.006 Y108.157 E49.67144
G1 X93.125 Y107.511 E49.70202
G1 X93.322 Y106.884 E49.73263
G1 X93.594 Y106.286 E49.76322
G1 X93.936 Y105.725 E49.79381
G1 X94.548 Y104.995 E49.83817
G1 X94.665 Y104.878 E49.84587
G0 F6000 X94.947 Y105.16
G1 F1200 X95.422 Y104.743 E49.8753
G1 X95.945 Y104.388 E49.90474
G1 X96.509 Y104.102 E49.93418
G1 X97.104 Y103.89 E49.96359
G1 X97.722 Y103.754 E49.99306
G1 X98.483 Y103.696 E50.0286
G1 X136.517 Y103.696 E51.79962
G1 X137.148 Y103.736 E51.82906
G1 X137.769 Y103.855 E51.8585
G1 X138.369 Y104.052 E51.88791
G1 X138.941 Y104.323 E51.91738
G1 X139.473 Y104.663 E51.94678
G1 X140.053 Y105.16 E51.98235
G1 X140.17 Y105.277 E51.99005
G1 X140.587 Y105.752 E52.01948
G1 X140.942 Y106.275 E52.04892
G1 X141.228 Y106.839 E52.07836
G1 X141.44 Y107.434 E52.10777
G1 X141.576 Y108.052 E52.13724
G1 X141.634 Y108.813 E52.17278
G1 X141.634 Y126.187 E52.98178
G1 X141.594 Y126.818 E53.01123
G1 X141.475 Y127.439 E53.04067
G1 X141.278 Y128.039 E53.07007
G1 X141.007 Y128.611 E53.09955
G1 X140.667 Y129.143 E53.12895
G1 X140.17 Y129.723 E53.16451
G1 X140.053 Y129.84 E53.17222
G1 X139.578 Y130.257 E53.20165
G1 X139.055 Y130.612 E53.23108
G1 X138.491 Y130.898 E53.26053
G1 X137.896 Y131.11 E53.28994
G1 X137.278 Y131.246 E53.3194
G1 X136.517 Y131.304 E53.35494
G1 X98.483 Y131.304 E55.12597
G1 X97.852 Y131.264 E55.15541
G1 X97.231 Y131.145 E55.18485
G1 X96.631 Y130.948 E55.21425
G1 X96.059 Y130.677 E55.24373
G1 X95.527 Y130.337 E55.27313
G1 X94.947 Y129.84 E55.30869
G1 X94.83 Y129.723 E55.3164
G1 X94.413 Y129.248 E55.34583
