;FLAVOR:Marlin
;TIME:15714
;Filament used: 16.098m
;Layer height: 0.28
;MINX:6.158
;MINY:68.918
;MINZ:0.28
;MAXX:228.842
;MAXY:166.082
;MAXZ:16.24
;Generated with Cura_SteamEngine 4.5.0
M140 S50
M105
M190 S50
M104 S200
M105
M109 S200
M82 ;absolute extrusion mode
; Ender 3 Custom Start G-code
G92 E0 ; Reset Extruder
G28 ; Home all axes
G1 Z2.0 F3000 ; Move Z Axis up little to prevent scratching of Heat Bed
G1 X0.1 Y20 Z0.3 F5000.0 ; Move to start position
G1 X0.1 Y200.0 Z0.3 F1500.0 E15 ; Draw the first line
G1 X0.4 Y200.0 Z0.3 F5000.0 ; Move to side a little
G1 X0.4 Y20 Z0.3 F1500.0 E30 ; Draw the second line
G92 E0 ; Reset Extruder
G1 Z2.0 F3000 ; Move Z Axis up little to prevent scratching of Heat Bed
G1 X5 Y20 Z0.3 F5000.0 ; Move over to prevent blob squish
G92 E0
G92 E0
G1 F2700 E-5
;LAYER_COUNT:58
;LAYER:0
M107
G0 F6000 X53.874 Y70.673 Z0.28
;TYPE:SKIRT
G1 F2700 E0
G1 F1200 X54.51 Y70.206 E0.03674
G1 X55.19 Y69.805 E0.0735
G1 X55.908 Y69.475 E0.1103
G1 X56.655 Y69.22 E0.14705
G1 X57.424 Y69.041 E0.18381
G1 X58.208 Y68.941 E0.22062
G1 X58.803 Y68.918 E0.24834
G1 X176.197 Y68.918 E5.7147
G1 X176.986 Y68.958 E5.75149
G1 X177.766 Y69.077 E5.78823
G1 X178.531 Y69.275 E5.82502
G1 X179.271 Y69.549 E5.86177
G1 X179.98 Y69.897 E5.89854
G1 X180.651 Y70.315 E5.93535
G1 X181.275 Y70.798 E5.9721
G1 X181.848 Y71.341 E6.00886
G1 X182.363 Y71.94 E6.04564
G1 X182.814 Y72.588 E6.0824
G1 X183.198 Y73.279 E6.11921
G1 X183.51 Y74.004 E6.15596
G1 X183.747 Y74.757 E6.19272
G1 X183.906 Y75.531 E6.22952
G1 X183.997 Y76.699 E6.28407
G1 X184.095 Y117.552 E8.18636
G1 X220.924 Y117.552 E9.90127
G1 X221.713 Y117.592 E9.93806
G1 X222.493 Y117.711 E9.9748
G1 X223.258 Y117.909 E10.01159
G1 X223.998 Y118.183 E10.04834
G1 X224.707 Y118.531 E10.08511
G1 X225.378 Y118.949 E10.12193
G1 X226.002 Y119.432 E10.15867
G1 X226.439 Y119.837 E10.18641
G1 X226.556 Y119.954 E10.19412
G1 X227.086 Y120.54 E10.23091
G1 X227.553 Y121.176 E10.26765
G1 X227.954 Y121.856 E10.30441
G1 X228.284 Y122.574 E10.3412
G1 X228.539 Y123.321 E10.37796
G1 X228.718 Y124.09 E10.41472
G1 X228.818 Y124.874 E10.45153
G1 X228.841 Y125.469 E10.47925
G1 X228.841 Y129.813 E10.68153
G1 X228.801 Y130.602 E10.71831
G1 X228.682 Y131.382 E10.75505
G1 X228.484 Y132.147 E10.79185
G1 X228.21 Y132.887 E10.82859
G1 X227.862 Y133.596 E10.86537
G1 X227.444 Y134.267 E10.90218
G1 X226.961 Y134.891 E10.93892
G1 X226.556 Y135.328 E10.96667
G1 X226.439 Y135.445 E10.97437
G1 X225.853 Y135.975 E11.01116
G1 X225.217 Y136.442 E11.0479
G1 X224.537 Y136.843 E11.08466
G1 X223.819 Y137.173 E11.12146
G1 X223.072 Y137.428 E11.15821
G1 X222.303 Y137.607 E11.19498
G1 X221.519 Y137.707 E11.23178
G1 X220.924 Y137.73 E11.25951
G1 X184.114 Y137.73 E12.97353
G1 X184.114 Y145.038 E13.31383
G1 X220.925 Y145.038 E15.0279
G1 X221.714 Y145.078 E15.06469
G1 X222.494 Y145.197 E15.10143
G1 X223.259 Y145.395 E15.13822
G1 X223.999 Y145.669 E15.17497
G1 X224.708 Y146.017 E15.21174
G1 X225.379 Y146.435 E15.24855
G1 X226.003 Y146.918 E15.2853
G1 X226.44 Y147.323 E15.31304
G1 X226.557 Y147.44 E15.32074
G1 X227.087 Y148.026 E15.35754
G1 X227.554 Y148.662 E15.39428
G1 X227.955 Y149.342 E15.43104
G1 X228.285 Y150.06 E15.46783
G1 X228.54 Y150.807 E15.50459
G1 X228.719 Y151.576 E15.54135
G1 X228.819 Y152.36 E15.57815
G1 X228.842 Y152.955 E15.60588
G1 X228.842 Y158.165 E15.84848
G1 X228.802 Y158.954 E15.88527
G1 X228.683 Y159.734 E15.92201
G1 X228.485 Y160.499 E15.9588
G1 X228.211 Y161.239 E15.99555
G1 X227.863 Y161.948 E16.03232
G1 X227.445 Y162.619 E16.06913
G1 X226.962 Y163.243 E16.10588
G1 X226.557 Y163.68 E16.13362
G1 X226.44 Y163.797 E16.14132
G1 X225.854 Y164.327 E16.17812
G1 X225.218 Y164.794 E16.21486
G1 X224.538 Y165.195 E16.25162
G1 X223.82 Y165.525 E16.28841
G1 X223.073 Y165.78 E16.32517
G1 X222.304 Y165.959 E16.36193
G1 X221.52 Y166.059 E16.39873
G1 X220.925 Y166.082 E16.42646
G1 X14.075 Y166.082 E26.05826
G1 X13.286 Y166.042 E26.09505
G1 X12.506 Y165.923 E26.13179
G1 X11.741 Y165.725 E26.16858
G1 X11.001 Y165.451 E26.20533
G1 X10.292 Y165.103 E26.2421
G1 X9.621 Y164.685 E26.27892
G1 X8.997 Y164.202 E26.31566
G1 X8.56 Y163.797 E26.3434
G1 X8.443 Y163.68 E26.35111
G1 X7.913 Y163.094 E26.3879
G1 X7.446 Y162.458 E26.42464
G1 X7.045 Y161.778 E26.4614
G1 X6.715 Y161.06 E26.49819
G1 X6.46 Y160.313 E26.53495
G1 X6.281 Y159.544 E26.57171
G1 X6.181 Y158.76 E26.60852
G1 X6.158 Y158.165 E26.63624
G1 X6.158 Y152.955 E26.87884
G1 X6.198 Y152.166 E26.91563
G1 X6.317 Y151.386 E26.95237
G1 X6.515 Y150.621 E26.98916
G1 X6.789 Y149.881 E27.02591
G1 X7.137 Y149.172 E27.06268
G1 X7.555 Y148.501 E27.09949
G1 X8.038 Y147.877 E27.13624
G1 X8.443 Y147.44 E27.16398
G1 X8.56 Y147.323 E27.17169
G1 X9.146 Y146.793 E27.20848
G1 X9.782 Y146.326 E27.24522
G1 X10.462 Y145.925 E27.28198
G1 X11.18 Y145.595 E27.31877
G1 X11.927 Y145.34 E27.35553
G1 X12.696 Y145.161 E27.39229
G1 X13.48 Y145.061 E27.42909
G1 X14.075 Y145.038 E27.45682
G1 X50.886 Y145.038 E29.1709
G1 X50.886 Y137.73 E29.51119
G1 X14.076 Y137.73 E31.22521
G1 X13.287 Y137.69 E31.262
G1 X12.507 Y137.571 E31.29874
G1 X11.742 Y137.373 E31.33554
G1 X11.002 Y137.099 E31.37228
G1 X10.293 Y136.751 E31.40906
G1 X9.622 Y136.333 E31.44587
G1 X8.998 Y135.85 E31.48261
G1 X8.561 Y135.445 E31.51035
G1 X8.444 Y135.328 E31.51806
G1 X7.914 Y134.742 E31.55485
G1 X7.447 Y134.106 E31.59159
G1 X7.046 Y133.426 E31.62835
G1 X6.716 Y132.708 E31.66515
G1 X6.461 Y131.961 E31.7019
G1 X6.282 Y131.192 E31.73867
G1 X6.182 Y130.408 E31.77547
G1 X6.159 Y129.813 E31.80319
G1 X6.159 Y125.469 E32.00547
G1 X6.199 Y124.68 E32.04226
G1 X6.318 Y123.9 E32.079
G1 X6.516 Y123.135 E32.11579
G1 X6.79 Y122.395 E32.15253
G1 X7.138 Y121.686 E32.18931
G1 X7.556 Y121.015 E32.22612
G1 X8.039 Y120.391 E32.26287
G1 X8.444 Y119.954 E32.29061
G1 X8.561 Y119.837 E32.29831
G1 X9.147 Y119.307 E32.33511
G1 X9.783 Y118.84 E32.37185
G1 X10.463 Y118.439 E32.40861
G1 X11.181 Y118.109 E32.4454
G1 X11.928 Y117.854 E32.48216
G1 X12.697 Y117.675 E32.51892
G1 X13.481 Y117.575 E32.55572
G1 X14.076 Y117.552 E32.58345
G1 X50.886 Y117.552 E34.29748
G1 X50.886 Y76.835 E36.19343
G1 X50.926 Y76.046 E36.23022
G1 X51.045 Y75.266 E36.26696
G1 X51.243 Y74.501 E36.30375
G1 X51.517 Y73.761 E36.3405
G1 X51.865 Y73.052 E36.37727
G1 X52.283 Y72.381 E36.41408
G1 X52.766 Y71.757 E36.45083
G1 X53.171 Y71.32 E36.47857
G1 X53.288 Y71.203 E36.48628
G1 X53.874 Y70.673 E36.52307
G0 F6000 X54.142 Y70.971
G1 F1200 X54.764 Y70.518 E36.5589
G1 X55.429 Y70.132 E36.5947
G1 X56.131 Y69.817 E36.63053
G1 X56.862 Y69.577 E36.66635
G1 X57.613 Y69.414 E36.70214
G1 X58.378 Y69.33 E36.73797
G1 X58.803 Y69.318 E36.75777
G1 X176.197 Y69.318 E42.22413
G1 X176.965 Y69.358 E42.25994
G1 X177.725 Y69.477 E42.29576
G1 X178.468 Y69.675 E42.33156
G1 X179.187 Y69.949 E42.36739
G1 X179.873 Y70.296 E42.40319
G1 X180.52 Y70.712 E42.43901
G1 X181.12 Y71.193 E42.47481
G1 X181.667 Y71.734 E42.51064
G1 X182.155 Y72.329 E42.54647
G1 X182.578 Y72.971 E42.58227
G1 X182.933 Y73.654 E42.61811
G1 X183.214 Y74.369 E42.65388
G1 X183.42 Y75.111 E42.68974
G1 X183.548 Y75.869 E42.72554
G1 X183.597 Y76.7 E42.7643
G1 X183.696 Y117.952 E44.68517
G1 X220.924 Y117.952 E46.41866
G1 X221.692 Y117.992 E46.45447
G1 X222.452 Y118.111 E46.49029
G1 X223.195 Y118.309 E46.5261
G1 X223.914 Y118.583 E46.56192
G1 X224.6 Y118.93 E46.59772
G1 X225.247 Y119.346 E46.63354
G1 X225.847 Y119.827 E46.66935
G1 X226.274 Y120.236 E46.69688
G1 X226.788 Y120.808 E46.73269
G1 X227.241 Y121.43 E46.76852
G1 X227.627 Y122.095 E46.80432
G1 X227.942 Y122.797 E46.84015
G1 X228.182 Y123.528 E46.87598
G1 X228.345 Y124.279 E46.91176
G1 X228.429 Y125.044 E46.94759
G1 X228.441 Y125.469 E46.96739
G1 X228.441 Y129.813 E47.16967
G1 X228.401 Y130.581 E47.20548
G1 X228.282 Y131.341 E47.2413
G1 X228.084 Y132.084 E47.2771
G1 X227.81 Y132.803 E47.31293
G1 X227.463 Y133.489 E47.34873
G1 X227.047 Y134.136 E47.38454
G1 X226.566 Y134.736 E47.42035
G1 X226.157 Y135.163 E47.44788
G1 X225.585 Y135.677 E47.48369
G1 X224.963 Y136.13 E47.51952
G1 X224.298 Y136.516 E47.55533
G1 X223.596 Y136.831 E47.59115
G1 X222.865 Y137.071 E47.62698
G1 X222.114 Y137.234 E47.66276
G1 X221.349 Y137.318 E47.6986
G1 X220.924 Y137.33 E47.7184
G1 X183.714 Y137.33 E49.45105
G1 X183.714 Y145.438 E49.82859
G1 X220.925 Y145.438 E51.56129
G1 X221.693 Y145.478 E51.5971
G1 X222.453 Y145.597 E51.63292
G1 X223.196 Y145.795 E51.66873
G1 X223.915 Y146.069 E51.70456
G1 X224.601 Y146.416 E51.74035
G1 X225.248 Y146.832 E51.77617
G1 X225.848 Y147.313 E51.81198
G1 X226.275 Y147.722 E51.83951
G1 X226.789 Y148.294 E51.87532
G1 X227.242 Y148.916 E51.91115
G1 X227.628 Y149.581 E51.94695
G1 X227.943 Y150.283 E51.98278
G1 X228.183 Y151.014 E52.01861
G1 X228.346 Y151.765 E52.05439
G1 X228.43 Y152.53 E52.09023
G1 X228.442 Y152.955 E52.11002
G1 X228.442 Y158.165 E52.35262
G1 X228.402 Y158.933 E52.38843
G1 X228.283 Y159.693 E52.42425
G1 X228.085 Y160.436 E52.46006
G1 X227.811 Y161.155 E52.49589
G1 X227.464 Y161.841 E52.53168
G1 X227.048 Y162.488 E52.5675
G1 X226.567 Y163.088 E52.60331
G1 X226.158 Y163.515 E52.63084
G1 X225.586 Y164.029 E52.66665
G1 X224.964 Y164.482 E52.70248
G1 X224.299 Y164.868 E52.73828
G1 X223.597 Y165.183 E52.77411
G1 X222.866 Y165.423 E52.80994
G1 X222.115 Y165.586 E52.84572
G1 X221.35 Y165.67 E52.88156
G1 X220.925 Y165.682 E52.90135
G1 X14.075 Y165.682 E62.53316
G1 X13.307 Y165.642 E62.56897
G1 X12.547 Y165.523 E62.60479
G1 X11.804 Y165.325 E62.64059
G1 X11.085 Y165.051 E62.67642
G1 X10.399 Y164.704 E62.71222
G1 X9.752 Y164.288 E62.74803
G1 X9.152 Y163.807 E62.78384
G1 X8.725 Y163.398 E62.81137
G1 X8.211 Y162.826 E62.84718
G1 X7.758 Y162.204 E62.88301
G1 X7.372 Y161.539 E62.91882
G1 X7.057 Y160.837 E62.95464
G1 X6.817 Y160.106 E62.99047
G1 X6.654 Y159.355 E63.02625
G1 X6.57 Y158.59 E63.06209
G1 X6.558 Y158.165 E63.08189
G1 X6.558 Y152.955 E63.32449
G1 X6.598 Y152.187 E63.3603
G1 X6.717 Y151.427 E63.39612
G1 X6.915 Y150.684 E63.43192
G1 X7.189 Y149.965 E63.46775
G1 X7.536 Y149.279 E63.50355
G1 X7.952 Y148.632 E63.53936
G1 X8.433 Y148.032 E63.57517
G1 X8.842 Y147.605 E63.6027
G1 X9.414 Y147.091 E63.63851
G1 X10.036 Y146.638 E63.67434
G1 X10.701 Y146.252 E63.71015
G1 X11.403 Y145.937 E63.74597
G1 X12.134 Y145.697 E63.7818
G1 X12.885 Y145.534 E63.81758
G1 X13.65 Y145.45 E63.85342
G1 X14.075 Y145.438 E63.87322
G1 X51.286 Y145.438 E65.60592
G1 X51.286 Y137.33 E65.98346
G1 X14.076 Y137.33 E67.71611
G1 X13.308 Y137.29 E67.75192
G1 X12.548 Y137.171 E67.78774
G1 X11.805 Y136.973 E67.82355
G1 X11.086 Y136.699 E67.85938
G1 X10.4 Y136.352 E67.89517
G1 X9.753 Y135.936 E67.93099
G1 X9.153 Y135.455 E67.9668
G1 X8.726 Y135.046 E67.99433
G1 X8.212 Y134.474 E68.03014
G1 X7.759 Y133.852 E68.06597
G1 X7.373 Y133.187 E68.10177
G1 X7.058 Y132.485 E68.1376
G1 X6.818 Y131.754 E68.17343
G1 X6.655 Y131.003 E68.20921
G1 X6.571 Y130.238 E68.24505
G1 X6.559 Y129.813 E68.26484
G1 X6.559 Y125.469 E68.46712
G1 X6.599 Y124.701 E68.50293
G1 X6.718 Y123.941 E68.53875
G1 X6.916 Y123.198 E68.57455
G1 X7.19 Y122.479 E68.61038
G1 X7.537 Y121.793 E68.64618
G1 X7.953 Y121.146 E68.682
G1 X8.434 Y120.546 E68.7178
G1 X8.843 Y120.119 E68.74534
G1 X9.415 Y119.605 E68.78114
G1 X10.037 Y119.152 E68.81697
G1 X10.702 Y118.766 E68.85278
G1 X11.404 Y118.451 E68.88861
G1 X12.135 Y118.211 E68.92443
G1 X12.886 Y118.048 E68.96022
G1 X13.651 Y117.964 E68.99605
G1 X14.076 Y117.952 E69.01585
G1 X51.286 Y117.952 E70.7485
G1 X51.286 Y76.835 E72.66308
G1 X51.326 Y76.067 E72.69889
G1 X51.445 Y75.307 E72.73471
G1 X51.643 Y74.564 E72.77052
G1 X51.917 Y73.845 E72.80635
G1 X52.264 Y73.159 E72.84214
G1 X52.68 Y72.512 E72.87796
G1 X53.161 Y71.912 E72.91377
G1 X53.57 Y71.485 E72.9413
G1 X54.142 Y70.971 E72.97711
G0 F6000 X54.41 Y71.268
G1 F1200 X55.016 Y70.831 E73.0119
G1 X55.666 Y70.46 E73.04675
G1 X56.352 Y70.161 E73.08159
G1 X57.066 Y69.937 E73.11644
G1 X57.799 Y69.79 E73.15125
G1 X58.803 Y69.718 E73.19812
G1 X176.197 Y69.718 E78.66448
G1 X176.944 Y69.758 E78.69931
G1 X177.682 Y69.877 E78.73412
G1 X178.404 Y70.075 E78.76898
G1 X179.1 Y70.348 E78.80379
G1 X179.763 Y70.695 E78.83863
G1 X180.386 Y71.11 E78.87349
G1 X180.96 Y71.589 E78.9083
G1 X181.481 Y72.126 E78.94314
G1 X181.94 Y72.716 E78.97795
G1 X182.335 Y73.352 E79.01281
G1 X182.659 Y74.026 E79.04763
G1 X182.909 Y74.731 E79.08246
G1 X183.083 Y75.459 E79.11732
G1 X183.178 Y76.201 E79.15215
G1 X183.197 Y76.701 E79.17545
G1 X183.297 Y118.352 E81.1149
G1 X220.924 Y118.352 E82.86697
G1 X221.671 Y118.392 E82.9018
G1 X222.409 Y118.511 E82.93661
G1 X223.131 Y118.709 E82.97147
G1 X223.827 Y118.982 E83.00629
G1 X224.49 Y119.329 E83.04113
G1 X225.113 Y119.744 E83.07599
G1 X225.874 Y120.402 E83.12283
G1 X225.991 Y120.519 E83.13054
G1 X226.491 Y121.076 E83.16539
G1 X226.928 Y121.682 E83.20018
G1 X227.299 Y122.332 E83.23503
G1 X227.598 Y123.018 E83.26987
G1 X227.822 Y123.732 E83.30472
G1 X227.969 Y124.465 E83.33953
G1 X228.041 Y125.469 E83.3864
G1 X228.041 Y129.813 E83.58868
G1 X228.001 Y130.56 E83.62351
G1 X227.882 Y131.298 E83.65832
G1 X227.684 Y132.02 E83.69318
G1 X227.411 Y132.716 E83.72799
G1 X227.064 Y133.379 E83.76283
G1 X226.649 Y134.002 E83.79769
G1 X225.991 Y134.763 E83.84454
G1 X225.874 Y134.88 E83.85224
G1 X225.317 Y135.38 E83.88709
G1 X224.711 Y135.817 E83.92188
G1 X224.061 Y136.188 E83.95673
G1 X223.375 Y136.487 E83.99158
G1 X222.661 Y136.711 E84.02642
G1 X221.928 Y136.858 E84.06123
G1 X220.924 Y136.93 E84.1081
G1 X183.314 Y136.93 E85.85938
G1 X183.314 Y145.838 E86.27418
G1 X220.925 Y145.838 E88.0255
G1 X221.672 Y145.878 E88.06034
G1 X222.41 Y145.997 E88.09515
G1 X223.132 Y146.195 E88.13001
G1 X223.828 Y146.468 E88.16482
G1 X224.491 Y146.815 E88.19966
G1 X225.114 Y147.23 E88.23452
G1 X225.875 Y147.888 E88.28136
G1 X225.992 Y148.005 E88.28907
G1 X226.492 Y148.562 E88.32392
G1 X226.929 Y149.168 E88.35871
G1 X227.3 Y149.818 E88.39356
G1 X227.599 Y150.504 E88.42841
G1 X227.823 Y151.218 E88.46325
G1 X227.97 Y151.951 E88.49806
G1 X228.042 Y152.955 E88.54493
G1 X228.042 Y158.165 E88.78753
G1 X228.002 Y158.912 E88.82237
G1 X227.883 Y159.65 E88.85717
G1 X227.685 Y160.372 E88.89203
G1 X227.412 Y161.068 E88.92685
G1 X227.065 Y161.731 E88.96169
G1 X226.65 Y162.354 E88.99655
G1 X225.992 Y163.115 E89.04339
G1 X225.875 Y163.232 E89.0511
G1 X225.318 Y163.732 E89.08595
G1 X224.712 Y164.169 E89.12074
G1 X224.062 Y164.54 E89.15559
G1 X223.376 Y164.839 E89.19044
G1 X222.662 Y165.063 E89.22528
G1 X221.929 Y165.21 E89.26009
G1 X220.925 Y165.282 E89.30696
G1 X14.075 Y165.282 E98.93876
G1 X13.328 Y165.242 E98.9736
G1 X12.59 Y165.123 E99.00841
G1 X11.868 Y164.925 E99.04327
G1 X11.172 Y164.652 E99.07808
G1 X10.509 Y164.305 E99.11292
G1 X9.886 Y163.89 E99.14778
G1 X9.125 Y163.232 E99.19463
G1 X9.008 Y163.115 E99.20233
G1 X8.508 Y162.558 E99.23718
G1 X8.071 Y161.952 E99.27197
G1 X7.7 Y161.302 E99.30682
G1 X7.401 Y160.616 E99.34167
G1 X7.177 Y159.902 E99.37651
G1 X7.03 Y159.169 E99.41132
G1 X6.958 Y158.165 E99.45819
G1 X6.958 Y152.955 E99.70079
G1 X6.998 Y152.208 E99.73563
G1 X7.117 Y151.47 E99.77043
G1 X7.315 Y150.748 E99.8053
G1 X7.588 Y150.052 E99.84011
G1 X7.935 Y149.389 E99.87495
G1 X8.35 Y148.766 E99.90981
G1 X9.008 Y148.005 E99.95665
G1 X9.125 Y147.888 E99.96436
G1 X9.682 Y147.388 E99.99921
G1 X10.288 Y146.951 E100.034
G1 X10.938 Y146.58 E100.06885
G1 X11.624 Y146.281 E100.1037
G1 X12.338 Y146.057 E100.13854
G1 X13.071 Y145.91 E100.17335
G1 X14.075 Y145.838 E100.22022
G1 X51.686 Y145.838 E101.97155
G1 X51.686 Y136.93 E102.38634
G1 X14.076 Y136.93 E104.13762
G1 X13.329 Y136.89 E104.17245
G1 X12.591 Y136.771 E104.20726
G1 X11.869 Y136.573 E104.24212
G1 X11.173 Y136.3 E104.27694
G1 X10.51 Y135.953 E104.31178
G1 X9.887 Y135.538 E104.34664
G1 X9.126 Y134.88 E104.39348
G1 X9.009 Y134.763 E104.40119
G1 X8.509 Y134.206 E104.43604
G1 X8.072 Y133.6 E104.47083
G1 X7.701 Y132.95 E104.50568
G1 X7.402 Y132.264 E104.54052
G1 X7.178 Y131.55 E104.57537
G1 X7.031 Y130.817 E104.61018
G1 X6.959 Y129.813 E104.65705
G1 X6.959 Y125.469 E104.85933
G1 X6.999 Y124.722 E104.89416
G1 X7.118 Y123.984 E104.92897
G1 X7.316 Y123.262 E104.96383
G1 X7.589 Y122.566 E104.99864
G1 X7.936 Y121.903 E105.03349
G1 X8.351 Y121.28 E105.06834
