;FLAVOR:Marlin
;TIME:5644
;Filament used: 5.07325m
;Layer height: 0.28
;MINX:86.353
;MINY:69.538
;MINZ:0.28
;MAXX:148.641
;MAXY:165.462
;MAXZ:28
;Generated with Cura_SteamEngine 4.5.0
M140 S50
M105
M190 S50
M104 S200
M105
M109 S200
M82 ;absolute extrusion mode
; Ender 3 Custom Start G-code
G92 E0 ; Reset Extruder
G28 ; Home all axes
G1 Z2.0 F3000 ; Move Z Axis up little to prevent scratching of Heat Bed
G1 X0.1 Y20 Z0.3 F5000.0 ; Move to start position
G1 X0.1 Y200.0 Z0.3 F1500.0 E15 ; Draw the first line
G1 X0.4 Y200.0 Z0.3 F5000.0 ; Move to side a little
G1 X0.4 Y20 Z0.3 F1500.0 E30 ; Draw the second line
G92 E0 ; Reset Extruder
G1 Z2.0 F3000 ; Move Z Axis up little to prevent scratching of Heat Bed
G1 X5 Y20 Z0.3 F5000.0 ; Move over to prevent blob squish
G92 E0
G92 E0
G1 F2700 E-5
;LAYER_COUNT:100
;LAYER:0
M107
G0 F6000 X102.009 Y73.001 Z0.28
;TYPE:SKIRT
G1 F2700 E0
G1 F1200 X102.492 Y72.376 E0.03678
G1 X102.897 Y71.94 E0.06449
G1 X103.014 Y71.823 E0.07219
G1 X103.6 Y71.293 E0.10899
G1 X104.236 Y70.826 E0.14573
G1 X104.916 Y70.425 E0.18249
G1 X105.634 Y70.095 E0.21928
G1 X106.381 Y69.84 E0.25604
G1 X107.15 Y69.661 E0.2928
G1 X107.934 Y69.561 E0.3296
G1 X108.529 Y69.538 E0.35733
G1 X140.724 Y69.538 E1.85646
G1 X141.513 Y69.578 E1.89325
G1 X142.293 Y69.697 E1.92999
G1 X143.058 Y69.895 E1.96679
G1 X143.798 Y70.169 E2.00353
G1 X144.507 Y70.517 E2.04031
G1 X145.178 Y70.935 E2.07712
G1 X145.802 Y71.418 E2.11386
G1 X146.375 Y71.961 E2.15062
G1 X146.89 Y72.56 E2.1874
G1 X147.341 Y73.208 E2.22416
G1 X147.725 Y73.899 E2.26097
G1 X148.037 Y74.624 E2.29773
G1 X148.274 Y75.377 E2.33449
G1 X148.433 Y76.151 E2.37128
G1 X148.524 Y77.327 E2.4262
G1 X148.641 Y157.534 E6.16098
G1 X148.602 Y158.322 E6.19772
G1 X148.484 Y159.103 E6.2345
G1 X148.287 Y159.868 E6.27128
G1 X148.014 Y160.609 E6.30805
G1 X147.667 Y161.318 E6.34481
G1 X147.251 Y161.989 E6.38157
G1 X146.769 Y162.615 E6.41836
G1 X146.356 Y163.06 E6.44663
G1 X146.239 Y163.177 E6.45433
G1 X145.653 Y163.707 E6.49112
G1 X145.017 Y164.174 E6.52787
G1 X144.337 Y164.575 E6.56462
G1 X143.619 Y164.905 E6.60142
G1 X142.872 Y165.16 E6.63817
G1 X142.103 Y165.339 E6.67494
G1 X141.319 Y165.439 E6.71174
G1 X140.724 Y165.462 E6.73947
G1 X136.958 Y165.462 E6.91483
G1 X136.169 Y165.422 E6.95162
G1 X135.389 Y165.303 E6.98836
G1 X134.624 Y165.105 E7.02515
G1 X133.884 Y164.831 E7.06189
G1 X133.175 Y164.483 E7.09867
G1 X132.504 Y164.065 E7.13548
G1 X131.88 Y163.582 E7.17223
G1 X131.443 Y163.177 E7.19997
G1 X131.326 Y163.06 E7.20767
G1 X130.796 Y162.474 E7.24447
G1 X130.329 Y161.838 E7.28121
G1 X129.928 Y161.158 E7.31797
G1 X129.598 Y160.44 E7.35476
G1 X129.343 Y159.693 E7.39152
G1 X129.164 Y158.924 E7.42828
G1 X129.064 Y158.14 E7.46508
G1 X129.041 Y157.545 E7.49281
G1 X129.041 Y124.751 E9.01983
G1 X105.953 Y124.751 E10.09491
G1 X105.953 Y157.545 E11.62193
G1 X105.913 Y158.334 E11.65872
G1 X105.794 Y159.114 E11.69546
G1 X105.596 Y159.879 E11.73226
G1 X105.322 Y160.619 E11.769
G1 X104.974 Y161.328 E11.80578
G1 X104.556 Y161.999 E11.84259
G1 X104.073 Y162.623 E11.87933
G1 X103.668 Y163.06 E11.90708
G1 X103.551 Y163.177 E11.91478
G1 X102.965 Y163.707 E11.95157
G1 X102.329 Y164.174 E11.98831
G1 X101.649 Y164.575 E12.02507
G1 X100.931 Y164.905 E12.06187
G1 X100.184 Y165.16 E12.09862
G1 X99.415 Y165.339 E12.13539
G1 X98.631 Y165.439 E12.17219
G1 X98.036 Y165.462 E12.19991
G1 X94.27 Y165.462 E12.37528
G1 X93.481 Y165.422 E12.41206
G1 X92.701 Y165.303 E12.4488
G1 X91.936 Y165.105 E12.4856
G1 X91.196 Y164.831 E12.52234
G1 X90.487 Y164.483 E12.55912
G1 X89.816 Y164.065 E12.59593
G1 X89.192 Y163.582 E12.63267
G1 X88.755 Y163.177 E12.66042
G1 X88.638 Y163.06 E12.66812
G1 X88.108 Y162.474 E12.70491
G1 X87.641 Y161.838 E12.74165
G1 X87.24 Y161.158 E12.77841
G1 X86.91 Y160.44 E12.81521
G1 X86.655 Y159.693 E12.85196
G1 X86.476 Y158.924 E12.88873
G1 X86.376 Y158.14 E12.92553
G1 X86.353 Y157.545 E12.95326
G1 X86.353 Y113.068 E15.02429
G1 X86.393 Y112.279 E15.06108
G1 X86.512 Y111.499 E15.09782
G1 X86.71 Y110.734 E15.13461
G1 X86.984 Y109.994 E15.17136
G1 X87.332 Y109.285 E15.20813
G1 X87.75 Y108.614 E15.24494
G1 X88.233 Y107.99 E15.28169
G1 X88.638 Y107.553 E15.30943
G1 X88.755 Y107.436 E15.31714
G1 X89.341 Y106.906 E15.35393
G1 X89.977 Y106.439 E15.39067
G1 X90.657 Y106.038 E15.42743
G1 X91.375 Y105.708 E15.46422
G1 X92.122 Y105.453 E15.50098
G1 X92.891 Y105.274 E15.53774
G1 X93.675 Y105.174 E15.57454
G1 X94.27 Y105.151 E15.60227
G1 X100.611 Y105.151 E15.89753
G1 X100.612 Y77.455 E17.18718
G1 X100.652 Y76.666 E17.22396
G1 X100.772 Y75.886 E17.26071
G1 X100.969 Y75.121 E17.29749
G1 X101.244 Y74.38 E17.3343
G1 X101.591 Y73.671 E17.37105
G1 X102.009 Y73.001 E17.40782
G0 F6000 X102.406 Y73.132
G1 F1200 X102.888 Y72.532 E17.44366
G1 X103.179 Y72.222 E17.46346
G1 X103.296 Y72.105 E17.47116
G1 X103.868 Y71.591 E17.50697
G1 X104.49 Y71.138 E17.5428
G1 X105.155 Y70.752 E17.57861
G1 X105.857 Y70.437 E17.61443
G1 X106.588 Y70.197 E17.65026
G1 X107.339 Y70.034 E17.68604
G1 X108.104 Y69.95 E17.72188
G1 X108.529 Y69.938 E17.74168
G1 X140.724 Y69.938 E19.24081
G1 X141.492 Y69.978 E19.27662
G1 X142.252 Y70.097 E19.31244
G1 X142.995 Y70.295 E19.34825
G1 X143.714 Y70.569 E19.38407
G1 X144.4 Y70.916 E19.41987
G1 X145.047 Y71.332 E19.45569
G1 X145.647 Y71.813 E19.4915
G1 X146.194 Y72.354 E19.52732
G1 X146.682 Y72.949 E19.56315
G1 X147.105 Y73.591 E19.59895
G1 X147.46 Y74.274 E19.6348
G1 X147.741 Y74.989 E19.67057
G1 X147.947 Y75.731 E19.70643
G1 X148.075 Y76.489 E19.74222
G1 X148.124 Y77.327 E19.78131
G1 X148.241 Y157.534 E23.51609
G1 X148.202 Y158.302 E23.55189
G1 X148.084 Y159.062 E23.58771
G1 X147.887 Y159.806 E23.62354
G1 X147.614 Y160.525 E23.65936
G1 X147.268 Y161.212 E23.69517
G1 X146.853 Y161.859 E23.73096
G1 X146.373 Y162.46 E23.76678
G1 X146.074 Y162.778 E23.7871
G1 X145.957 Y162.895 E23.79481
G1 X145.385 Y163.409 E23.83062
G1 X144.763 Y163.862 E23.86645
G1 X144.098 Y164.248 E23.90225
G1 X143.396 Y164.563 E23.93808
G1 X142.665 Y164.803 E23.97391
G1 X141.914 Y164.966 E24.00969
G1 X141.149 Y165.05 E24.04553
G1 X140.724 Y165.062 E24.06532
G1 X136.958 Y165.062 E24.24068
G1 X136.19 Y165.022 E24.27649
G1 X135.43 Y164.903 E24.31231
G1 X134.687 Y164.705 E24.34812
G1 X133.968 Y164.431 E24.38395
G1 X133.282 Y164.084 E24.41974
G1 X132.635 Y163.668 E24.45556
G1 X132.035 Y163.187 E24.49137
G1 X131.608 Y162.778 E24.5189
G1 X131.094 Y162.206 E24.55471
G1 X130.641 Y161.584 E24.59054
G1 X130.255 Y160.919 E24.62634
G1 X129.94 Y160.217 E24.66217
G1 X129.7 Y159.486 E24.698
G1 X129.537 Y158.735 E24.73378
G1 X129.453 Y157.97 E24.76962
G1 X129.441 Y157.545 E24.78941
G1 X129.441 Y124.351 E26.33507
G1 X105.553 Y124.351 E27.44739
G1 X105.553 Y157.545 E28.99304
G1 X105.513 Y158.313 E29.02885
G1 X105.394 Y159.073 E29.06467
G1 X105.196 Y159.816 E29.10048
G1 X104.922 Y160.535 E29.13631
G1 X104.575 Y161.221 E29.1721
G1 X104.159 Y161.868 E29.20792
G1 X103.678 Y162.468 E29.24373
G1 X103.269 Y162.895 E29.27126
G1 X102.697 Y163.409 E29.30707
G1 X102.075 Y163.862 E29.3429
G1 X101.41 Y164.248 E29.3787
G1 X100.708 Y164.563 E29.41453
G1 X99.977 Y164.803 E29.45036
G1 X99.226 Y164.966 E29.48614
G1 X98.461 Y165.05 E29.52198
G1 X98.036 Y165.062 E29.54177
G1 X94.27 Y165.062 E29.71713
G1 X93.502 Y165.022 E29.75294
G1 X92.742 Y164.903 E29.78876
G1 X91.999 Y164.705 E29.82457
G1 X91.28 Y164.431 E29.8604
G1 X90.594 Y164.084 E29.89619
G1 X89.947 Y163.668 E29.93201
G1 X89.347 Y163.187 E29.96782
G1 X88.92 Y162.778 E29.99535
G1 X88.406 Y162.206 E30.03116
G1 X87.953 Y161.584 E30.06699
G1 X87.567 Y160.919 E30.10279
G1 X87.252 Y160.217 E30.13862
G1 X87.012 Y159.486 E30.17445
G1 X86.849 Y158.735 E30.21023
G1 X86.765 Y157.97 E30.24607
G1 X86.753 Y157.545 E30.26586
G1 X86.753 Y113.068 E32.3369
G1 X86.793 Y112.3 E32.37271
G1 X86.912 Y111.54 E32.40853
G1 X87.11 Y110.797 E32.44433
G1 X87.384 Y110.078 E32.48016
G1 X87.731 Y109.392 E32.51596
G1 X88.147 Y108.745 E32.55178
G1 X88.628 Y108.145 E32.58758
G1 X89.037 Y107.718 E32.61512
G1 X89.609 Y107.204 E32.65093
G1 X90.231 Y106.751 E32.68676
G1 X90.896 Y106.365 E32.72256
G1 X91.598 Y106.05 E32.75839
G1 X92.329 Y105.81 E32.79421
G1 X93.08 Y105.647 E32.83
G1 X93.845 Y105.563 E32.86583
G1 X94.27 Y105.551 E32.88563
G1 X101.011 Y105.551 E33.19952
G1 X101.012 Y77.455 E34.50779
G1 X101.052 Y76.687 E34.5436
G1 X101.172 Y75.927 E34.57942
G1 X101.369 Y75.184 E34.61522
G1 X101.643 Y74.465 E34.65105
G1 X101.99 Y73.778 E34.68688
G1 X102.406 Y73.132 E34.72266
G0 F6000 X102.804 Y73.266
G1 F1200 X103.462 Y72.505 E34.76951
G1 X103.579 Y72.388 E34.77721
G1 X104.136 Y71.888 E34.81206
G1 X104.742 Y71.451 E34.84685
G1 X105.392 Y71.08 E34.8817
G1 X106.078 Y70.781 E34.91655
G1 X106.792 Y70.557 E34.95139
G1 X107.525 Y70.41 E34.9862
G1 X108.529 Y70.338 E35.03308
G1 X140.724 Y70.338 E36.53221
G1 X141.471 Y70.378 E36.56704
G1 X142.209 Y70.497 E36.60185
G1 X142.931 Y70.695 E36.63671
G1 X143.627 Y70.968 E36.67152
G1 X144.29 Y71.315 E36.70637
G1 X144.913 Y71.73 E36.74123
G1 X145.487 Y72.209 E36.77604
G1 X146.008 Y72.746 E36.81088
G1 X146.467 Y73.336 E36.84568
G1 X146.862 Y73.972 E36.88055
G1 X147.186 Y74.646 E36.91537
G1 X147.436 Y75.351 E36.9502
G1 X147.61 Y76.079 E36.98505
G1 X147.705 Y76.821 E37.01988
G1 X147.724 Y77.328 E37.04351
G1 X147.841 Y157.535 E40.77829
G1 X147.802 Y158.282 E40.81312
G1 X147.684 Y159.02 E40.84792
G1 X147.487 Y159.742 E40.88277
G1 X147.215 Y160.439 E40.91761
G1 X146.87 Y161.103 E40.95245
G1 X146.455 Y161.726 E40.98731
G1 X145.791 Y162.495 E41.03462
G1 X145.674 Y162.612 E41.04232
G1 X145.117 Y163.112 E41.07717
G1 X144.511 Y163.549 E41.11196
G1 X143.861 Y163.92 E41.14681
G1 X143.175 Y164.219 E41.18166
G1 X142.461 Y164.443 E41.2165
G1 X141.728 Y164.59 E41.25131
G1 X140.724 Y164.662 E41.29818
G1 X136.958 Y164.662 E41.47354
G1 X136.211 Y164.622 E41.50838
G1 X135.473 Y164.503 E41.54319
G1 X134.751 Y164.305 E41.57805
G1 X134.055 Y164.032 E41.61286
G1 X133.392 Y163.685 E41.6477
G1 X132.769 Y163.27 E41.68256
G1 X132.008 Y162.612 E41.72941
G1 X131.891 Y162.495 E41.73711
G1 X131.391 Y161.938 E41.77196
G1 X130.954 Y161.332 E41.80675
G1 X130.583 Y160.682 E41.8416
G1 X130.284 Y159.996 E41.87645
G1 X130.06 Y159.282 E41.91129
G1 X129.913 Y158.549 E41.9461
G1 X129.841 Y157.545 E41.99297
G1 X129.841 Y123.951 E43.55725
G1 X105.153 Y123.951 E44.70683
G1 X105.153 Y157.545 E46.27111
G1 X105.113 Y158.292 E46.30594
G1 X104.994 Y159.03 E46.34075
G1 X104.796 Y159.752 E46.37561
G1 X104.523 Y160.448 E46.41042
G1 X104.176 Y161.111 E46.44527
G1 X103.761 Y161.734 E46.48012
G1 X103.103 Y162.495 E46.52697
G1 X102.986 Y162.612 E46.53467
G1 X102.429 Y163.112 E46.56952
G1 X101.823 Y163.549 E46.60431
G1 X101.173 Y163.92 E46.63916
G1 X100.487 Y164.219 E46.67401
G1 X99.773 Y164.443 E46.70885
G1 X99.04 Y164.59 E46.74366
G1 X98.036 Y164.662 E46.79054
G1 X94.27 Y164.662 E46.9659
G1 X93.523 Y164.622 E47.00073
G1 X92.785 Y164.503 E47.03554
G1 X92.063 Y164.305 E47.0704
G1 X91.367 Y164.032 E47.10521
G1 X90.704 Y163.685 E47.14006
G1 X90.081 Y163.27 E47.17491
G1 X89.32 Y162.612 E47.22176
G1 X89.203 Y162.495 E47.22946
G1 X88.703 Y161.938 E47.26431
G1 X88.266 Y161.332 E47.2991
G1 X87.895 Y160.682 E47.33395
G1 X87.596 Y159.996 E47.3688
G1 X87.372 Y159.282 E47.40364
G1 X87.225 Y158.549 E47.43845
G1 X87.153 Y157.545 E47.48533
G1 X87.153 Y113.068 E49.55636
G1 X87.193 Y112.321 E49.59119
G1 X87.312 Y111.583 E49.626
G1 X87.51 Y110.861 E49.66086
G1 X87.783 Y110.165 E49.69568
G1 X88.13 Y109.502 E49.73052
G1 X88.545 Y108.879 E49.76538
G1 X89.203 Y108.118 E49.81222
G1 X89.32 Y108.001 E49.81993
G1 X89.877 Y107.501 E49.85478
G1 X90.483 Y107.064 E49.88957
G1 X91.133 Y106.693 E49.92442
G1 X91.819 Y106.394 E49.95926
G1 X92.533 Y106.17 E49.99411
G1 X93.266 Y106.023 E50.02892
G1 X94.27 Y105.951 E50.07579
G1 X101.411 Y105.951 E50.40831
G1 X101.412 Y77.455 E51.7352
G1 X101.452 Y76.708 E51.77003
G1 X101.571 Y75.969 E51.80489
G1 X101.769 Y75.248 E51.8397
G1 X102.043 Y74.552 E51.87453
G1 X102.389 Y73.888 E51.9094
G1 X102.804 Y73.266 E51.94421
G0 F6000 X103.201 Y73.405
G1 F1200 X103.745 Y72.788 E51.98252
G1 X103.862 Y72.671 E51.99022
G1 X104.403 Y72.187 E52.02402
G1 X104.994 Y71.764 E52.05786
G1 X105.628 Y71.41 E52.09168
G1 X106.297 Y71.127 E52.1255
G1 X106.993 Y70.919 E52.15932
G1 X107.708 Y70.789 E52.19316
G1 X108.529 Y70.738 E52.23147
G1 X140.724 Y70.738 E53.7306
G1 X141.449 Y70.778 E53.76441
G1 X142.166 Y70.897 E53.79825
G1 X142.865 Y71.095 E53.83208
G1 X143.538 Y71.368 E53.8659
G1 X144.177 Y71.713 E53.89972
G1 X144.774 Y72.127 E53.93354
G1 X145.322 Y72.603 E53.96734
G1 X145.815 Y73.137 E54.00119
G1 X146.245 Y73.722 E54.03499
G1 X146.609 Y74.351 E54.06883
G1 X146.902 Y75.016 E54.10267
G1 X147.12 Y75.709 E54.1365
G1 X147.26 Y76.421 E54.17029
G1 X147.324 Y77.328 E54.21262
G1 X147.441 Y157.535 E57.9474
G1 X147.402 Y158.261 E57.98126
G1 X147.284 Y158.977 E58.01505
G1 X147.087 Y159.677 E58.04891
G1 X146.815 Y160.35 E58.08271
G1 X146.471 Y160.99 E58.11654
G1 X146.058 Y161.587 E58.15034
G1 X145.508 Y162.212 E58.18911
G1 X145.391 Y162.329 E58.19682
G1 X144.85 Y162.813 E58.23062
G1 X144.259 Y163.236 E58.26446
G1 X143.625 Y163.59 E58.29827
G1 X142.956 Y163.873 E58.33209
G1 X142.26 Y164.081 E58.36592
G1 X141.545 Y164.211 E58.39976
G1 X140.724 Y164.262 E58.43806
G1 X136.958 Y164.262 E58.61342
G1 X136.233 Y164.222 E58.64723
G1 X135.516 Y164.103 E58.68108
G1 X134.817 Y163.905 E58.7149
G1 X134.144 Y163.632 E58.74872
G1 X133.505 Y163.287 E58.78254
G1 X132.908 Y162.873 E58.81637
G1 X132.291 Y162.329 E58.85467
G1 X132.174 Y162.212 E58.86237
G1 X131.69 Y161.671 E58.89617
G1 X131.267 Y161.08 E58.93002
G1 X130.913 Y160.446 E58.96383
G1 X130.63 Y159.777 E58.99765
G1 X130.422 Y159.081 E59.03148
G1 X130.292 Y158.366 E59.06532
G1 X130.241 Y157.545 E59.10362
G1 X130.241 Y123.551 E60.68652
G1 X104.753 Y123.551 E61.87335
G1 X104.753 Y157.545 E63.45625
G1 X104.713 Y158.27 E63.49006
G1 X104.594 Y158.987 E63.52391
G1 X104.396 Y159.686 E63.55774
G1 X104.123 Y160.359 E63.59155
G1 X103.778 Y160.998 E63.62537
G1 X103.364 Y161.595 E63.6592
G1 X102.82 Y162.212 E63.6975
G1 X102.703 Y162.329 E63.7052
G1 X102.162 Y162.813 E63.739
G1 X101.571 Y163.236 E63.77285
G1 X100.937 Y163.59 E63.80666
G1 X100.268 Y163.873 E63.84048
G1 X99.572 Y164.081 E63.87431
G1 X98.857 Y164.211 E63.90815
G1 X98.036 Y164.262 E63.94645
G1 X94.27 Y164.262 E64.12181
G1 X93.545 Y164.222 E64.15562
G1 X92.828 Y164.103 E64.18946
G1 X92.129 Y163.905 E64.22329
G1 X91.456 Y163.632 E64.25711
G1 X90.817 Y163.287 E64.29093
G1 X90.22 Y162.873 E64.32475
G1 X89.603 Y162.329 E64.36306
G1 X89.486 Y162.212 E64.37076
G1 X89.002 Y161.671 E64.40456
G1 X88.579 Y161.08 E64.4384
G1 X88.225 Y160.446 E64.47222
G1 X87.942 Y159.777 E64.50604
G1 X87.734 Y159.081 E64.53987
G1 X87.604 Y158.366 E64.5737
G1 X87.553 Y157.545 E64.61201
G1 X87.553 Y113.068 E66.68304
G1 X87.593 Y112.343 E66.71685
G1 X87.712 Y111.626 E66.7507
G1 X87.91 Y110.927 E66.78453
G1 X88.183 Y110.254 E66.81834
G1 X88.528 Y109.615 E66.85216
G1 X88.942 Y109.018 E66.88599
G1 X89.486 Y108.401 E66.92429
G1 X89.603 Y108.284 E66.93199
G1 X90.144 Y107.8 E66.96579
G1 X90.735 Y107.377 E66.99964
G1 X91.369 Y107.023 E67.03345
G1 X92.038 Y106.74 E67.06727
G1 X92.734 Y106.532 E67.1011
G1 X93.449 Y106.402 E67.13494
G1 X94.27 Y106.351 E67.17324
G1 X101.811 Y106.351 E67.52438
G1 X101.812 Y77.455 E68.8699
G1 X101.852 Y76.73 E68.90371
G1 X101.971 Y76.013 E68.93755
G1 X102.169 Y75.314 E68.97138
G1 X102.442 Y74.641 E69.0052
G1 X102.787 Y74.002 E69.03901
G1 X103.201 Y73.405 E69.07284
G0 F6000 X103.186 Y74.119
G1 F1200 X103.598 Y73.548 E69.10563
G1 X104.028 Y73.071 E69.13553
G1 X104.145 Y72.954 E69.14324
G1 X104.67 Y72.485 E69.17602
G1 X105.245 Y72.079 E69.20879
G1 X105.863 Y71.741 E69.24159
G1 X106.514 Y71.474 E69.27436
G1 X107.192 Y71.284 E69.30714
G1 X107.887 Y71.171 E69.33993
G1 X108.529 Y71.138 E69.36986
G1 X140.724 Y71.138 E70.869
G1 X141.427 Y71.178 E70.90179
G1 X142.121 Y71.297 E70.93457
G1 X142.796 Y71.495 E70.96733
G1 X143.445 Y71.767 E71.0001
G1 X144.059 Y72.112 E71.03289
G1 X144.63 Y72.523 E71.06565
G1 X145.151 Y72.997 E71.09845
G1 X145.615 Y73.527 E71.13125
G1 X146.015 Y74.106 E71.16402
G1 X146.347 Y74.727 E71.19681
