;FLAVOR:Marlin
;TIME:2642
;Filament used: 3.04747m
;Layer height: 0.4
;MINX:82.2
;MINY:75.7
;MINZ:0.3
;MAXX:137.8
;MAXY:144.3
;MAXZ:34.7
;Generated with Cura_SteamEngine 4.5.0
M140 S60
M105
M190 S60
M104 S200
M105
M109 S200
M82 ;absolute extrusion mode
G28 ;Home
G29 ;ABL
G1 Z15.0 F2000 ;Move the platform
G92 E0
G92 E0
G1 F1500 E-6.5
;LAYER_COUNT:87
;LAYER:0
M107
M204 S1000
G0 F7500 X96.08 Y78.539 Z0.3
;TYPE:SKIRT
G1 F1500 E0
G1 X96.485 Y78.102 E0.02973
G1 X96.602 Y77.985 E0.03798
G1 X97.188 Y77.455 E0.0774
G1 X97.824 Y76.988 E0.11677
G1 X98.504 Y76.587 E0.15615
G1 X99.222 Y76.257 E0.19557
G1 X99.969 Y76.002 E0.23495
G1 X100.738 Y75.823 E0.27434
G1 X101.522 Y75.723 E0.31378
G1 X102.117 Y75.7 E0.34348
G1 X117.883 Y75.7 E1.13005
G1 X118.672 Y75.74 E1.16946
G1 X119.452 Y75.859 E1.20883
G1 X120.217 Y76.057 E1.24825
G1 X120.957 Y76.331 E1.28762
G1 X121.666 Y76.679 E1.32702
G1 X122.337 Y77.097 E1.36647
G1 X122.961 Y77.58 E1.40583
G1 X123.534 Y78.123 E1.44522
G1 X124.049 Y78.722 E1.48463
G1 X124.5 Y79.37 E1.52402
G1 X124.884 Y80.061 E1.56346
G1 X125.196 Y80.786 E1.60283
G1 X125.433 Y81.539 E1.64222
G1 X125.592 Y82.313 E1.68164
G1 X125.683 Y83.445 E1.7383
G1 X125.745 Y92.2 E2.1751
G1 X129.883 Y92.2 E2.38154
G1 X130.672 Y92.24 E2.42096
G1 X131.452 Y92.359 E2.46032
G1 X132.217 Y92.557 E2.49974
G1 X132.957 Y92.831 E2.53911
G1 X133.666 Y93.179 E2.57852
G1 X134.337 Y93.597 E2.61796
G1 X134.961 Y94.08 E2.65732
G1 X135.398 Y94.485 E2.68705
G1 X135.515 Y94.602 E2.6953
G1 X136.045 Y95.188 E2.73472
G1 X136.512 Y95.824 E2.77409
G1 X136.913 Y96.504 E2.81347
G1 X137.243 Y97.222 E2.8529
G1 X137.498 Y97.969 E2.89228
G1 X137.677 Y98.738 E2.93167
G1 X137.777 Y99.522 E2.9711
G1 X137.8 Y100.117 E3.00081
G1 X137.8 Y119.883 E3.98694
G1 X137.76 Y120.672 E4.02635
G1 X137.641 Y121.452 E4.06571
G1 X137.443 Y122.217 E4.10514
G1 X137.169 Y122.957 E4.14451
G1 X136.821 Y123.666 E4.18391
G1 X136.403 Y124.337 E4.22335
G1 X135.92 Y124.961 E4.26272
G1 X135.515 Y125.398 E4.29244
G1 X135.398 Y125.515 E4.3007
G1 X134.812 Y126.045 E4.34012
G1 X134.176 Y126.512 E4.37948
G1 X133.496 Y126.913 E4.41887
G1 X132.778 Y127.243 E4.45829
G1 X132.031 Y127.498 E4.49767
G1 X131.262 Y127.677 E4.53706
G1 X130.478 Y127.777 E4.57649
G1 X129.883 Y127.8 E4.6062
G1 X125.8 Y127.8 E4.8099
G1 X125.8 Y136.383 E5.23811
G1 X125.76 Y137.172 E5.27752
G1 X125.641 Y137.952 E5.31689
G1 X125.443 Y138.717 E5.35631
G1 X125.169 Y139.457 E5.39568
G1 X124.821 Y140.166 E5.43508
G1 X124.403 Y140.837 E5.47452
G1 X123.92 Y141.461 E5.51389
G1 X123.515 Y141.898 E5.54362
G1 X123.398 Y142.015 E5.55187
G1 X122.812 Y142.545 E5.59129
G1 X122.176 Y143.012 E5.63066
G1 X121.496 Y143.413 E5.67004
G1 X120.778 Y143.743 E5.70947
G1 X120.031 Y143.998 E5.74884
G1 X119.262 Y144.177 E5.78824
G1 X118.478 Y144.277 E5.82767
G1 X117.883 Y144.3 E5.85737
G1 X102.117 Y144.3 E6.64394
G1 X101.328 Y144.26 E6.68336
G1 X100.548 Y144.141 E6.72272
G1 X99.783 Y143.943 E6.76214
G1 X99.043 Y143.669 E6.80151
G1 X98.334 Y143.321 E6.84092
G1 X97.663 Y142.903 E6.88036
G1 X97.039 Y142.42 E6.91973
G1 X96.602 Y142.015 E6.94945
G1 X96.485 Y141.898 E6.95771
G1 X95.955 Y141.312 E6.99712
G1 X95.488 Y140.676 E7.03649
G1 X95.087 Y139.996 E7.07587
G1 X94.757 Y139.278 E7.1153
G1 X94.502 Y138.531 E7.15468
G1 X94.323 Y137.762 E7.19407
G1 X94.223 Y136.978 E7.2335
G1 X94.2 Y136.383 E7.26321
G1 X94.2 Y127.8 E7.69141
G1 X90.117 Y127.8 E7.89512
G1 X89.328 Y127.76 E7.93453
G1 X88.548 Y127.641 E7.97389
G1 X87.783 Y127.443 E8.01332
G1 X87.043 Y127.169 E8.05269
G1 X86.334 Y126.821 E8.09209
G1 X85.663 Y126.403 E8.13153
G1 X85.039 Y125.92 E8.1709
G1 X84.602 Y125.515 E8.20062
G1 X84.485 Y125.398 E8.20888
G1 X83.955 Y124.812 E8.2483
G1 X83.488 Y124.176 E8.28766
G1 X83.087 Y123.496 E8.32705
G1 X82.757 Y122.778 E8.36647
G1 X82.502 Y122.031 E8.40585
G1 X82.323 Y121.262 E8.44524
G1 X82.223 Y120.478 E8.48467
G1 X82.2 Y119.883 E8.51438
G1 X82.2 Y100.117 E9.50051
G1 X82.24 Y99.328 E9.53992
G1 X82.359 Y98.548 E9.57929
G1 X82.557 Y97.783 E9.61871
G1 X82.831 Y97.043 E9.65808
G1 X83.179 Y96.334 E9.69748
G1 X83.597 Y95.663 E9.73692
G1 X84.08 Y95.039 E9.77629
G1 X84.485 Y94.602 E9.80602
G1 X84.602 Y94.485 E9.81427
G1 X85.188 Y93.955 E9.85369
G1 X85.824 Y93.488 E9.89306
G1 X86.504 Y93.087 E9.93244
G1 X87.222 Y92.757 E9.97187
G1 X87.969 Y92.502 E10.01125
G1 X88.738 Y92.323 E10.05064
G1 X89.522 Y92.223 E10.09007
G1 X90.117 Y92.2 E10.11977
G1 X94.2 Y92.2 E10.32348
G1 X94.2 Y83.617 E10.75168
G1 X94.24 Y82.828 E10.7911
G1 X94.359 Y82.048 E10.83046
G1 X94.557 Y81.283 E10.86989
G1 X94.831 Y80.543 E10.90925
G1 X95.179 Y79.834 E10.94866
G1 X95.597 Y79.163 E10.9881
G1 X96.08 Y78.539 E11.02747
G0 F7500 X96.475 Y78.694
G1 F1500 X96.884 Y78.267 E11.05696
G1 X97.456 Y77.753 E11.09533
G1 X98.078 Y77.3 E11.13372
G1 X98.743 Y76.914 E11.17208
G1 X99.445 Y76.599 E11.21047
G1 X100.176 Y76.359 E11.24885
G1 X100.927 Y76.196 E11.28719
G1 X101.692 Y76.112 E11.32559
G1 X102.117 Y76.1 E11.3468
G1 X117.883 Y76.1 E12.13337
G1 X118.651 Y76.14 E12.17174
G1 X119.411 Y76.259 E12.21012
G1 X120.154 Y76.457 E12.24848
G1 X120.873 Y76.731 E12.28687
G1 X121.559 Y77.078 E12.32522
G1 X122.206 Y77.494 E12.36359
G1 X122.806 Y77.975 E12.40196
G1 X123.353 Y78.516 E12.44034
G1 X123.841 Y79.111 E12.47873
G1 X124.264 Y79.753 E12.51709
G1 X124.619 Y80.436 E12.55549
G1 X124.9 Y81.151 E12.59382
G1 X125.106 Y81.893 E12.63224
G1 X125.234 Y82.651 E12.67059
G1 X125.283 Y83.448 E12.71043
G1 X125.348 Y92.6 E13.16704
G1 X129.883 Y92.6 E13.39329
G1 X130.651 Y92.64 E13.43166
G1 X131.411 Y92.759 E13.47004
G1 X132.154 Y92.957 E13.5084
G1 X132.873 Y93.231 E13.54678
G1 X133.559 Y93.578 E13.58514
G1 X134.206 Y93.994 E13.62351
G1 X134.806 Y94.475 E13.66188
G1 X135.233 Y94.884 E13.69138
G1 X135.747 Y95.456 E13.72975
G1 X136.2 Y96.078 E13.76813
G1 X136.586 Y96.743 E13.8065
G1 X136.901 Y97.445 E13.84488
G1 X137.141 Y98.176 E13.88327
G1 X137.304 Y98.927 E13.92161
G1 X137.388 Y99.692 E13.96
G1 X137.4 Y100.117 E13.98121
G1 X137.4 Y119.883 E14.96734
G1 X137.36 Y120.651 E15.00571
G1 X137.241 Y121.411 E15.04409
G1 X137.043 Y122.154 E15.08245
G1 X136.769 Y122.873 E15.12084
G1 X136.422 Y123.559 E15.15919
G1 X136.006 Y124.206 E15.19757
G1 X135.525 Y124.806 E15.23594
G1 X135.116 Y125.233 E15.26543
G1 X134.544 Y125.747 E15.3038
G1 X133.922 Y126.2 E15.34219
G1 X133.257 Y126.586 E15.38055
G1 X132.555 Y126.901 E15.41894
G1 X131.824 Y127.141 E15.45732
G1 X131.073 Y127.304 E15.49566
G1 X130.308 Y127.388 E15.53406
G1 X129.883 Y127.4 E15.55527
G1 X125.4 Y127.4 E15.77893
G1 X125.4 Y136.383 E16.22709
G1 X125.36 Y137.151 E16.26546
G1 X125.241 Y137.911 E16.30384
G1 X125.043 Y138.654 E16.3422
G1 X124.769 Y139.373 E16.38059
G1 X124.422 Y140.059 E16.41894
G1 X124.006 Y140.706 E16.45732
G1 X123.525 Y141.306 E16.49568
G1 X123.116 Y141.733 E16.52518
G1 X122.544 Y142.247 E16.56355
G1 X121.922 Y142.7 E16.60194
G1 X121.257 Y143.086 E16.6403
G1 X120.555 Y143.401 E16.67868
G1 X119.824 Y143.641 E16.71707
G1 X119.073 Y143.804 E16.75541
G1 X118.308 Y143.888 E16.79381
G1 X117.883 Y143.9 E16.81502
G1 X102.117 Y143.9 E17.60159
G1 X101.349 Y143.86 E17.63995
G1 X100.589 Y143.741 E17.67833
G1 X99.846 Y143.543 E17.71669
G1 X99.127 Y143.269 E17.75508
G1 X98.441 Y142.922 E17.79344
G1 X97.794 Y142.506 E17.83181
G1 X97.194 Y142.025 E17.87018
G1 X96.767 Y141.616 E17.89968
G1 X96.253 Y141.044 E17.93804
G1 X95.8 Y140.422 E17.97643
G1 X95.414 Y139.757 E18.01479
G1 X95.099 Y139.055 E18.05318
G1 X94.859 Y138.324 E18.09156
G1 X94.696 Y137.573 E18.1299
G1 X94.612 Y136.808 E18.1683
G1 X94.6 Y136.383 E18.18951
G1 X94.6 Y127.4 E18.63768
G1 X90.117 Y127.4 E18.86133
G1 X89.349 Y127.36 E18.8997
G1 X88.589 Y127.241 E18.93808
G1 X87.846 Y127.043 E18.97644
G1 X87.127 Y126.769 E19.01483
G1 X86.441 Y126.422 E19.05318
G1 X85.794 Y126.006 E19.09156
G1 X85.194 Y125.525 E19.12992
G1 X84.767 Y125.116 E19.15942
G1 X84.253 Y124.544 E19.19779
G1 X83.8 Y123.922 E19.23618
G1 X83.414 Y123.257 E19.27454
G1 X83.099 Y122.555 E19.31293
G1 X82.859 Y121.824 E19.35131
G1 X82.696 Y121.073 E19.38965
G1 X82.612 Y120.308 E19.42805
G1 X82.6 Y119.883 E19.44926
G1 X82.6 Y100.117 E20.43539
G1 X82.64 Y99.349 E20.47376
G1 X82.759 Y98.589 E20.51213
G1 X82.957 Y97.846 E20.5505
G1 X83.231 Y97.127 E20.58888
G1 X83.578 Y96.441 E20.62724
G1 X83.994 Y95.794 E20.66561
G1 X84.475 Y95.194 E20.70398
G1 X84.884 Y94.767 E20.73348
G1 X85.456 Y94.253 E20.77184
G1 X86.078 Y93.8 E20.81023
G1 X86.743 Y93.414 E20.84859
G1 X87.445 Y93.099 E20.88698
G1 X88.176 Y92.859 E20.92537
G1 X88.927 Y92.696 E20.96371
G1 X89.692 Y92.612 E21.0021
G1 X90.117 Y92.6 E21.02331
G1 X94.6 Y92.6 E21.24697
G1 X94.6 Y83.617 E21.69514
G1 X94.64 Y82.849 E21.7335
G1 X94.759 Y82.089 E21.77188
G1 X94.957 Y81.346 E21.81024
G1 X95.231 Y80.627 E21.84863
G1 X95.578 Y79.941 E21.88699
G1 X95.994 Y79.294 E21.92536
G1 X96.475 Y78.694 E21.96373
G0 F7500 X96.392 Y79.428
G1 F1500 X97.05 Y78.667 E22.01392
G1 X97.167 Y78.55 E22.02217
G1 X97.724 Y78.05 E22.05951
G1 X98.33 Y77.613 E22.09679
G1 X98.98 Y77.242 E22.13413
G1 X99.666 Y76.943 E22.17146
G1 X100.38 Y76.719 E22.2088
G1 X101.113 Y76.572 E22.24609
G1 X102.117 Y76.5 E22.29631
G1 X117.883 Y76.5 E23.08288
G1 X118.63 Y76.54 E23.1202
G1 X119.368 Y76.659 E23.1575
G1 X120.09 Y76.857 E23.19485
G1 X120.786 Y77.13 E23.23215
G1 X121.449 Y77.477 E23.26948
G1 X122.072 Y77.892 E23.30683
G1 X122.646 Y78.371 E23.34412
G1 X123.167 Y78.908 E23.38145
G1 X123.626 Y79.498 E23.41875
G1 X124.021 Y80.134 E23.4561
G1 X124.345 Y80.808 E23.49341
G1 X124.595 Y81.513 E23.53073
G1 X124.769 Y82.241 E23.56807
G1 X124.864 Y82.983 E23.60539
G1 X124.883 Y83.45 E23.62871
G1 X124.951 Y93 E24.10517
G1 X129.883 Y93 E24.35123
G1 X130.63 Y93.04 E24.38855
G1 X131.368 Y93.159 E24.42585
G1 X132.09 Y93.357 E24.4632
G1 X132.786 Y93.63 E24.5005
G1 X133.449 Y93.977 E24.53783
G1 X134.072 Y94.392 E24.57518
G1 X134.833 Y95.05 E24.62537
G1 X134.95 Y95.167 E24.63362
G1 X135.45 Y95.724 E24.67096
G1 X135.887 Y96.33 E24.70824
G1 X136.258 Y96.98 E24.74558
G1 X136.557 Y97.666 E24.78291
G1 X136.781 Y98.38 E24.82025
G1 X136.928 Y99.113 E24.85754
G1 X137 Y100.117 E24.90776
G1 X137 Y119.883 E25.89389
G1 X136.96 Y120.63 E25.93121
G1 X136.841 Y121.368 E25.96851
G1 X136.643 Y122.09 E26.00586
G1 X136.37 Y122.786 E26.04316
G1 X136.023 Y123.449 E26.08049
G1 X135.608 Y124.072 E26.11784
G1 X134.95 Y124.833 E26.16803
G1 X134.833 Y124.95 E26.17628
G1 X134.276 Y125.45 E26.21363
G1 X133.67 Y125.887 E26.2509
G1 X133.02 Y126.258 E26.28824
G1 X132.334 Y126.557 E26.32557
G1 X131.62 Y126.781 E26.36291
G1 X130.887 Y126.928 E26.4002
G1 X129.883 Y127 E26.45042
G1 X125 Y127 E26.69404
G1 X125 Y136.383 E27.16216
G1 X124.96 Y137.13 E27.19948
G1 X124.841 Y137.868 E27.23677
G1 X124.643 Y138.59 E27.27412
G1 X124.37 Y139.286 E27.31142
G1 X124.023 Y139.949 E27.34876
G1 X123.608 Y140.572 E27.3861
G1 X122.95 Y141.333 E27.43629
G1 X122.833 Y141.45 E27.44455
G1 X122.276 Y141.95 E27.48189
G1 X121.67 Y142.387 E27.51917
G1 X121.02 Y142.758 E27.5565
G1 X120.334 Y143.057 E27.59384
G1 X119.62 Y143.281 E27.63117
G1 X118.887 Y143.428 E27.66847
G1 X117.883 Y143.5 E27.71869
G1 X102.117 Y143.5 E28.50526
G1 X101.37 Y143.46 E28.54258
G1 X100.632 Y143.341 E28.57987
G1 X99.91 Y143.143 E28.61722
G1 X99.214 Y142.87 E28.65452
G1 X98.551 Y142.523 E28.69186
G1 X97.928 Y142.108 E28.7292
G1 X97.167 Y141.45 E28.77939
G1 X97.05 Y141.333 E28.78765
G1 X96.55 Y140.776 E28.82499
G1 X96.113 Y140.17 E28.86227
G1 X95.742 Y139.52 E28.89961
G1 X95.443 Y138.834 E28.93694
G1 X95.219 Y138.12 E28.97427
G1 X95.072 Y137.387 E29.01157
G1 X95 Y136.383 E29.06179
G1 X95 Y127 E29.52991
G1 X90.117 Y127 E29.77352
G1 X89.37 Y126.96 E29.81084
G1 X88.632 Y126.841 E29.84814
G1 X87.91 Y126.643 E29.88549
G1 X87.214 Y126.37 E29.92279
G1 X86.551 Y126.023 E29.96012
G1 X85.928 Y125.608 E29.99747
G1 X85.167 Y124.95 E30.04766
G1 X85.05 Y124.833 E30.05591
G1 X84.55 Y124.276 E30.09326
G1 X84.113 Y123.67 E30.13053
G1 X83.742 Y123.02 E30.16787
G1 X83.443 Y122.334 E30.2052
G1 X83.219 Y121.62 E30.24254
G1 X83.072 Y120.887 E30.27984
G1 X83 Y119.883 E30.33005
G1 X83 Y100.117 E31.31618
G1 X83.04 Y99.37 E31.35351
G1 X83.159 Y98.632 E31.3908
G1 X83.357 Y97.91 E31.42815
G1 X83.63 Y97.214 E31.46545
G1 X83.977 Y96.551 E31.50278
G1 X84.392 Y95.928 E31.54013
G1 X85.05 Y95.167 E31.59032
G1 X85.167 Y95.05 E31.59858
G1 X85.724 Y94.55 E31.63592
G1 X86.33 Y94.113 E31.67319
G1 X86.98 Y93.742 E31.71053
G1 X87.666 Y93.443 E31.74787
G1 X88.38 Y93.219 E31.7852
G1 X89.113 Y93.072 E31.8225
G1 X90.117 Y93 E31.87272
G1 X95 Y93 E32.11633
G1 X95 Y83.617 E32.58445
G1 X95.04 Y82.87 E32.62177
G1 X95.159 Y82.132 E32.65907
G1 X95.357 Y81.41 E32.69642
G1 X95.63 Y80.714 E32.73372
G1 X95.977 Y80.051 E32.77105
G1 X96.392 Y79.428 E32.8084
G0 F7500 X96.789 Y79.567
G1 F1500 X97.333 Y78.95 E32.84943
G1 X97.45 Y78.833 E32.85769
G1 X97.991 Y78.349 E32.8939
G1 X98.582 Y77.926 E32.93016
G1 X99.216 Y77.572 E32.96639
G1 X99.885 Y77.289 E33.00263
G1 X100.581 Y77.081 E33.03887
G1 X101.296 Y76.951 E33.07513
G1 X102.117 Y76.9 E33.11617
G1 X117.883 Y76.9 E33.90274
G1 X118.608 Y76.94 E33.93896
G1 X119.325 Y77.059 E33.97522
G1 X120.024 Y77.257 E34.01147
G1 X120.697 Y77.53 E34.0477
G1 X121.336 Y77.875 E34.08393
G1 X121.933 Y78.289 E34.12017
G1 X122.481 Y78.765 E34.15639
G1 X122.974 Y79.299 E34.19265
G1 X123.404 Y79.884 E34.22887
G1 X123.768 Y80.513 E34.26513
G1 X124.061 Y81.178 E34.30138
G1 X124.279 Y81.871 E34.33762
G1 X124.419 Y82.583 E34.37383
G1 X124.483 Y83.453 E34.41735
G1 X124.554 Y93.4 E34.91362
G1 X129.883 Y93.4 E35.17948
G1 X130.608 Y93.44 E35.21571
G1 X131.325 Y93.559 E35.25197
G1 X132.024 Y93.757 E35.28822
G1 X132.697 Y94.03 E35.32445
G1 X133.336 Y94.375 E35.36068
G1 X133.933 Y94.789 E35.39692
G1 X134.55 Y95.333 E35.43796
G1 X134.667 Y95.45 E35.44622
G1 X135.151 Y95.991 E35.48243
G1 X135.574 Y96.582 E35.51869
G1 X135.928 Y97.216 E35.55492
G1 X136.211 Y97.885 E35.59116
G1 X136.419 Y98.581 E35.6274
G1 X136.549 Y99.296 E35.66366
G1 X136.6 Y100.117 E35.70469
G1 X136.6 Y119.883 E36.69082
G1 X136.56 Y120.608 E36.72705
G1 X136.441 Y121.325 E36.76331
G1 X136.243 Y122.024 E36.79956
G1 X135.97 Y122.697 E36.83579
G1 X135.625 Y123.336 E36.87202
G1 X135.211 Y123.933 E36.90826
G1 X134.667 Y124.55 E36.9493
G1 X134.55 Y124.667 E36.95756
G1 X134.009 Y125.151 E36.99377
G1 X133.418 Y125.574 E37.03003
G1 X132.784 Y125.928 E37.06626
G1 X132.115 Y126.211 E37.1025
G1 X131.419 Y126.419 E37.13874
G1 X130.704 Y126.549 E37.175
G1 X129.883 Y126.6 E37.21604
G1 X124.6 Y126.6 E37.47961
G1 X124.6 Y136.383 E37.96768
G1 X124.56 Y137.108 E38.00391
G1 X124.441 Y137.825 E38.04017
G1 X124.243 Y138.524 E38.07641
G1 X123.97 Y139.197 E38.11265
G1 X123.625 Y139.836 E38.14888
G1 X123.211 Y140.433 E38.18512
G1 X122.667 Y141.05 E38.22616
G1 X122.55 Y141.167 E38.23441
G1 X122.009 Y141.651 E38.27063
G1 X121.418 Y142.074 E38.30689
G1 X120.784 Y142.428 E38.34312
G1 X120.115 Y142.711 E38.37936
G1 X119.419 Y142.919 E38.4156
G1 X118.704 Y143.049 E38.45185
G1 X117.883 Y143.1 E38.49289
G1 X102.117 Y143.1 E39.27946
G1 X101.392 Y143.06 E39.31569
G1 X100.675 Y142.941 E39.35195
G1 X99.976 Y142.743 E39.38819
G1 X99.303 Y142.47 E39.42443
G1 X98.664 Y142.125 E39.46066
G1 X98.067 Y141.711 E39.4969
G1 X97.45 Y141.167 E39.53794
G1 X97.333 Y141.05 E39.54619
G1 X96.849 Y140.509 E39.58241
G1 X96.426 Y139.918 E39.61867
G1 X96.072 Y139.284 E39.6549
G1 X95.789 Y138.615 E39.69114
G1 X95.581 Y137.919 E39.72738
G1 X95.451 Y137.204 E39.76363
G1 X95.4 Y136.383 E39.80467
G1 X95.4 Y126.6 E40.29275
G1 X90.117 Y126.6 E40.55632
G1 X89.392 Y126.56 E40.59254
G1 X88.675 Y126.441 E40.6288
G1 X87.976 Y126.243 E40.66505
G1 X87.303 Y125.97 E40.70128
G1 X86.664 Y125.625 E40.73751
G1 X86.067 Y125.211 E40.77376
G1 X85.45 Y124.667 E40.8148
G1 X85.333 Y124.55 E40.82305
G1 X84.849 Y124.009 E40.85927
G1 X84.426 Y123.418 E40.89553
G1 X84.072 Y122.784 E40.93175
G1 X83.789 Y122.115 E40.96799
G1 X83.581 Y121.419 E41.00423
G1 X83.451 Y120.704 E41.04049
G1 X83.4 Y119.883 E41.08153
G1 X83.4 Y100.117 E42.06766
G1 X83.44 Y99.392 E42.10388
G1 X83.559 Y98.675 E42.14014
G1 X83.757 Y97.976 E42.17639
G1 X84.03 Y97.303 E42.21262
G1 X84.375 Y96.664 E42.24885
G1 X84.789 Y96.067 E42.2851
G1 X85.333 Y95.45 E42.32614
