;FLAVOR:Marlin
;TIME:6148
;Filament used: 7.75102m
;Layer height: 0.4
;MINX:56.424
;MINY:75.2
;MINZ:0.3
;MAXX:163.576
;MAXY:144.8
;MAXZ:27.9
;Generated with Cura_SteamEngine 4.5.0
M140 S60
M105
M190 S60
M104 S200
M105
M109 S200
M82 ;absolute extrusion mode
G28 ;Home
G29 ;ABL
G1 Z15.0 F2000 ;Move the platform
G92 E0
G92 E0
G1 F1500 E-6.5
;LAYER_COUNT:70
;LAYER:0
M107
M204 S1000
G0 F7500 X59.412 Y76.955 Z0.3
;TYPE:SKIRT
G1 F1500 E0
G1 X60.048 Y76.488 E0.03937
G1 X60.728 Y76.087 E0.07875
G1 X61.446 Y75.757 E0.11817
G1 X62.193 Y75.502 E0.15755
G1 X62.962 Y75.323 E0.19694
G1 X63.746 Y75.223 E0.23638
G1 X64.341 Y75.2 E0.26608
G1 X68.095 Y75.2 E0.45337
G1 X68.884 Y75.24 E0.49278
G1 X69.664 Y75.359 E0.53215
G1 X70.429 Y75.557 E0.57157
G1 X71.169 Y75.831 E0.61094
G1 X71.878 Y76.179 E0.65034
G1 X72.549 Y76.597 E0.68978
G1 X73.384 Y77.267 E0.7432
G1 X73.5 Y77.374 E0.75107
G1 X74.052 Y77.938 E0.79044
G1 X74.545 Y78.555 E0.82984
G1 X74.973 Y79.219 E0.86926
G1 X75.331 Y79.922 E0.90861
G1 X75.617 Y80.658 E0.94801
G1 X75.826 Y81.42 E0.98743
G1 X75.958 Y82.198 E1.0268
G1 X76.011 Y83.105 E1.07213
G1 X76.022 Y125.2 E3.17225
G1 X97.772 Y125.2 E4.25737
G1 X97.772 Y83.117 E6.35689
G1 X97.812 Y82.328 E6.39631
G1 X97.931 Y81.548 E6.43567
G1 X98.129 Y80.783 E6.4751
G1 X98.403 Y80.043 E6.51447
G1 X98.751 Y79.334 E6.55387
G1 X99.169 Y78.663 E6.59331
G1 X99.652 Y78.039 E6.63268
G1 X100.057 Y77.602 E6.6624
G1 X100.174 Y77.485 E6.67066
G1 X100.76 Y76.955 E6.71008
G1 X101.396 Y76.488 E6.74944
G1 X102.076 Y76.087 E6.78883
G1 X102.794 Y75.757 E6.82825
G1 X103.541 Y75.502 E6.86763
G1 X104.31 Y75.323 E6.90702
G1 X105.094 Y75.223 E6.94645
G1 X105.689 Y75.2 E6.97616
G1 X109.433 Y75.2 E7.16295
G1 X110.222 Y75.24 E7.20236
G1 X111.002 Y75.359 E7.24173
G1 X111.767 Y75.557 E7.28115
G1 X112.507 Y75.831 E7.32052
G1 X113.216 Y76.179 E7.35992
G1 X113.887 Y76.597 E7.39936
G1 X114.511 Y77.08 E7.43873
G1 X114.948 Y77.485 E7.46846
G1 X115.065 Y77.602 E7.47671
G1 X115.595 Y78.188 E7.51613
G1 X116.062 Y78.824 E7.5555
G1 X116.463 Y79.504 E7.59488
G1 X116.793 Y80.222 E7.6343
G1 X117.048 Y80.969 E7.67368
G1 X117.227 Y81.738 E7.71307
G1 X117.327 Y82.522 E7.75251
G1 X117.35 Y83.108 E7.78176
G1 X117.363 Y95.2 E8.38504
G1 X155.659 Y95.2 E10.29563
G1 X156.448 Y95.24 E10.33505
G1 X157.228 Y95.359 E10.37441
G1 X157.993 Y95.557 E10.41383
G1 X158.733 Y95.831 E10.4532
G1 X159.442 Y96.179 E10.49261
G1 X160.113 Y96.597 E10.53205
G1 X160.737 Y97.08 E10.57141
G1 X161.174 Y97.485 E10.60114
G1 X161.291 Y97.602 E10.60939
G1 X161.821 Y98.188 E10.64881
G1 X162.288 Y98.824 E10.68818
G1 X162.689 Y99.504 E10.72756
G1 X163.019 Y100.222 E10.76699
G1 X163.274 Y100.969 E10.80637
G1 X163.453 Y101.738 E10.84576
G1 X163.553 Y102.522 E10.88519
G1 X163.576 Y103.117 E10.9149
G1 X163.576 Y119.883 E11.75135
G1 X163.536 Y120.672 E11.79077
G1 X163.417 Y121.452 E11.83013
G1 X163.219 Y122.217 E11.86956
G1 X162.945 Y122.957 E11.90893
G1 X162.597 Y123.666 E11.94833
G1 X162.179 Y124.337 E11.98777
G1 X161.696 Y124.961 E12.02714
G1 X161.291 Y125.398 E12.05686
G1 X161.174 Y125.515 E12.06512
G1 X160.588 Y126.045 E12.10454
G1 X159.952 Y126.512 E12.1439
G1 X159.272 Y126.913 E12.18329
G1 X158.554 Y127.243 E12.22271
G1 X157.807 Y127.498 E12.26209
G1 X157.038 Y127.677 E12.30148
G1 X156.254 Y127.777 E12.34091
G1 X155.659 Y127.8 E12.37062
G1 X117.372 Y127.8 E14.28076
G1 X117.372 Y136.883 E14.73392
G1 X117.332 Y137.672 E14.77333
G1 X117.213 Y138.452 E14.8127
G1 X117.015 Y139.217 E14.85212
G1 X116.741 Y139.957 E14.89149
G1 X116.393 Y140.666 E14.93089
G1 X115.975 Y141.337 E14.97033
G1 X115.492 Y141.961 E15.0097
G1 X115.087 Y142.398 E15.03943
G1 X114.97 Y142.515 E15.04768
G1 X114.384 Y143.045 E15.0871
G1 X113.748 Y143.512 E15.12647
G1 X113.068 Y143.913 E15.16585
G1 X112.35 Y144.243 E15.20527
G1 X111.603 Y144.498 E15.24465
G1 X110.834 Y144.677 E15.28404
G1 X110.05 Y144.777 E15.32348
G1 X109.455 Y144.8 E15.35318
G1 X64.341 Y144.8 E17.60393
G1 X63.552 Y144.76 E17.64334
G1 X62.772 Y144.641 E17.68271
G1 X62.007 Y144.443 E17.72213
G1 X61.267 Y144.169 E17.7615
G1 X60.558 Y143.821 E17.8009
G1 X59.887 Y143.403 E17.84034
G1 X59.263 Y142.92 E17.87971
G1 X58.826 Y142.515 E17.90944
G1 X58.709 Y142.398 E17.91769
G1 X58.179 Y141.812 E17.95711
G1 X57.712 Y141.176 E17.99648
G1 X57.311 Y140.496 E18.03586
G1 X56.981 Y139.778 E18.07528
G1 X56.726 Y139.031 E18.11466
G1 X56.547 Y138.262 E18.15405
G1 X56.447 Y137.478 E18.19349
G1 X56.424 Y136.883 E18.22319
G1 X56.424 Y83.117 E20.90559
G1 X56.464 Y82.328 E20.945
G1 X56.583 Y81.548 E20.98437
G1 X56.781 Y80.783 E21.02379
G1 X57.055 Y80.043 E21.06316
G1 X57.403 Y79.334 E21.10256
G1 X57.821 Y78.663 E21.142
G1 X58.304 Y78.039 E21.18137
G1 X58.709 Y77.602 E21.2111
G1 X58.826 Y77.485 E21.21935
G1 X59.412 Y76.955 E21.25877
G0 F7500 X59.68 Y77.253
G1 F1500 X60.302 Y76.8 E21.29716
G1 X60.967 Y76.414 E21.33552
G1 X61.669 Y76.099 E21.37391
G1 X62.4 Y75.859 E21.41229
G1 X63.151 Y75.696 E21.45063
G1 X63.916 Y75.612 E21.48903
G1 X64.341 Y75.6 E21.51024
G1 X68.095 Y75.6 E21.69753
G1 X68.863 Y75.64 E21.7359
G1 X69.623 Y75.759 E21.77427
G1 X70.366 Y75.957 E21.81264
G1 X71.085 Y76.231 E21.85102
G1 X71.771 Y76.578 E21.88938
G1 X72.418 Y76.994 E21.92775
G1 X73.112 Y77.561 E21.97246
G1 X73.228 Y77.668 E21.98034
G1 X73.766 Y78.218 E22.01872
G1 X74.243 Y78.821 E22.05708
G1 X74.656 Y79.47 E22.09546
G1 X74.998 Y80.159 E22.13384
G1 X75.268 Y80.879 E22.1722
G1 X75.461 Y81.624 E22.21059
G1 X75.576 Y82.384 E22.24894
G1 X75.611 Y83.105 E22.28496
G1 X75.622 Y125.6 E24.40504
G1 X98.172 Y125.6 E25.53006
G1 X98.172 Y83.117 E27.64955
G1 X98.212 Y82.349 E27.68792
G1 X98.331 Y81.589 E27.7263
G1 X98.529 Y80.846 E27.76466
G1 X98.803 Y80.127 E27.80304
G1 X99.15 Y79.441 E27.8414
G1 X99.566 Y78.794 E27.87977
G1 X100.047 Y78.194 E27.91814
G1 X100.456 Y77.767 E27.94764
G1 X101.028 Y77.253 E27.986
G1 X101.65 Y76.8 E28.02439
G1 X102.315 Y76.414 E28.06276
G1 X103.017 Y76.099 E28.10114
G1 X103.748 Y75.859 E28.13953
G1 X104.499 Y75.696 E28.17787
G1 X105.264 Y75.612 E28.21626
G1 X105.689 Y75.6 E28.23747
G1 X109.433 Y75.6 E28.42426
G1 X110.201 Y75.64 E28.46263
G1 X110.961 Y75.759 E28.50101
G1 X111.704 Y75.957 E28.53937
G1 X112.423 Y76.231 E28.57776
G1 X113.109 Y76.578 E28.61611
G1 X113.756 Y76.994 E28.65449
G1 X114.356 Y77.475 E28.69285
G1 X114.783 Y77.884 E28.72235
G1 X115.297 Y78.456 E28.76072
G1 X115.75 Y79.078 E28.79911
G1 X116.136 Y79.743 E28.83747
G1 X116.451 Y80.445 E28.87586
G1 X116.691 Y81.176 E28.91424
G1 X116.854 Y81.927 E28.95258
G1 X116.938 Y82.692 E28.99098
G1 X116.95 Y83.109 E29.01179
G1 X116.964 Y95.6 E29.63497
G1 X155.659 Y95.6 E31.56547
G1 X156.427 Y95.64 E31.60384
G1 X157.187 Y95.759 E31.64222
G1 X157.93 Y95.957 E31.68058
G1 X158.649 Y96.231 E31.71897
G1 X159.335 Y96.578 E31.75732
G1 X159.982 Y96.994 E31.7957
G1 X160.582 Y97.475 E31.83406
G1 X161.009 Y97.884 E31.86356
G1 X161.523 Y98.456 E31.90193
G1 X161.976 Y99.078 E31.94032
G1 X162.362 Y99.743 E31.97868
G1 X162.677 Y100.445 E32.01706
G1 X162.917 Y101.176 E32.05545
G1 X163.08 Y101.927 E32.09379
G1 X163.164 Y102.692 E32.13218
G1 X163.176 Y103.117 E32.1534
G1 X163.176 Y119.883 E32.98986
G1 X163.136 Y120.651 E33.02822
G1 X163.017 Y121.411 E33.0666
G1 X162.819 Y122.154 E33.10496
G1 X162.545 Y122.873 E33.14335
G1 X162.198 Y123.559 E33.1817
G1 X161.782 Y124.206 E33.22008
G1 X161.301 Y124.806 E33.25845
G1 X160.892 Y125.233 E33.28794
G1 X160.32 Y125.747 E33.32631
G1 X159.698 Y126.2 E33.3647
G1 X159.033 Y126.586 E33.40306
G1 X158.331 Y126.901 E33.44145
G1 X157.6 Y127.141 E33.47983
G1 X156.849 Y127.304 E33.51817
G1 X156.084 Y127.388 E33.55657
G1 X155.659 Y127.4 E33.57778
G1 X116.972 Y127.4 E35.50788
G1 X116.972 Y136.883 E35.98099
G1 X116.932 Y137.651 E36.01936
G1 X116.813 Y138.411 E36.05774
G1 X116.615 Y139.154 E36.0961
G1 X116.341 Y139.873 E36.13449
G1 X115.994 Y140.559 E36.17284
G1 X115.578 Y141.206 E36.21122
G1 X115.097 Y141.806 E36.24958
G1 X114.688 Y142.233 E36.27908
G1 X114.116 Y142.747 E36.31745
G1 X113.494 Y143.2 E36.35584
G1 X112.829 Y143.586 E36.3942
G1 X112.127 Y143.901 E36.43259
G1 X111.396 Y144.141 E36.47097
G1 X110.645 Y144.304 E36.50931
G1 X109.88 Y144.388 E36.54771
G1 X109.455 Y144.4 E36.56892
G1 X64.341 Y144.4 E38.81966
G1 X63.573 Y144.36 E38.85803
G1 X62.813 Y144.241 E38.89641
G1 X62.07 Y144.043 E38.93477
G1 X61.351 Y143.769 E38.97316
G1 X60.665 Y143.422 E39.01151
G1 X60.018 Y143.006 E39.04989
G1 X59.418 Y142.525 E39.08825
G1 X58.991 Y142.116 E39.11775
G1 X58.477 Y141.544 E39.15612
G1 X58.024 Y140.922 E39.19451
G1 X57.638 Y140.257 E39.23287
G1 X57.323 Y139.555 E39.27126
G1 X57.083 Y138.824 E39.30964
G1 X56.92 Y138.073 E39.34798
G1 X56.836 Y137.308 E39.38638
G1 X56.824 Y136.883 E39.40759
G1 X56.824 Y83.117 E42.08999
G1 X56.864 Y82.349 E42.12835
G1 X56.983 Y81.589 E42.16673
G1 X57.181 Y80.846 E42.20509
G1 X57.455 Y80.127 E42.24348
G1 X57.802 Y79.441 E42.28184
G1 X58.218 Y78.794 E42.32021
G1 X58.699 Y78.194 E42.35858
G1 X59.108 Y77.767 E42.38808
G1 X59.68 Y77.253 E42.42644
G0 F7500 X59.948 Y77.55
G1 F1500 X60.554 Y77.113 E42.46372
G1 X61.204 Y76.742 E42.50106
G1 X61.89 Y76.443 E42.53839
G1 X62.604 Y76.219 E42.57572
G1 X63.337 Y76.072 E42.61302
G1 X64.341 Y76 E42.66324
G1 X68.095 Y76 E42.85053
G1 X68.842 Y76.04 E42.88785
G1 X69.58 Y76.159 E42.92514
G1 X70.302 Y76.357 E42.96249
G1 X70.998 Y76.63 E42.99979
G1 X71.661 Y76.977 E43.03713
G1 X72.284 Y77.392 E43.07447
G1 X72.841 Y77.855 E43.11061
G1 X72.957 Y77.962 E43.11848
G1 X73.479 Y78.498 E43.15581
G1 X73.941 Y79.086 E43.19312
G1 X74.337 Y79.72 E43.23041
G1 X74.664 Y80.394 E43.26778
G1 X74.916 Y81.098 E43.30509
G1 X75.093 Y81.825 E43.34242
G1 X75.19 Y82.566 E43.3797
G1 X75.211 Y83.105 E43.40661
G1 X75.222 Y126 E45.54665
G1 X98.572 Y126 E46.71159
G1 X98.572 Y83.117 E48.85103
G1 X98.612 Y82.37 E48.88835
G1 X98.731 Y81.632 E48.92565
G1 X98.929 Y80.91 E48.963
G1 X99.202 Y80.214 E49.0003
G1 X99.549 Y79.551 E49.03763
G1 X99.964 Y78.928 E49.07498
G1 X100.622 Y78.167 E49.12517
G1 X100.739 Y78.05 E49.13342
G1 X101.296 Y77.55 E49.17077
G1 X101.902 Y77.113 E49.20804
G1 X102.552 Y76.742 E49.24538
G1 X103.238 Y76.443 E49.28271
G1 X103.952 Y76.219 E49.32005
G1 X104.685 Y76.072 E49.35735
G1 X105.689 Y76 E49.40756
G1 X109.433 Y76 E49.59435
G1 X110.18 Y76.04 E49.63167
G1 X110.918 Y76.159 E49.66897
G1 X111.64 Y76.357 E49.70632
G1 X112.336 Y76.63 E49.74362
G1 X112.999 Y76.977 E49.78095
G1 X113.622 Y77.392 E49.8183
G1 X114.383 Y78.05 E49.86849
G1 X114.5 Y78.167 E49.87674
G1 X115 Y78.724 E49.91409
G1 X115.437 Y79.33 E49.95136
G1 X115.808 Y79.98 E49.9887
G1 X116.107 Y80.666 E50.02604
G1 X116.331 Y81.38 E50.06337
G1 X116.478 Y82.113 E50.10067
G1 X116.55 Y83.109 E50.15049
G1 X116.564 Y96 E50.79362
G1 X155.659 Y96 E52.74408
G1 X156.406 Y96.04 E52.7814
G1 X157.144 Y96.159 E52.81869
G1 X157.866 Y96.357 E52.85605
G1 X158.562 Y96.63 E52.89334
G1 X159.225 Y96.977 E52.93068
G1 X159.848 Y97.392 E52.96802
G1 X160.609 Y98.05 E53.01822
G1 X160.726 Y98.167 E53.02647
G1 X161.226 Y98.724 E53.06381
G1 X161.663 Y99.33 E53.10109
G1 X162.034 Y99.98 E53.13843
G1 X162.333 Y100.666 E53.17576
G1 X162.557 Y101.38 E53.21309
G1 X162.704 Y102.113 E53.25039
G1 X162.776 Y103.117 E53.30061
G1 X162.776 Y119.883 E54.13707
G1 X162.736 Y120.63 E54.17439
G1 X162.617 Y121.368 E54.21169
G1 X162.419 Y122.09 E54.24904
G1 X162.146 Y122.786 E54.28634
G1 X161.799 Y123.449 E54.32367
G1 X161.384 Y124.072 E54.36102
G1 X160.726 Y124.833 E54.41121
G1 X160.609 Y124.95 E54.41946
G1 X160.052 Y125.45 E54.4568
G1 X159.446 Y125.887 E54.49408
G1 X158.796 Y126.258 E54.53142
G1 X158.11 Y126.557 E54.56875
G1 X157.396 Y126.781 E54.60609
G1 X156.663 Y126.928 E54.64338
G1 X155.659 Y127 E54.6936
G1 X116.572 Y127 E56.64366
G1 X116.572 Y136.883 E57.13672
G1 X116.532 Y137.63 E57.17405
G1 X116.413 Y138.368 E57.21134
G1 X116.215 Y139.09 E57.24869
G1 X115.942 Y139.786 E57.28599
G1 X115.595 Y140.449 E57.32332
G1 X115.18 Y141.072 E57.36067
G1 X114.522 Y141.833 E57.41086
G1 X114.405 Y141.95 E57.41912
G1 X113.848 Y142.45 E57.45646
G1 X113.242 Y142.887 E57.49373
G1 X112.592 Y143.258 E57.53107
G1 X111.906 Y143.557 E57.56841
G1 X111.192 Y143.781 E57.60574
G1 X110.459 Y143.928 E57.64304
G1 X109.455 Y144 E57.69326
G1 X64.341 Y144 E59.944
G1 X63.594 Y143.96 E59.98132
G1 X62.856 Y143.841 E60.01862
G1 X62.134 Y143.643 E60.05597
G1 X61.438 Y143.37 E60.09327
G1 X60.775 Y143.023 E60.1306
G1 X60.152 Y142.608 E60.16795
G1 X59.391 Y141.95 E60.21814
G1 X59.274 Y141.833 E60.22639
G1 X58.774 Y141.276 E60.26374
G1 X58.337 Y140.67 E60.30101
G1 X57.966 Y140.02 E60.33835
G1 X57.667 Y139.334 E60.37568
G1 X57.443 Y138.62 E60.41302
G1 X57.296 Y137.887 E60.45032
G1 X57.224 Y136.883 E60.50053
G1 X57.224 Y83.117 E63.18293
G1 X57.264 Y82.37 E63.22025
G1 X57.383 Y81.632 E63.25755
G1 X57.581 Y80.91 E63.2949
G1 X57.854 Y80.214 E63.3322
G1 X58.201 Y79.551 E63.36953
G1 X58.616 Y78.928 E63.40688
G1 X59.274 Y78.167 E63.45707
G1 X59.391 Y78.05 E63.46532
G1 X59.948 Y77.55 E63.50267
G0 F7500 X60.215 Y77.849
G1 F1500 X60.806 Y77.426 E63.53892
G1 X61.44 Y77.072 E63.57515
G1 X62.109 Y76.789 E63.61139
G1 X62.805 Y76.581 E63.64763
G1 X63.52 Y76.451 E63.68389
G1 X64.341 Y76.4 E63.72493
G1 X68.095 Y76.4 E63.91222
G1 X68.82 Y76.44 E63.94844
G1 X69.537 Y76.559 E63.9847
G1 X70.236 Y76.757 E64.02095
G1 X70.909 Y77.03 E64.05718
G1 X71.548 Y77.375 E64.09341
G1 X72.145 Y77.789 E64.12966
G1 X72.57 Y78.149 E64.15744
G1 X72.686 Y78.256 E64.16532
G1 X73.192 Y78.777 E64.20155
G1 X73.638 Y79.35 E64.23778
G1 X74.018 Y79.969 E64.27401
G1 X74.327 Y80.627 E64.31028
G1 X74.563 Y81.314 E64.34652
G1 X74.721 Y82.022 E64.38271
G1 X74.811 Y83.105 E64.43693
G1 X74.822 Y126.4 E66.59693
G1 X98.972 Y126.4 E67.80177
G1 X98.972 Y83.117 E69.96117
G1 X99.012 Y82.392 E69.9974
G1 X99.131 Y81.675 E70.03366
G1 X99.329 Y80.976 E70.0699
G1 X99.602 Y80.303 E70.10614
G1 X99.947 Y79.664 E70.14237
G1 X100.361 Y79.067 E70.17861
G1 X100.905 Y78.45 E70.21965
G1 X101.022 Y78.333 E70.2279
G1 X101.563 Y77.849 E70.26412
G1 X102.154 Y77.426 E70.30038
G1 X102.788 Y77.072 E70.33661
G1 X103.457 Y76.789 E70.37285
G1 X104.153 Y76.581 E70.40909
G1 X104.868 Y76.451 E70.44534
G1 X105.689 Y76.4 E70.48638
G1 X109.433 Y76.4 E70.67317
G1 X110.158 Y76.44 E70.7094
G1 X110.875 Y76.559 E70.74566
G1 X111.574 Y76.757 E70.7819
G1 X112.247 Y77.03 E70.81814
G1 X112.886 Y77.375 E70.85437
G1 X113.483 Y77.789 E70.89061
G1 X114.1 Y78.333 E70.93165
G1 X114.217 Y78.45 E70.9399
G1 X114.701 Y78.991 E70.97612
G1 X115.124 Y79.582 E71.01238
G1 X115.478 Y80.216 E71.04861
G1 X115.761 Y80.885 E71.08485
G1 X115.969 Y81.581 E71.12109
G1 X116.099 Y82.296 E71.15734
G1 X116.15 Y83.11 E71.19803
G1 X116.165 Y96.4 E71.86108
G1 X155.659 Y96.4 E73.83144
G1 X156.384 Y96.44 E73.86766
G1 X157.101 Y96.559 E73.90392
G1 X157.8 Y96.757 E73.94017
G1 X158.473 Y97.03 E73.9764
G1 X159.112 Y97.375 E74.01263
G1 X159.709 Y97.789 E74.04888
G1 X160.326 Y98.333 E74.08992
G1 X160.443 Y98.45 E74.09817
G1 X160.927 Y98.991 E74.13439
G1 X161.35 Y99.582 E74.17065
G1 X161.704 Y100.216 E74.20687
G1 X161.987 Y100.885 E74.24311
G1 X162.195 Y101.581 E74.27935
G1 X162.325 Y102.296 E74.31561
G1 X162.376 Y103.117 E74.35665
G1 X162.376 Y119.883 E75.19311
G1 X162.336 Y120.608 E75.22933
G1 X162.217 Y121.325 E75.26559
G1 X162.019 Y122.024 E75.30184
G1 X161.746 Y122.697 E75.33807
G1 X161.401 Y123.336 E75.3743
G1 X160.987 Y123.933 E75.41055
G1 X160.443 Y124.55 E75.45159
G1 X160.326 Y124.667 E75.45984
G1 X159.785 Y125.151 E75.49606
G1 X159.194 Y125.574 E75.53232
G1 X158.56 Y125.928 E75.56854
G1 X157.891 Y126.211 E75.60478
G1 X157.195 Y126.419 E75.64102
G1 X156.48 Y126.549 E75.67728
G1 X155.659 Y126.6 E75.71832
G1 X116.172 Y126.6 E77.68833
G1 X116.172 Y136.883 E78.20136
G1 X116.132 Y137.608 E78.23758
G1 X116.013 Y138.325 E78.27384
G1 X115.815 Y139.024 E78.31009
G1 X115.542 Y139.697 E78.34632
G1 X115.197 Y140.336 E78.38255
G1 X114.783 Y140.933 E78.41879
G1 X114.239 Y141.55 E78.45983
G1 X114.122 Y141.667 E78.46809
G1 X113.581 Y142.151 E78.5043
G1 X112.99 Y142.574 E78.54056
G1 X112.356 Y142.928 E78.57679
G1 X111.687 Y143.211 E78.61303
G1 X110.991 Y143.419 E78.64927
G1 X110.276 Y143.549 E78.68553
G1 X109.455 Y143.6 E78.72657
G1 X64.341 Y143.6 E80.97731
