;FLAVOR:Marlin
;TIME:2212
;Filament used: 2.58488m
;Layer height: 0.4
;MINX:83.2
;MINY:93.2
;MINZ:0.3
;MAXX:136.8
;MAXY:126.8
;MAXZ:20.3
;Generated with Cura_SteamEngine 4.5.0
M140 S60
M105
M190 S60
M104 S200
M105
M109 S200
M82 ;absolute extrusion mode
G28 ;Home
G29 ;ABL
G1 Z15.0 F2000 ;Move the platform
G92 E0
G92 E0
G1 F1500 E-6.5
;LAYER_COUNT:51
;LAYER:0
M107
M204 S1000
G0 F7500 X86.188 Y94.955 Z0.3
;TYPE:SKIRT
G1 F1500 E0
G1 X86.824 Y94.488 E0.03937
G1 X87.504 Y94.087 E0.07875
G1 X88.222 Y93.757 E0.11817
G1 X88.969 Y93.502 E0.15755
G1 X89.738 Y93.323 E0.19694
G1 X90.522 Y93.223 E0.23638
G1 X91.117 Y93.2 E0.26608
G1 X128.883 Y93.2 E2.15024
G1 X129.672 Y93.24 E2.18965
G1 X130.452 Y93.359 E2.22901
G1 X131.217 Y93.557 E2.26844
G1 X131.957 Y93.831 E2.30781
G1 X132.666 Y94.179 E2.34721
G1 X133.337 Y94.597 E2.38665
G1 X133.961 Y95.08 E2.42602
G1 X134.398 Y95.485 E2.45574
G1 X134.515 Y95.602 E2.464
G1 X135.045 Y96.188 E2.50342
G1 X135.512 Y96.824 E2.54278
G1 X135.913 Y97.504 E2.58217
G1 X136.243 Y98.222 E2.62159
G1 X136.498 Y98.969 E2.66097
G1 X136.677 Y99.738 E2.70036
G1 X136.777 Y100.522 E2.73979
G1 X136.8 Y101.117 E2.7695
G1 X136.8 Y118.883 E3.65585
G1 X136.76 Y119.672 E3.69526
G1 X136.641 Y120.452 E3.73463
G1 X136.443 Y121.217 E3.77405
G1 X136.169 Y121.957 E3.81342
G1 X135.821 Y122.666 E3.85282
G1 X135.403 Y123.337 E3.89226
G1 X134.92 Y123.961 E3.93163
G1 X134.515 Y124.398 E3.96136
G1 X134.398 Y124.515 E3.96961
G1 X133.812 Y125.045 E4.00903
G1 X133.176 Y125.512 E4.0484
G1 X132.496 Y125.913 E4.08778
G1 X131.778 Y126.243 E4.1272
G1 X131.031 Y126.498 E4.16658
G1 X130.262 Y126.677 E4.20598
G1 X129.478 Y126.777 E4.24541
G1 X128.883 Y126.8 E4.27511
G1 X91.117 Y126.8 E6.15927
G1 X90.328 Y126.76 E6.19868
G1 X89.548 Y126.641 E6.23805
G1 X88.783 Y126.443 E6.27747
G1 X88.043 Y126.169 E6.31684
G1 X87.334 Y125.821 E6.35624
G1 X86.663 Y125.403 E6.39568
G1 X86.039 Y124.92 E6.43505
G1 X85.602 Y124.515 E6.46477
G1 X85.485 Y124.398 E6.47303
G1 X84.955 Y123.812 E6.51245
G1 X84.488 Y123.176 E6.55181
G1 X84.087 Y122.496 E6.5912
G1 X83.757 Y121.778 E6.63062
G1 X83.502 Y121.031 E6.67
G1 X83.323 Y120.262 E6.70939
G1 X83.223 Y119.478 E6.74882
G1 X83.2 Y118.883 E6.77853
G1 X83.2 Y101.117 E7.66488
G1 X83.24 Y100.328 E7.70429
G1 X83.359 Y99.548 E7.74366
G1 X83.557 Y98.783 E7.78308
G1 X83.831 Y98.043 E7.82245
G1 X84.179 Y97.334 E7.86185
G1 X84.597 Y96.663 E7.90129
G1 X85.08 Y96.039 E7.94066
G1 X85.485 Y95.602 E7.97039
G1 X85.602 Y95.485 E7.97864
G1 X86.188 Y94.955 E8.01806
G0 F7500 X86.456 Y95.253
G1 F1500 X87.078 Y94.8 E8.05645
G1 X87.743 Y94.414 E8.09481
G1 X88.445 Y94.099 E8.1332
G1 X89.176 Y93.859 E8.17158
G1 X89.927 Y93.696 E8.20992
G1 X90.692 Y93.612 E8.24832
G1 X91.117 Y93.6 E8.26953
G1 X128.883 Y93.6 E10.15369
G1 X129.651 Y93.64 E10.19205
G1 X130.411 Y93.759 E10.23043
G1 X131.154 Y93.957 E10.26879
G1 X131.873 Y94.231 E10.30718
G1 X132.559 Y94.578 E10.34553
G1 X133.206 Y94.994 E10.38391
G1 X133.806 Y95.475 E10.42228
G1 X134.233 Y95.884 E10.45177
G1 X134.747 Y96.456 E10.49014
G1 X135.2 Y97.078 E10.52853
G1 X135.586 Y97.743 E10.56689
G1 X135.901 Y98.445 E10.60528
G1 X136.141 Y99.176 E10.64366
G1 X136.304 Y99.927 E10.682
G1 X136.388 Y100.692 E10.7204
G1 X136.4 Y101.117 E10.74161
G1 X136.4 Y118.883 E11.62796
G1 X136.36 Y119.651 E11.66633
G1 X136.241 Y120.411 E11.70471
G1 X136.043 Y121.154 E11.74307
G1 X135.769 Y121.873 E11.78146
G1 X135.422 Y122.559 E11.81981
G1 X135.006 Y123.206 E11.85819
G1 X134.525 Y123.806 E11.89655
G1 X134.116 Y124.233 E11.92605
G1 X133.544 Y124.747 E11.96442
G1 X132.922 Y125.2 E12.00281
G1 X132.257 Y125.586 E12.04117
G1 X131.555 Y125.901 E12.07955
G1 X130.824 Y126.141 E12.11794
G1 X130.073 Y126.304 E12.15628
G1 X129.308 Y126.388 E12.19467
G1 X128.883 Y126.4 E12.21589
G1 X91.117 Y126.4 E14.10004
G1 X90.349 Y126.36 E14.13841
G1 X89.589 Y126.241 E14.17679
G1 X88.846 Y126.043 E14.21515
G1 X88.127 Y125.769 E14.25353
G1 X87.441 Y125.422 E14.29189
G1 X86.794 Y125.006 E14.33026
G1 X86.194 Y124.525 E14.36863
G1 X85.767 Y124.116 E14.39813
G1 X85.253 Y123.544 E14.43649
G1 X84.8 Y122.922 E14.47488
G1 X84.414 Y122.257 E14.51325
G1 X84.099 Y121.555 E14.55163
G1 X83.859 Y120.824 E14.59002
G1 X83.696 Y120.073 E14.62836
G1 X83.612 Y119.308 E14.66675
G1 X83.6 Y118.883 E14.68796
G1 X83.6 Y101.117 E15.57431
G1 X83.64 Y100.349 E15.61268
G1 X83.759 Y99.589 E15.65106
G1 X83.957 Y98.846 E15.68942
G1 X84.231 Y98.127 E15.72781
G1 X84.578 Y97.441 E15.76616
G1 X84.994 Y96.794 E15.80454
G1 X85.475 Y96.194 E15.8429
G1 X85.884 Y95.767 E15.8724
G1 X86.456 Y95.253 E15.91077
G0 F7500 X86.724 Y95.55
G1 F1500 X87.33 Y95.113 E15.94804
G1 X87.98 Y94.742 E15.98538
G1 X88.666 Y94.443 E16.02272
G1 X89.38 Y94.219 E16.06005
G1 X90.113 Y94.072 E16.09735
G1 X91.117 Y94 E16.14757
G1 X128.883 Y94 E18.03172
G1 X129.63 Y94.04 E18.06904
G1 X130.368 Y94.159 E18.10634
G1 X131.09 Y94.357 E18.14369
G1 X131.786 Y94.63 E18.18099
G1 X132.449 Y94.977 E18.21832
G1 X133.072 Y95.392 E18.25567
G1 X133.833 Y96.05 E18.30586
G1 X133.95 Y96.167 E18.31411
G1 X134.45 Y96.724 E18.35145
G1 X134.887 Y97.33 E18.38873
G1 X135.258 Y97.98 E18.42607
G1 X135.557 Y98.666 E18.4634
G1 X135.781 Y99.38 E18.50074
G1 X135.928 Y100.113 E18.53803
G1 X136 Y101.117 E18.58825
G1 X136 Y118.883 E19.4746
G1 X135.96 Y119.63 E19.51192
G1 X135.841 Y120.368 E19.54922
G1 X135.643 Y121.09 E19.58657
G1 X135.37 Y121.786 E19.62387
G1 X135.023 Y122.449 E19.6612
G1 X134.608 Y123.072 E19.69855
G1 X133.95 Y123.833 E19.74874
G1 X133.833 Y123.95 E19.75699
G1 X133.276 Y124.45 E19.79434
G1 X132.67 Y124.887 E19.83161
G1 X132.02 Y125.258 E19.86895
G1 X131.334 Y125.557 E19.90628
G1 X130.62 Y125.781 E19.94362
G1 X129.887 Y125.928 E19.98091
G1 X128.883 Y126 E20.03113
G1 X91.117 Y126 E21.91529
G1 X90.37 Y125.96 E21.95261
G1 X89.632 Y125.841 E21.9899
G1 X88.91 Y125.643 E22.02725
G1 X88.214 Y125.37 E22.06455
G1 X87.551 Y125.023 E22.10189
G1 X86.928 Y124.608 E22.13923
G1 X86.167 Y123.95 E22.18942
G1 X86.05 Y123.833 E22.19768
G1 X85.55 Y123.276 E22.23502
G1 X85.113 Y122.67 E22.2723
G1 X84.742 Y122.02 E22.30963
G1 X84.443 Y121.334 E22.34697
G1 X84.219 Y120.62 E22.3843
G1 X84.072 Y119.887 E22.4216
G1 X84 Y118.883 E22.47182
G1 X84 Y101.117 E23.35817
G1 X84.04 Y100.37 E23.39549
G1 X84.159 Y99.632 E23.43278
G1 X84.357 Y98.91 E23.47013
G1 X84.63 Y98.214 E23.50743
G1 X84.977 Y97.551 E23.54477
G1 X85.392 Y96.928 E23.58211
G1 X86.05 Y96.167 E23.6323
G1 X86.167 Y96.05 E23.64056
G1 X86.724 Y95.55 E23.6779
G0 F7500 X86.991 Y95.849
G1 F1500 X87.582 Y95.426 E23.71416
G1 X88.216 Y95.072 E23.75039
G1 X88.885 Y94.789 E23.78663
G1 X89.581 Y94.581 E23.82287
G1 X90.296 Y94.451 E23.85913
G1 X91.117 Y94.4 E23.90016
G1 X128.883 Y94.4 E25.78432
G1 X129.608 Y94.44 E25.82054
G1 X130.325 Y94.559 E25.8568
G1 X131.024 Y94.757 E25.89305
G1 X131.697 Y95.03 E25.92928
G1 X132.336 Y95.375 E25.96551
G1 X132.933 Y95.789 E26.00176
G1 X133.55 Y96.333 E26.0428
G1 X133.667 Y96.45 E26.05105
G1 X134.151 Y96.991 E26.08727
G1 X134.574 Y97.582 E26.12353
G1 X134.928 Y98.216 E26.15975
G1 X135.211 Y98.885 E26.19599
G1 X135.419 Y99.581 E26.23223
G1 X135.549 Y100.296 E26.26849
G1 X135.6 Y101.117 E26.30953
G1 X135.6 Y118.883 E27.19588
G1 X135.56 Y119.608 E27.2321
G1 X135.441 Y120.325 E27.26836
G1 X135.243 Y121.024 E27.30461
G1 X134.97 Y121.697 E27.34084
G1 X134.625 Y122.336 E27.37707
G1 X134.211 Y122.933 E27.41332
G1 X133.667 Y123.55 E27.45436
G1 X133.55 Y123.667 E27.46261
G1 X133.009 Y124.151 E27.49883
G1 X132.418 Y124.574 E27.53509
G1 X131.784 Y124.928 E27.57131
G1 X131.115 Y125.211 E27.60755
G1 X130.419 Y125.419 E27.64379
G1 X129.704 Y125.549 E27.68005
G1 X128.883 Y125.6 E27.72109
G1 X91.117 Y125.6 E29.60524
G1 X90.392 Y125.56 E29.64147
G1 X89.675 Y125.441 E29.67773
G1 X88.976 Y125.243 E29.71397
G1 X88.303 Y124.97 E29.75021
G1 X87.664 Y124.625 E29.78644
G1 X87.067 Y124.211 E29.82268
G1 X86.45 Y123.667 E29.86372
G1 X86.333 Y123.55 E29.87197
G1 X85.849 Y123.009 E29.90819
G1 X85.426 Y122.418 E29.94445
G1 X85.072 Y121.784 E29.98068
G1 X84.789 Y121.115 E30.01692
G1 X84.581 Y120.419 E30.05316
G1 X84.451 Y119.704 E30.08941
G1 X84.4 Y118.883 E30.13045
G1 X84.4 Y101.117 E31.0168
G1 X84.44 Y100.392 E31.05303
G1 X84.559 Y99.675 E31.08929
G1 X84.757 Y98.976 E31.12553
G1 X85.03 Y98.303 E31.16177
G1 X85.375 Y97.664 E31.198
G1 X85.789 Y97.067 E31.23424
G1 X86.333 Y96.45 E31.27528
G1 X86.45 Y96.333 E31.28354
G1 X86.991 Y95.849 E31.31975
G0 F7500 X87.258 Y96.147
G1 F1500 X87.833 Y95.741 E31.35487
G1 X88.451 Y95.403 E31.39001
G1 X89.102 Y95.136 E31.42511
G1 X89.78 Y94.946 E31.46024
G1 X90.475 Y94.833 E31.49537
G1 X91.117 Y94.8 E31.52744
G1 X128.883 Y94.8 E33.4116
G1 X129.586 Y94.84 E33.44673
G1 X130.28 Y94.959 E33.48186
G1 X130.955 Y95.157 E33.51695
G1 X131.604 Y95.429 E33.55206
G1 X132.218 Y95.774 E33.58719
G1 X132.789 Y96.185 E33.62229
G1 X133.267 Y96.616 E33.6544
G1 X133.384 Y96.733 E33.66266
G1 X133.853 Y97.258 E33.69778
G1 X134.259 Y97.833 E33.7329
G1 X134.597 Y98.451 E33.76804
G1 X134.864 Y99.102 E33.80314
G1 X135.054 Y99.78 E33.83827
G1 X135.167 Y100.475 E33.8734
G1 X135.2 Y101.117 E33.90547
G1 X135.2 Y118.883 E34.79182
G1 X135.16 Y119.586 E34.82695
G1 X135.041 Y120.28 E34.86208
G1 X134.843 Y120.955 E34.89718
G1 X134.571 Y121.604 E34.93228
G1 X134.226 Y122.218 E34.96742
G1 X133.815 Y122.789 E35.00252
G1 X133.384 Y123.267 E35.03463
G1 X133.267 Y123.384 E35.04289
G1 X132.742 Y123.853 E35.07801
G1 X132.167 Y124.259 E35.11313
G1 X131.549 Y124.597 E35.14827
G1 X130.898 Y124.864 E35.18337
G1 X130.22 Y125.054 E35.2185
G1 X129.525 Y125.167 E35.25363
G1 X128.883 Y125.2 E35.2857
G1 X91.117 Y125.2 E37.16985
G1 X90.414 Y125.16 E37.20498
G1 X89.72 Y125.041 E37.24011
G1 X89.045 Y124.843 E37.27521
G1 X88.396 Y124.571 E37.31032
G1 X87.782 Y124.226 E37.34545
G1 X87.211 Y123.815 E37.38055
G1 X86.733 Y123.384 E37.41266
G1 X86.616 Y123.267 E37.42092
G1 X86.147 Y122.742 E37.45604
G1 X85.741 Y122.167 E37.49116
G1 X85.403 Y121.549 E37.5263
G1 X85.136 Y120.898 E37.5614
G1 X84.946 Y120.22 E37.59653
G1 X84.833 Y119.525 E37.63166
G1 X84.8 Y118.883 E37.66373
G1 X84.8 Y101.117 E38.55008
G1 X84.84 Y100.414 E38.58521
G1 X84.959 Y99.72 E38.62034
G1 X85.157 Y99.045 E38.65543
G1 X85.429 Y98.396 E38.69054
G1 X85.774 Y97.782 E38.72568
G1 X86.185 Y97.211 E38.76078
G1 X86.616 Y96.733 E38.79289
G1 X86.733 Y96.616 E38.80114
G1 X87.258 Y96.147 E38.83627
G0 F7500 X87.525 Y96.446
G1 F1500 X88.083 Y96.057 E38.8702
G1 X88.683 Y95.735 E38.90417
G1 X89.317 Y95.486 E38.93816
G1 X89.976 Y95.313 E38.97215
G1 X90.65 Y95.219 E39.0061
G1 X91.117 Y95.2 E39.02942
G1 X128.883 Y95.2 E40.91357
G1 X129.563 Y95.24 E40.94755
G1 X130.233 Y95.359 E40.9815
G1 X130.885 Y95.556 E41.01548
G1 X131.509 Y95.828 E41.04945
G1 X132.097 Y96.172 E41.08343
G1 X132.641 Y96.582 E41.11742
G1 X132.984 Y96.899 E41.14072
G1 X133.101 Y97.016 E41.14897
G1 X133.554 Y97.525 E41.18297
G1 X133.943 Y98.083 E41.2169
G1 X134.265 Y98.683 E41.25088
G1 X134.514 Y99.317 E41.28486
G1 X134.687 Y99.976 E41.31885
G1 X134.781 Y100.65 E41.3528
G1 X134.8 Y101.117 E41.37612
G1 X134.8 Y118.883 E42.26247
G1 X134.76 Y119.563 E42.29645
G1 X134.641 Y120.233 E42.3304
G1 X134.444 Y120.885 E42.36438
G1 X134.172 Y121.509 E42.39834
G1 X133.828 Y122.097 E42.43233
G1 X133.418 Y122.641 E42.46632
G1 X133.101 Y122.984 E42.48962
G1 X132.984 Y123.101 E42.49787
G1 X132.475 Y123.554 E42.53187
G1 X131.917 Y123.943 E42.5658
G1 X131.317 Y124.265 E42.59978
G1 X130.683 Y124.514 E42.63376
G1 X130.024 Y124.687 E42.66775
G1 X129.35 Y124.781 E42.7017
G1 X128.883 Y124.8 E42.72502
G1 X91.117 Y124.8 E44.60917
G1 X90.437 Y124.76 E44.64316
G1 X89.767 Y124.641 E44.67711
G1 X89.115 Y124.444 E44.71109
G1 X88.491 Y124.172 E44.74505
G1 X87.903 Y123.828 E44.77903
G1 X87.359 Y123.418 E44.81302
G1 X87.016 Y123.101 E44.83632
G1 X86.899 Y122.984 E44.84458
G1 X86.446 Y122.475 E44.87857
G1 X86.057 Y121.917 E44.91251
G1 X85.735 Y121.317 E44.94648
G1 X85.486 Y120.683 E44.98046
G1 X85.313 Y120.024 E45.01445
G1 X85.219 Y119.35 E45.0484
G1 X85.2 Y118.883 E45.07172
G1 X85.2 Y101.117 E45.95807
G1 X85.24 Y100.437 E45.99206
G1 X85.359 Y99.767 E46.02601
G1 X85.556 Y99.115 E46.05999
G1 X85.828 Y98.491 E46.09395
G1 X86.172 Y97.903 E46.12793
G1 X86.582 Y97.359 E46.16192
G1 X86.899 Y97.016 E46.18522
G1 X87.016 Y96.899 E46.19348
G1 X87.525 Y96.446 E46.22747
G0 F7500 X87.791 Y96.746
G1 F1500 X88.332 Y96.374 E46.26023
G1 X88.914 Y96.07 E46.29298
G1 X89.529 Y95.839 E46.32576
G1 X90.168 Y95.684 E46.35856
G1 X91.117 Y95.6 E46.40609
G1 X128.883 Y95.6 E48.29025
G1 X129.539 Y95.64 E48.32304
G1 X130.185 Y95.759 E48.35581
G1 X130.812 Y95.956 E48.3886
G1 X131.41 Y96.228 E48.42137
G1 X131.971 Y96.57 E48.45415
G1 X132.701 Y97.182 E48.50168
G1 X132.818 Y97.299 E48.50993
G1 X133.254 Y97.791 E48.54273
G1 X133.626 Y98.332 E48.57549
G1 X133.93 Y98.914 E48.60824
G1 X134.161 Y99.529 E48.64102
G1 X134.316 Y100.168 E48.67382
G1 X134.4 Y101.117 E48.72135
G1 X134.4 Y118.883 E49.6077
G1 X134.36 Y119.539 E49.64049
G1 X134.241 Y120.185 E49.67326
G1 X134.044 Y120.812 E49.70605
G1 X133.772 Y121.41 E49.73883
G1 X133.43 Y121.971 E49.77161
G1 X132.818 Y122.701 E49.81913
G1 X132.701 Y122.818 E49.82739
G1 X132.209 Y123.254 E49.86018
G1 X131.668 Y123.626 E49.89294
G1 X131.086 Y123.93 E49.9257
G1 X130.471 Y124.161 E49.95847
G1 X129.832 Y124.316 E49.99128
G1 X128.883 Y124.4 E50.03881
G1 X91.117 Y124.4 E51.92296
G1 X90.461 Y124.36 E51.95575
G1 X89.815 Y124.241 E51.98852
G1 X89.188 Y124.044 E52.02131
G1 X88.59 Y123.772 E52.05409
G1 X88.029 Y123.43 E52.08687
G1 X87.299 Y122.818 E52.13439
G1 X87.182 Y122.701 E52.14265
G1 X86.746 Y122.209 E52.17544
G1 X86.374 Y121.668 E52.2082
G1 X86.07 Y121.086 E52.24096
G1 X85.839 Y120.471 E52.27373
G1 X85.684 Y119.832 E52.30654
G1 X85.6 Y118.883 E52.35407
G1 X85.6 Y101.117 E53.24042
G1 X85.64 Y100.461 E53.27321
G1 X85.759 Y99.815 E53.30598
G1 X85.956 Y99.188 E53.33877
G1 X86.228 Y98.59 E53.37154
G1 X86.57 Y98.029 E53.40432
G1 X87.182 Y97.299 E53.45185
G1 X87.299 Y97.182 E53.4601
G1 X87.791 Y96.746 E53.4929
G0 F7500 X88.056 Y97.047
G1 F1500 X88.579 Y96.692 E53.52444
G1 X89.143 Y96.406 E53.55598
G1 X89.738 Y96.194 E53.5875
G1 X90.356 Y96.058 E53.61907
G1 X91.117 Y96 E53.65714
G1 X128.883 Y96 E55.5413
G1 X129.514 Y96.04 E55.57284
G1 X130.135 Y96.159 E55.60439
G1 X130.735 Y96.356 E55.63589
G1 X131.307 Y96.627 E55.66747
G1 X131.839 Y96.967 E55.69897
G1 X132.419 Y97.464 E55.73708
G1 X132.536 Y97.581 E55.74533
G1 X132.953 Y98.056 E55.77687
G1 X133.308 Y98.579 E55.8084
G1 X133.594 Y99.143 E55.83995
G1 X133.806 Y99.738 E55.87146
G1 X133.942 Y100.356 E55.90303
G1 X134 Y101.117 E55.94111
G1 X134 Y118.883 E56.82746
G1 X133.96 Y119.514 E56.859
G1 X133.841 Y120.135 E56.89055
G1 X133.644 Y120.735 E56.92205
G1 X133.373 Y121.307 E56.95363
G1 X133.033 Y121.839 E56.98513
G1 X132.536 Y122.419 E57.02324
G1 X132.419 Y122.536 E57.03149
G1 X131.944 Y122.953 E57.06303
G1 X131.421 Y123.308 E57.09456
G1 X130.857 Y123.594 E57.12611
G1 X130.262 Y123.806 E57.15763
G1 X129.644 Y123.942 E57.1892
G1 X128.883 Y124 E57.22727
G1 X91.117 Y124 E59.11143
G1 X90.486 Y123.96 E59.14297
G1 X89.865 Y123.841 E59.17451
G1 X89.265 Y123.644 E59.20602
G1 X88.693 Y123.373 E59.2376
G1 X88.161 Y123.033 E59.2691
G1 X87.581 Y122.536 E59.3072
G1 X87.464 Y122.419 E59.31546
G1 X87.047 Y121.944 E59.34699
G1 X86.692 Y121.421 E59.37853
G1 X86.406 Y120.857 E59.41008
G1 X86.194 Y120.262 E59.44159
G1 X86.058 Y119.644 E59.47316
G1 X86 Y118.883 E59.51124
G1 X86 Y101.117 E60.39759
G1 X86.04 Y100.486 E60.42913
G1 X86.159 Y99.865 E60.46068
G1 X86.356 Y99.265 E60.49218
G1 X86.627 Y98.693 E60.52376
G1 X86.967 Y98.161 E60.55526
G1 X87.464 Y97.581 E60.59337
G1 X87.581 Y97.464 E60.60162
G1 X88.056 Y97.047 E60.63316
G0 F7500 X88.32 Y97.348
G1 F1500 X88.825 Y97.012 E60.66342
G1 X89.369 Y96.745 E60.69365
G1 X89.944 Y96.552 E60.72391
G1 X90.539 Y96.436 E60.75415
G1 X91.117 Y96.4 E60.78305
G1 X128.883 Y96.4 E62.6672
G1 X129.488 Y96.44 E62.69745
G1 X130.082 Y96.559 E62.72767
G1 X130.656 Y96.755 E62.75793
G1 X131.199 Y97.026 E62.78821
G1 X131.702 Y97.365 E62.81847
G1 X132.136 Y97.747 E62.84732
G1 X132.253 Y97.864 E62.85557
G1 X132.652 Y98.32 E62.8858
G1 X132.988 Y98.825 E62.91606
G1 X133.255 Y99.369 E62.9463
