;FLAVOR:Marlin
;TIME:5108
;Filament used: 5.66693m
;Layer height: 0.4
;MINX:58.296
;MINY:75.2
;MINZ:0.3
;MAXX:161.704
;MAXY:144.8
;MAXZ:21.9
;Generated with Cura_SteamEngine 4.5.0
M140 S60
M105
M190 S60
M104 S200
M105
M109 S200
M82 ;absolute extrusion mode
G28 ;Home
G29 ;ABL
G1 Z15.0 F2000 ;Move the platform
G92 E0
G92 E0
G1 F1500 E-6.5
;LAYER_COUNT:55
;LAYER:0
M107
M204 S1000
G0 F7500 X61.284 Y76.955 Z0.3
;TYPE:SKIRT
G1 F1500 E0
G1 X61.92 Y76.488 E0.03937
G1 X62.6 Y76.087 E0.07875
G1 X63.318 Y75.757 E0.11817
G1 X64.065 Y75.502 E0.15755
G1 X64.834 Y75.323 E0.19694
G1 X65.618 Y75.223 E0.23638
G1 X66.213 Y75.2 E0.26608
G1 X112.643 Y75.2 E2.58248
G1 X113.432 Y75.24 E2.6219
G1 X114.212 Y75.359 E2.66126
G1 X114.977 Y75.557 E2.70069
G1 X115.717 Y75.831 E2.74005
G1 X116.426 Y76.179 E2.77946
G1 X117.097 Y76.597 E2.8189
G1 X117.721 Y77.08 E2.85827
G1 X118.158 Y77.485 E2.88799
G1 X118.275 Y77.602 E2.89625
G1 X118.805 Y78.188 E2.93567
G1 X119.272 Y78.824 E2.97503
G1 X119.673 Y79.504 E3.01442
G1 X120.003 Y80.222 E3.05384
G1 X120.258 Y80.969 E3.09322
G1 X120.437 Y81.738 E3.13261
G1 X120.537 Y82.522 E3.17204
G1 X120.56 Y83.126 E3.2022
G1 X120.556 Y86.475 E3.36928
G1 X153.782 Y86.475 E5.02693
G1 X154.571 Y86.515 E5.06635
G1 X155.351 Y86.634 E5.10571
G1 X156.116 Y86.832 E5.14513
G1 X156.856 Y87.106 E5.1845
G1 X157.565 Y87.454 E5.22391
G1 X158.236 Y87.872 E5.26335
G1 X158.86 Y88.355 E5.30271
G1 X159.297 Y88.76 E5.33244
G1 X159.414 Y88.877 E5.34069
G1 X159.944 Y89.463 E5.38011
G1 X160.411 Y90.099 E5.41948
G1 X160.812 Y90.779 E5.45886
G1 X161.142 Y91.497 E5.49829
G1 X161.397 Y92.244 E5.53767
G1 X161.576 Y93.013 E5.57706
G1 X161.676 Y93.797 E5.61649
G1 X161.699 Y94.392 E5.6462
G1 X161.699 Y98.09 E5.83069
G1 X161.659 Y98.879 E5.8701
G1 X161.54 Y99.659 E5.90947
G1 X161.342 Y100.424 E5.94889
G1 X161.068 Y101.164 E5.98826
G1 X160.72 Y101.873 E6.02766
G1 X160.302 Y102.544 E6.0671
G1 X159.819 Y103.168 E6.10647
G1 X159.414 Y103.605 E6.1362
G1 X159.297 Y103.722 E6.14445
G1 X158.711 Y104.252 E6.18387
G1 X158.075 Y104.719 E6.22324
G1 X157.395 Y105.12 E6.26262
G1 X156.677 Y105.45 E6.30205
G1 X155.93 Y105.705 E6.34142
G1 X155.161 Y105.884 E6.38082
G1 X154.377 Y105.984 E6.42025
G1 X153.782 Y106.007 E6.44995
G1 X120.547 Y106.006 E8.10805
G1 X120.547 Y111.207 E8.36753
G1 X153.788 Y111.21 E10.02593
G1 X154.576 Y111.25 E10.0653
G1 X155.357 Y111.37 E10.10472
G1 X156.121 Y111.568 E10.14409
G1 X156.862 Y111.842 E10.18351
G1 X157.571 Y112.189 E10.22289
G1 X158.241 Y112.607 E10.26229
G1 X158.866 Y113.09 E10.3017
G1 X159.302 Y113.495 E10.33139
G1 X159.419 Y113.612 E10.33964
G1 X159.949 Y114.198 E10.37906
G1 X160.416 Y114.834 E10.41843
G1 X160.817 Y115.514 E10.45781
G1 X161.147 Y116.232 E10.49723
G1 X161.402 Y116.979 E10.53661
G1 X161.581 Y117.748 E10.576
G1 X161.681 Y118.532 E10.61544
G1 X161.704 Y119.127 E10.64514
G1 X161.704 Y122.824 E10.82959
G1 X161.664 Y123.613 E10.869
G1 X161.545 Y124.393 E10.90836
G1 X161.347 Y125.158 E10.94779
G1 X161.073 Y125.898 E10.98716
G1 X160.725 Y126.607 E11.02656
G1 X160.307 Y127.278 E11.066
G1 X159.824 Y127.902 E11.10537
G1 X159.419 Y128.339 E11.13509
G1 X159.302 Y128.456 E11.14335
G1 X158.716 Y128.986 E11.18277
G1 X158.08 Y129.453 E11.22213
G1 X157.4 Y129.854 E11.26152
G1 X156.682 Y130.184 E11.30094
G1 X155.935 Y130.439 E11.34032
G1 X155.166 Y130.618 E11.37971
G1 X154.382 Y130.718 E11.41914
G1 X153.787 Y130.741 E11.44885
G1 X120.554 Y130.741 E13.10685
G1 X120.56 Y136.876 E13.41293
G1 X120.521 Y137.664 E13.45229
G1 X120.402 Y138.445 E13.4917
G1 X120.205 Y139.21 E13.53111
G1 X119.931 Y139.951 E13.57053
G1 X119.585 Y140.66 E13.60989
G1 X119.168 Y141.331 E13.6493
G1 X118.685 Y141.956 E13.68871
G1 X118.275 Y142.398 E13.71879
G1 X118.158 Y142.515 E13.72704
G1 X117.572 Y143.045 E13.76646
G1 X116.936 Y143.512 E13.80583
G1 X116.256 Y143.913 E13.84521
G1 X115.538 Y144.243 E13.88464
G1 X114.791 Y144.498 E13.92402
G1 X114.022 Y144.677 E13.96341
G1 X113.238 Y144.777 E14.00284
G1 X112.643 Y144.8 E14.03255
G1 X108.259 Y144.8 E14.25126
G1 X107.47 Y144.76 E14.29068
G1 X106.69 Y144.641 E14.33004
G1 X105.925 Y144.443 E14.36947
G1 X105.185 Y144.169 E14.40883
G1 X104.476 Y143.821 E14.44824
G1 X103.805 Y143.403 E14.48768
G1 X103.181 Y142.92 E14.52705
G1 X102.744 Y142.515 E14.55677
G1 X102.627 Y142.398 E14.56503
G1 X102.097 Y141.812 E14.60445
G1 X101.63 Y141.176 E14.64381
G1 X101.229 Y140.496 E14.6832
G1 X100.899 Y139.778 E14.72262
G1 X100.644 Y139.031 E14.762
G1 X100.465 Y138.262 E14.80139
G1 X100.365 Y137.478 E14.84082
G1 X100.342 Y136.883 E14.87053
G1 X100.342 Y94.8 E16.97006
G1 X77.896 Y94.8 E18.08989
G1 X77.896 Y136.883 E20.18942
G1 X77.856 Y137.672 E20.22884
G1 X77.737 Y138.452 E20.2682
G1 X77.539 Y139.217 E20.30762
G1 X77.265 Y139.957 E20.34699
G1 X76.917 Y140.666 E20.3864
G1 X76.499 Y141.337 E20.42584
G1 X76.016 Y141.961 E20.4652
G1 X75.611 Y142.398 E20.49493
G1 X75.494 Y142.515 E20.50318
G1 X74.908 Y143.045 E20.5426
G1 X74.272 Y143.512 E20.58197
G1 X73.592 Y143.913 E20.62135
G1 X72.874 Y144.243 E20.66078
G1 X72.127 Y144.498 E20.70016
G1 X71.358 Y144.677 E20.73955
G1 X70.574 Y144.777 E20.77898
G1 X69.979 Y144.8 E20.80869
G1 X66.213 Y144.8 E20.99657
G1 X65.424 Y144.76 E21.03599
G1 X64.644 Y144.641 E21.07535
G1 X63.879 Y144.443 E21.11478
G1 X63.139 Y144.169 E21.15414
G1 X62.43 Y143.821 E21.19355
G1 X61.759 Y143.403 E21.23299
G1 X61.135 Y142.92 E21.27236
G1 X60.698 Y142.515 E21.30208
G1 X60.581 Y142.398 E21.31034
G1 X60.051 Y141.812 E21.34975
G1 X59.584 Y141.176 E21.38912
G1 X59.183 Y140.496 E21.42851
G1 X58.853 Y139.778 E21.46793
G1 X58.598 Y139.031 E21.50731
G1 X58.419 Y138.262 E21.5467
G1 X58.319 Y137.478 E21.58613
G1 X58.296 Y136.883 E21.61584
G1 X58.296 Y83.117 E24.29823
G1 X58.336 Y82.328 E24.33765
G1 X58.455 Y81.548 E24.37701
G1 X58.653 Y80.783 E24.41644
G1 X58.927 Y80.043 E24.4558
G1 X59.275 Y79.334 E24.49521
G1 X59.693 Y78.663 E24.53465
G1 X60.176 Y78.039 E24.57402
G1 X60.581 Y77.602 E24.60374
G1 X60.698 Y77.485 E24.612
G1 X61.284 Y76.955 E24.65142
G0 F7500 X61.552 Y77.253
G1 F1500 X62.174 Y76.8 E24.68981
G1 X62.839 Y76.414 E24.72817
G1 X63.541 Y76.099 E24.76655
G1 X64.272 Y75.859 E24.80494
G1 X65.023 Y75.696 E24.84328
G1 X65.788 Y75.612 E24.88167
G1 X66.213 Y75.6 E24.90289
G1 X112.643 Y75.6 E27.21929
G1 X113.411 Y75.64 E27.25766
G1 X114.171 Y75.759 E27.29603
G1 X114.914 Y75.957 E27.3344
G1 X115.633 Y76.231 E27.37278
G1 X116.319 Y76.578 E27.41114
G1 X116.966 Y76.994 E27.44951
G1 X117.566 Y77.475 E27.48788
G1 X117.993 Y77.884 E27.51738
G1 X118.507 Y78.456 E27.55574
G1 X118.96 Y79.078 E27.59413
G1 X119.346 Y79.743 E27.63249
G1 X119.661 Y80.445 E27.67088
G1 X119.901 Y81.176 E27.70927
G1 X120.064 Y81.927 E27.74761
G1 X120.148 Y82.692 E27.786
G1 X120.16 Y83.126 E27.80766
G1 X120.156 Y86.875 E27.9947
G1 X153.782 Y86.875 E29.67231
G1 X154.55 Y86.915 E29.71068
G1 X155.31 Y87.034 E29.74905
G1 X156.053 Y87.232 E29.78742
G1 X156.772 Y87.506 E29.8258
G1 X157.458 Y87.853 E29.86416
G1 X158.105 Y88.269 E29.90253
G1 X158.705 Y88.75 E29.9409
G1 X159.132 Y89.159 E29.9704
G1 X159.646 Y89.731 E30.00876
G1 X160.099 Y90.353 E30.04715
G1 X160.485 Y91.018 E30.08551
G1 X160.8 Y91.72 E30.1239
G1 X161.04 Y92.451 E30.16229
G1 X161.203 Y93.202 E30.20063
G1 X161.287 Y93.967 E30.23902
G1 X161.299 Y94.392 E30.26023
G1 X161.299 Y98.09 E30.44473
G1 X161.259 Y98.858 E30.4831
G1 X161.14 Y99.618 E30.52147
G1 X160.942 Y100.361 E30.55984
G1 X160.668 Y101.08 E30.59822
G1 X160.321 Y101.766 E30.63658
G1 X159.905 Y102.413 E30.67495
G1 X159.424 Y103.013 E30.71332
G1 X159.015 Y103.44 E30.74282
G1 X158.443 Y103.954 E30.78118
G1 X157.821 Y104.407 E30.81957
G1 X157.156 Y104.793 E30.85793
G1 X156.454 Y105.108 E30.89632
G1 X155.723 Y105.348 E30.93471
G1 X154.972 Y105.511 E30.97305
G1 X154.207 Y105.595 E31.01144
G1 X153.782 Y105.607 E31.03265
G1 X120.147 Y105.606 E32.71071
G1 X120.147 Y111.607 E33.0101
G1 X153.788 Y111.61 E34.68846
G1 X154.556 Y111.65 E34.72683
G1 X155.316 Y111.77 E34.76521
G1 X156.059 Y111.967 E34.80356
G1 X156.778 Y112.241 E34.84195
G1 X157.464 Y112.588 E34.8803
G1 X158.111 Y113.005 E34.9187
G1 X158.711 Y113.486 E34.95707
G1 X159.137 Y113.894 E34.9865
G1 X159.651 Y114.466 E35.02487
G1 X160.104 Y115.088 E35.06325
G1 X160.49 Y115.753 E35.10162
G1 X160.805 Y116.455 E35.14
G1 X161.045 Y117.186 E35.17839
G1 X161.208 Y117.937 E35.21673
G1 X161.292 Y118.702 E35.25512
G1 X161.304 Y119.127 E35.27633
G1 X161.304 Y122.824 E35.46078
G1 X161.264 Y123.592 E35.49915
G1 X161.145 Y124.352 E35.53752
G1 X160.947 Y125.095 E35.57589
G1 X160.673 Y125.814 E35.61427
G1 X160.326 Y126.5 E35.65263
G1 X159.91 Y127.147 E35.691
G1 X159.429 Y127.747 E35.72937
G1 X159.02 Y128.174 E35.75887
G1 X158.448 Y128.688 E35.79723
G1 X157.826 Y129.141 E35.83562
G1 X157.161 Y129.527 E35.87399
G1 X156.459 Y129.842 E35.91237
G1 X155.728 Y130.082 E35.95076
G1 X154.977 Y130.245 E35.9891
G1 X154.212 Y130.329 E36.02749
G1 X153.787 Y130.341 E36.0487
G1 X120.154 Y130.341 E37.72666
G1 X120.16 Y136.876 E38.05269
G1 X120.121 Y137.644 E38.09106
G1 X120.002 Y138.404 E38.12944
G1 X119.805 Y139.148 E38.16784
G1 X119.532 Y139.867 E38.2062
G1 X119.186 Y140.553 E38.24454
G1 X118.77 Y141.201 E38.28295
G1 X118.289 Y141.801 E38.32132
G1 X117.993 Y142.116 E38.34288
G1 X117.876 Y142.233 E38.35114
G1 X117.304 Y142.747 E38.38951
G1 X116.682 Y143.2 E38.42789
G1 X116.017 Y143.586 E38.46626
G1 X115.315 Y143.901 E38.50464
G1 X114.584 Y144.141 E38.54303
G1 X113.833 Y144.304 E38.58137
G1 X113.068 Y144.388 E38.61976
G1 X112.643 Y144.4 E38.64098
G1 X108.259 Y144.4 E38.85969
G1 X107.491 Y144.36 E38.89806
G1 X106.731 Y144.241 E38.93644
G1 X105.988 Y144.043 E38.9748
G1 X105.269 Y143.769 E39.01319
G1 X104.583 Y143.422 E39.05154
G1 X103.936 Y143.006 E39.08992
G1 X103.336 Y142.525 E39.12828
G1 X102.909 Y142.116 E39.15778
G1 X102.395 Y141.544 E39.19615
G1 X101.942 Y140.922 E39.23454
G1 X101.556 Y140.257 E39.2729
G1 X101.241 Y139.555 E39.31129
G1 X101.001 Y138.824 E39.34967
G1 X100.838 Y138.073 E39.38801
G1 X100.754 Y137.308 E39.42641
G1 X100.742 Y136.883 E39.44762
G1 X100.742 Y94.4 E41.56711
G1 X77.496 Y94.4 E42.72685
G1 X77.496 Y136.883 E44.84634
G1 X77.456 Y137.651 E44.88471
G1 X77.337 Y138.411 E44.92308
G1 X77.139 Y139.154 E44.96145
G1 X76.865 Y139.873 E44.99983
G1 X76.518 Y140.559 E45.03819
G1 X76.102 Y141.206 E45.07656
G1 X75.621 Y141.806 E45.11493
G1 X75.212 Y142.233 E45.14443
G1 X74.64 Y142.747 E45.18279
G1 X74.018 Y143.2 E45.22118
G1 X73.353 Y143.586 E45.25954
G1 X72.651 Y143.901 E45.29793
G1 X71.92 Y144.141 E45.33632
G1 X71.169 Y144.304 E45.37466
G1 X70.404 Y144.388 E45.41305
G1 X69.979 Y144.4 E45.43426
G1 X66.213 Y144.4 E45.62215
G1 X65.445 Y144.36 E45.66052
G1 X64.685 Y144.241 E45.6989
G1 X63.942 Y144.043 E45.73726
G1 X63.223 Y143.769 E45.77565
G1 X62.537 Y143.422 E45.814
G1 X61.89 Y143.006 E45.85238
G1 X61.29 Y142.525 E45.89074
G1 X60.863 Y142.116 E45.92024
G1 X60.349 Y141.544 E45.95861
G1 X59.896 Y140.922 E45.997
G1 X59.51 Y140.257 E46.03536
G1 X59.195 Y139.555 E46.07374
G1 X58.955 Y138.824 E46.11213
G1 X58.792 Y138.073 E46.15047
G1 X58.708 Y137.308 E46.18886
G1 X58.696 Y136.883 E46.21008
G1 X58.696 Y83.117 E48.89247
G1 X58.736 Y82.349 E48.93084
G1 X58.855 Y81.589 E48.96922
G1 X59.053 Y80.846 E49.00758
G1 X59.327 Y80.127 E49.04597
G1 X59.674 Y79.441 E49.08432
G1 X60.09 Y78.794 E49.1227
G1 X60.571 Y78.194 E49.16106
G1 X60.98 Y77.767 E49.19056
G1 X61.552 Y77.253 E49.22893
G0 F7500 X61.82 Y77.55
G1 F1500 X62.426 Y77.113 E49.2662
G1 X63.076 Y76.742 E49.30354
G1 X63.762 Y76.443 E49.34088
G1 X64.476 Y76.219 E49.37821
G1 X65.209 Y76.072 E49.41551
G1 X66.213 Y76 E49.46573
G1 X112.643 Y76 E51.78213
G1 X113.39 Y76.04 E51.81945
G1 X114.128 Y76.159 E51.85674
G1 X114.85 Y76.357 E51.89409
G1 X115.546 Y76.63 E51.93139
G1 X116.209 Y76.977 E51.96873
G1 X116.832 Y77.392 E52.00607
G1 X117.593 Y78.05 E52.05626
G1 X117.71 Y78.167 E52.06452
G1 X118.21 Y78.724 E52.10186
G1 X118.647 Y79.33 E52.13914
G1 X119.018 Y79.98 E52.17648
G1 X119.317 Y80.666 E52.21381
G1 X119.541 Y81.38 E52.25114
G1 X119.688 Y82.113 E52.28844
G1 X119.76 Y83.125 E52.33906
G1 X119.755 Y87.275 E52.5461
G1 X153.782 Y87.275 E54.24372
G1 X154.529 Y87.315 E54.28104
G1 X155.267 Y87.434 E54.31833
G1 X155.989 Y87.632 E54.35568
G1 X156.685 Y87.905 E54.39298
G1 X157.348 Y88.252 E54.43032
G1 X157.971 Y88.667 E54.46766
G1 X158.732 Y89.325 E54.51785
G1 X158.849 Y89.442 E54.52611
G1 X159.349 Y89.999 E54.56345
G1 X159.786 Y90.605 E54.60072
G1 X160.157 Y91.255 E54.63806
G1 X160.456 Y91.941 E54.6754
G1 X160.68 Y92.655 E54.71273
G1 X160.827 Y93.388 E54.75003
G1 X160.899 Y94.392 E54.80025
G1 X160.899 Y98.09 E54.98474
G1 X160.859 Y98.837 E55.02206
G1 X160.74 Y99.575 E55.05936
G1 X160.542 Y100.297 E55.09671
G1 X160.269 Y100.993 E55.13401
G1 X159.922 Y101.656 E55.17134
G1 X159.507 Y102.279 E55.20869
G1 X158.849 Y103.04 E55.25888
G1 X158.732 Y103.157 E55.26713
G1 X158.175 Y103.657 E55.30448
G1 X157.569 Y104.094 E55.34175
G1 X156.919 Y104.465 E55.37909
G1 X156.233 Y104.764 E55.41642
G1 X155.519 Y104.988 E55.45376
G1 X154.786 Y105.135 E55.49105
G1 X153.782 Y105.207 E55.54127
G1 X119.747 Y105.206 E57.23929
G1 X119.747 Y112.007 E57.57859
G1 X153.788 Y112.01 E59.2769
G1 X154.535 Y112.05 E59.31422
G1 X155.273 Y112.17 E59.35153
G1 X155.995 Y112.367 E59.38886
G1 X156.691 Y112.641 E59.42618
G1 X157.354 Y112.987 E59.46349
G1 X157.976 Y113.402 E59.5008
G1 X158.737 Y114.06 E59.55099
G1 X158.854 Y114.177 E59.55924
G1 X159.354 Y114.734 E59.59658
G1 X159.791 Y115.34 E59.63386
G1 X160.162 Y115.99 E59.6712
G1 X160.461 Y116.676 E59.70853
G1 X160.685 Y117.39 E59.74587
G1 X160.832 Y118.123 E59.78316
G1 X160.904 Y119.127 E59.83338
G1 X160.904 Y122.824 E60.01783
G1 X160.864 Y123.571 E60.05515
G1 X160.745 Y124.309 E60.09244
G1 X160.547 Y125.031 E60.12979
G1 X160.274 Y125.727 E60.16709
G1 X159.927 Y126.39 E60.20443
G1 X159.512 Y127.013 E60.24177
G1 X158.854 Y127.774 E60.29196
G1 X158.737 Y127.891 E60.30022
G1 X158.18 Y128.391 E60.33756
G1 X157.574 Y128.828 E60.37483
G1 X156.924 Y129.199 E60.41217
G1 X156.238 Y129.498 E60.44951
G1 X155.524 Y129.722 E60.48684
G1 X154.791 Y129.869 E60.52414
G1 X153.787 Y129.941 E60.57436
G1 X119.754 Y129.941 E62.27227
G1 X119.76 Y136.876 E62.61826
G1 X119.721 Y137.624 E62.65563
G1 X119.602 Y138.362 E62.69292
G1 X119.405 Y139.084 E62.73026
G1 X119.132 Y139.78 E62.76756
G1 X118.787 Y140.444 E62.80489
G1 X118.372 Y141.067 E62.84224
G1 X117.71 Y141.833 E62.89275
G1 X117.593 Y141.95 E62.901
G1 X117.036 Y142.45 E62.93835
G1 X116.43 Y142.887 E62.97562
G1 X115.78 Y143.258 E63.01296
G1 X115.094 Y143.557 E63.05029
G1 X114.38 Y143.781 E63.08763
G1 X113.647 Y143.928 E63.12492
G1 X112.643 Y144 E63.17514
G1 X108.259 Y144 E63.39386
G1 X107.512 Y143.96 E63.43118
G1 X106.774 Y143.841 E63.46848
G1 X106.052 Y143.643 E63.50583
G1 X105.356 Y143.37 E63.54313
G1 X104.693 Y143.023 E63.58046
G1 X104.07 Y142.608 E63.61781
G1 X103.309 Y141.95 E63.668
G1 X103.192 Y141.833 E63.67625
G1 X102.692 Y141.276 E63.7136
G1 X102.255 Y140.67 E63.75087
G1 X101.884 Y140.02 E63.78821
G1 X101.585 Y139.334 E63.82554
G1 X101.361 Y138.62 E63.86288
G1 X101.214 Y137.887 E63.90017
G1 X101.142 Y136.883 E63.95039
G1 X101.142 Y94 E66.08983
G1 X77.096 Y94 E67.28949
G1 X77.096 Y136.883 E69.42894
G1 X77.056 Y137.63 E69.46626
G1 X76.937 Y138.368 E69.50355
G1 X76.739 Y139.09 E69.5409
G1 X76.466 Y139.786 E69.5782
G1 X76.119 Y140.449 E69.61554
G1 X75.704 Y141.072 E69.65288
G1 X75.046 Y141.833 E69.70307
G1 X74.929 Y141.95 E69.71133
G1 X74.372 Y142.45 E69.74867
G1 X73.766 Y142.887 E69.78594
G1 X73.116 Y143.258 E69.82328
G1 X72.43 Y143.557 E69.86062
G1 X71.716 Y143.781 E69.89795
G1 X70.983 Y143.928 E69.93525
G1 X69.979 Y144 E69.98547
G1 X66.213 Y144 E70.17335
G1 X65.466 Y143.96 E70.21068
G1 X64.728 Y143.841 E70.24797
G1 X64.006 Y143.643 E70.28532
G1 X63.31 Y143.37 E70.32262
G1 X62.647 Y143.023 E70.35995
G1 X62.024 Y142.608 E70.3973
G1 X61.263 Y141.95 E70.44749
G1 X61.146 Y141.833 E70.45575
G1 X60.646 Y141.276 E70.49309
G1 X60.209 Y140.67 E70.53036
G1 X59.838 Y140.02 E70.5677
G1 X59.539 Y139.334 E70.60504
G1 X59.315 Y138.62 E70.64237
G1 X59.168 Y137.887 E70.67967
G1 X59.096 Y136.883 E70.72989
G1 X59.096 Y83.117 E73.41228
