;FLAVOR:Marlin
;TIME:4572
;Filament used: 5.49001m
;Layer height: 0.4
;MINX:78.853
;MINY:62.038
;MINZ:0.3
;MAXX:141.141
;MAXY:157.962
;MAXZ:27.9
;Generated with Cura_SteamEngine 4.5.0
M140 S60
M105
M190 S60
M104 S200
M105
M109 S200
M82 ;absolute extrusion mode
G28 ;Home
G29 ;ABL
G1 Z15.0 F2000 ;Move the platform
G92 E0
G92 E0
G1 F1500 E-6.5
;LAYER_COUNT:70
;LAYER:0
M107
M204 S1000
G0 F7500 X94.509 Y65.501 Z0.3
;TYPE:SKIRT
G1 F1500 E0
G1 X94.992 Y64.876 E0.03941
G1 X95.397 Y64.44 E0.0691
G1 X95.514 Y64.323 E0.07735
G1 X96.1 Y63.793 E0.11677
G1 X96.736 Y63.326 E0.15614
G1 X97.416 Y62.925 E0.19552
G1 X98.134 Y62.595 E0.23494
G1 X98.881 Y62.34 E0.27432
G1 X99.65 Y62.161 E0.31372
G1 X100.434 Y62.061 E0.35315
G1 X101.029 Y62.038 E0.38285
G1 X133.224 Y62.038 E1.98907
G1 X134.013 Y62.078 E2.02848
G1 X134.793 Y62.197 E2.06785
G1 X135.558 Y62.395 E2.10727
G1 X136.298 Y62.669 E2.14664
G1 X137.007 Y63.017 E2.18604
G1 X137.678 Y63.435 E2.22548
G1 X138.302 Y63.918 E2.26485
G1 X138.875 Y64.461 E2.30423
G1 X139.39 Y65.06 E2.34365
G1 X139.841 Y65.708 E2.38303
G1 X140.225 Y66.399 E2.42247
G1 X140.537 Y67.124 E2.46185
G1 X140.774 Y67.877 E2.50123
G1 X140.933 Y68.651 E2.54066
G1 X141.024 Y69.827 E2.5995
G1 X141.141 Y150.034 E6.60105
G1 X141.102 Y150.822 E6.64041
G1 X140.984 Y151.603 E6.67982
G1 X140.787 Y152.368 E6.71923
G1 X140.514 Y153.109 E6.75863
G1 X140.167 Y153.818 E6.79801
G1 X139.751 Y154.489 E6.8374
G1 X139.269 Y155.115 E6.87681
G1 X138.856 Y155.56 E6.9071
G1 X138.739 Y155.677 E6.91536
G1 X138.153 Y156.207 E6.95478
G1 X137.517 Y156.674 E6.99414
G1 X136.837 Y157.075 E7.03353
G1 X136.119 Y157.405 E7.07295
G1 X135.372 Y157.66 E7.11233
G1 X134.603 Y157.839 E7.15172
G1 X133.819 Y157.939 E7.19115
G1 X133.224 Y157.962 E7.22086
G1 X129.458 Y157.962 E7.40875
G1 X128.669 Y157.922 E7.44816
G1 X127.889 Y157.803 E7.48752
G1 X127.124 Y157.605 E7.52695
G1 X126.384 Y157.331 E7.56632
G1 X125.675 Y156.983 E7.60572
G1 X125.004 Y156.565 E7.64516
G1 X124.38 Y156.082 E7.68453
G1 X123.943 Y155.677 E7.71425
G1 X123.826 Y155.56 E7.72251
G1 X123.296 Y154.974 E7.76193
G1 X122.829 Y154.338 E7.80129
G1 X122.428 Y153.658 E7.84068
G1 X122.098 Y152.94 E7.8801
G1 X121.843 Y152.193 E7.91948
G1 X121.664 Y151.424 E7.95887
G1 X121.564 Y150.64 E7.9983
G1 X121.541 Y150.045 E8.02801
G1 X121.541 Y117.251 E9.66411
G1 X98.453 Y117.251 E10.81597
G1 X98.453 Y150.045 E12.45207
G1 X98.413 Y150.834 E12.49149
G1 X98.294 Y151.614 E12.53085
G1 X98.096 Y152.379 E12.57028
G1 X97.822 Y153.119 E12.60964
G1 X97.474 Y153.828 E12.64905
G1 X97.056 Y154.499 E12.68849
G1 X96.573 Y155.123 E12.72786
G1 X96.168 Y155.56 E12.75758
G1 X96.051 Y155.677 E12.76584
G1 X95.465 Y156.207 E12.80525
G1 X94.829 Y156.674 E12.84462
G1 X94.149 Y157.075 E12.88401
G1 X93.431 Y157.405 E12.92343
G1 X92.684 Y157.66 E12.96281
G1 X91.915 Y157.839 E13.0022
G1 X91.131 Y157.939 E13.04163
G1 X90.536 Y157.962 E13.07134
G1 X86.77 Y157.962 E13.25922
G1 X85.981 Y157.922 E13.29864
G1 X85.201 Y157.803 E13.338
G1 X84.436 Y157.605 E13.37743
G1 X83.696 Y157.331 E13.41679
G1 X82.987 Y156.983 E13.4562
G1 X82.316 Y156.565 E13.49564
G1 X81.692 Y156.082 E13.53501
G1 X81.255 Y155.677 E13.56473
G1 X81.138 Y155.56 E13.57299
G1 X80.608 Y154.974 E13.61241
G1 X80.141 Y154.338 E13.65177
G1 X79.74 Y153.658 E13.69116
G1 X79.41 Y152.94 E13.73058
G1 X79.155 Y152.193 E13.76996
G1 X78.976 Y151.424 E13.80935
G1 X78.876 Y150.64 E13.84878
G1 X78.853 Y150.045 E13.87849
G1 X78.853 Y105.568 E16.09745
G1 X78.893 Y104.779 E16.13687
G1 X79.012 Y103.999 E16.17623
G1 X79.21 Y103.234 E16.21566
G1 X79.484 Y102.494 E16.25502
G1 X79.832 Y101.785 E16.29443
G1 X80.25 Y101.114 E16.33387
G1 X80.733 Y100.49 E16.37324
G1 X81.138 Y100.053 E16.40296
G1 X81.255 Y99.936 E16.41122
G1 X81.841 Y99.406 E16.45064
G1 X82.477 Y98.939 E16.49
G1 X83.157 Y98.538 E16.52939
G1 X83.875 Y98.208 E16.56881
G1 X84.622 Y97.953 E16.60819
G1 X85.391 Y97.774 E16.64758
G1 X86.175 Y97.674 E16.68701
G1 X86.77 Y97.651 E16.71672
G1 X93.111 Y97.651 E17.03307
G1 X93.112 Y69.955 E18.41483
G1 X93.152 Y69.166 E18.45425
G1 X93.272 Y68.386 E18.49362
G1 X93.469 Y67.621 E18.53303
G1 X93.744 Y66.88 E18.57246
G1 X94.091 Y66.171 E18.61184
G1 X94.509 Y65.501 E18.65124
G0 F7500 X94.906 Y65.632
G1 F1500 X95.388 Y65.032 E18.68964
G1 X95.679 Y64.722 E18.71085
G1 X95.796 Y64.605 E18.7191
G1 X96.368 Y64.091 E18.75747
G1 X96.99 Y63.638 E18.79586
G1 X97.655 Y63.252 E18.83422
G1 X98.357 Y62.937 E18.87261
G1 X99.088 Y62.697 E18.91099
G1 X99.839 Y62.534 E18.94933
G1 X100.604 Y62.45 E18.98773
G1 X101.029 Y62.438 E19.00894
G1 X133.224 Y62.438 E20.61516
G1 X133.992 Y62.478 E20.65352
G1 X134.752 Y62.597 E20.6919
G1 X135.495 Y62.795 E20.73026
G1 X136.214 Y63.069 E20.76865
G1 X136.9 Y63.416 E20.80701
G1 X137.547 Y63.832 E20.84538
G1 X138.147 Y64.313 E20.88375
G1 X138.694 Y64.854 E20.92213
G1 X139.182 Y65.449 E20.96052
G1 X139.605 Y66.091 E20.99888
G1 X139.96 Y66.774 E21.03728
G1 X140.241 Y67.489 E21.07561
G1 X140.447 Y68.231 E21.11403
G1 X140.575 Y68.989 E21.15238
G1 X140.624 Y69.827 E21.19426
G1 X140.741 Y150.034 E25.19581
G1 X140.702 Y150.802 E25.23417
G1 X140.584 Y151.562 E25.27254
G1 X140.387 Y152.306 E25.31094
G1 X140.114 Y153.025 E25.34931
G1 X139.768 Y153.712 E25.38769
G1 X139.353 Y154.359 E25.42603
G1 X138.873 Y154.96 E25.46441
G1 X138.574 Y155.278 E25.48618
G1 X138.457 Y155.395 E25.49444
G1 X137.885 Y155.909 E25.53281
G1 X137.263 Y156.362 E25.57119
G1 X136.598 Y156.748 E25.60956
G1 X135.896 Y157.063 E25.64794
G1 X135.165 Y157.303 E25.68633
G1 X134.414 Y157.466 E25.72467
G1 X133.649 Y157.55 E25.76306
G1 X133.224 Y157.562 E25.78427
G1 X129.458 Y157.562 E25.97216
G1 X128.69 Y157.522 E26.01053
G1 X127.93 Y157.403 E26.04891
G1 X127.187 Y157.205 E26.08727
G1 X126.468 Y156.931 E26.12566
G1 X125.782 Y156.584 E26.16401
G1 X125.135 Y156.168 E26.20239
G1 X124.535 Y155.687 E26.24075
G1 X124.108 Y155.278 E26.27025
G1 X123.594 Y154.706 E26.30862
G1 X123.141 Y154.084 E26.34701
G1 X122.755 Y153.419 E26.38537
G1 X122.44 Y152.717 E26.42375
G1 X122.2 Y151.986 E26.46214
G1 X122.037 Y151.235 E26.50048
G1 X121.953 Y150.47 E26.53887
G1 X121.941 Y150.045 E26.56009
G1 X121.941 Y116.851 E28.21614
G1 X98.053 Y116.851 E29.40792
G1 X98.053 Y150.045 E31.06397
G1 X98.013 Y150.813 E31.10234
G1 X97.894 Y151.573 E31.14072
G1 X97.696 Y152.316 E31.17908
G1 X97.422 Y153.035 E31.21747
G1 X97.075 Y153.721 E31.25582
G1 X96.659 Y154.368 E31.2942
G1 X96.178 Y154.968 E31.33257
G1 X95.769 Y155.395 E31.36206
G1 X95.197 Y155.909 E31.40043
G1 X94.575 Y156.362 E31.43882
G1 X93.91 Y156.748 E31.47718
G1 X93.208 Y157.063 E31.51557
G1 X92.477 Y157.303 E31.55395
G1 X91.726 Y157.466 E31.59229
G1 X90.961 Y157.55 E31.63069
G1 X90.536 Y157.562 E31.6519
G1 X86.77 Y157.562 E31.83979
G1 X86.002 Y157.522 E31.87815
G1 X85.242 Y157.403 E31.91653
G1 X84.499 Y157.205 E31.95489
G1 X83.78 Y156.931 E31.99328
G1 X83.094 Y156.584 E32.03164
G1 X82.447 Y156.168 E32.07001
G1 X81.847 Y155.687 E32.10838
G1 X81.42 Y155.278 E32.13788
G1 X80.906 Y154.706 E32.17624
G1 X80.453 Y154.084 E32.21463
G1 X80.067 Y153.419 E32.25299
G1 X79.752 Y152.717 E32.29138
G1 X79.512 Y151.986 E32.32977
G1 X79.349 Y151.235 E32.36811
G1 X79.265 Y150.47 E32.4065
G1 X79.253 Y150.045 E32.42771
G1 X79.253 Y105.568 E34.64668
G1 X79.293 Y104.8 E34.68505
G1 X79.412 Y104.04 E34.72342
G1 X79.61 Y103.297 E34.76179
G1 X79.884 Y102.578 E34.80017
G1 X80.231 Y101.892 E34.83853
G1 X80.647 Y101.245 E34.8769
G1 X81.128 Y100.645 E34.91527
G1 X81.537 Y100.218 E34.94477
G1 X82.109 Y99.704 E34.98313
G1 X82.731 Y99.251 E35.02152
G1 X83.396 Y98.865 E35.05988
G1 X84.098 Y98.55 E35.09827
G1 X84.829 Y98.31 E35.13666
G1 X85.58 Y98.147 E35.175
G1 X86.345 Y98.063 E35.21339
G1 X86.77 Y98.051 E35.2346
G1 X93.511 Y98.051 E35.57091
G1 X93.512 Y69.955 E36.97263
G1 X93.552 Y69.187 E37.011
G1 X93.672 Y68.427 E37.04938
G1 X93.869 Y67.684 E37.08773
G1 X94.143 Y66.965 E37.12612
G1 X94.49 Y66.278 E37.16452
G1 X94.906 Y65.632 E37.20285
G0 F7500 X95.304 Y65.766
G1 F1500 X95.962 Y65.005 E37.25304
G1 X96.079 Y64.888 E37.2613
G1 X96.636 Y64.388 E37.29864
G1 X97.242 Y63.951 E37.33591
G1 X97.892 Y63.58 E37.37325
G1 X98.578 Y63.281 E37.41059
G1 X99.292 Y63.057 E37.44792
G1 X100.025 Y62.91 E37.48522
G1 X101.029 Y62.838 E37.53544
G1 X133.224 Y62.838 E39.14165
G1 X133.971 Y62.878 E39.17897
G1 X134.709 Y62.997 E39.21627
G1 X135.431 Y63.195 E39.25362
G1 X136.127 Y63.468 E39.29092
G1 X136.79 Y63.815 E39.32825
G1 X137.413 Y64.23 E39.3656
G1 X137.987 Y64.709 E39.4029
G1 X138.508 Y65.246 E39.44023
G1 X138.967 Y65.836 E39.47752
G1 X139.362 Y66.472 E39.51487
G1 X139.686 Y67.146 E39.55218
G1 X139.936 Y67.851 E39.5895
G1 X140.11 Y68.579 E39.62684
G1 X140.205 Y69.321 E39.66416
G1 X140.224 Y69.828 E39.68947
G1 X140.341 Y150.035 E43.69102
G1 X140.302 Y150.782 E43.72834
G1 X140.184 Y151.52 E43.76563
G1 X139.987 Y152.242 E43.80297
G1 X139.715 Y152.939 E43.84029
G1 X139.37 Y153.603 E43.87762
G1 X138.955 Y154.226 E43.91497
G1 X138.291 Y154.995 E43.96566
G1 X138.174 Y155.112 E43.97391
G1 X137.617 Y155.612 E44.01126
G1 X137.011 Y156.049 E44.04853
G1 X136.361 Y156.42 E44.08587
G1 X135.675 Y156.719 E44.1232
G1 X134.961 Y156.943 E44.16054
G1 X134.228 Y157.09 E44.19784
G1 X133.224 Y157.162 E44.24805
G1 X129.458 Y157.162 E44.43594
G1 X128.711 Y157.122 E44.47326
G1 X127.973 Y157.003 E44.51056
G1 X127.251 Y156.805 E44.54791
G1 X126.555 Y156.532 E44.58521
G1 X125.892 Y156.185 E44.62254
G1 X125.269 Y155.77 E44.65989
G1 X124.508 Y155.112 E44.71008
G1 X124.391 Y154.995 E44.71833
G1 X123.891 Y154.438 E44.75567
G1 X123.454 Y153.832 E44.79295
G1 X123.083 Y153.182 E44.83029
G1 X122.784 Y152.496 E44.86762
G1 X122.56 Y151.782 E44.90496
G1 X122.413 Y151.049 E44.94225
G1 X122.341 Y150.045 E44.99247
G1 X122.341 Y116.451 E46.66848
G1 X97.653 Y116.451 E47.90017
G1 X97.653 Y150.045 E49.57618
G1 X97.613 Y150.792 E49.61351
G1 X97.494 Y151.53 E49.6508
G1 X97.296 Y152.252 E49.68815
G1 X97.023 Y152.948 E49.72545
G1 X96.676 Y153.611 E49.76278
G1 X96.261 Y154.234 E49.80013
G1 X95.603 Y154.995 E49.85032
G1 X95.486 Y155.112 E49.85858
G1 X94.929 Y155.612 E49.89592
G1 X94.323 Y156.049 E49.93319
G1 X93.673 Y156.42 E49.97053
G1 X92.987 Y156.719 E50.00787
G1 X92.273 Y156.943 E50.0452
G1 X91.54 Y157.09 E50.0825
G1 X90.536 Y157.162 E50.13272
G1 X86.77 Y157.162 E50.3206
G1 X86.023 Y157.122 E50.35792
G1 X85.285 Y157.003 E50.39522
G1 X84.563 Y156.805 E50.43257
G1 X83.867 Y156.532 E50.46987
G1 X83.204 Y156.185 E50.5072
G1 X82.581 Y155.77 E50.54455
G1 X81.82 Y155.112 E50.59474
G1 X81.703 Y154.995 E50.60299
G1 X81.203 Y154.438 E50.64034
G1 X80.766 Y153.832 E50.67761
G1 X80.395 Y153.182 E50.71495
G1 X80.096 Y152.496 E50.75228
G1 X79.872 Y151.782 E50.78962
G1 X79.725 Y151.049 E50.82692
G1 X79.653 Y150.045 E50.87713
G1 X79.653 Y105.568 E53.0961
G1 X79.693 Y104.821 E53.13342
G1 X79.812 Y104.083 E53.17072
G1 X80.01 Y103.361 E53.20807
G1 X80.283 Y102.665 E53.24537
G1 X80.63 Y102.002 E53.2827
G1 X81.045 Y101.379 E53.32005
G1 X81.703 Y100.618 E53.37024
G1 X81.82 Y100.501 E53.37849
G1 X82.377 Y100.001 E53.41584
G1 X82.983 Y99.564 E53.45311
G1 X83.633 Y99.193 E53.49045
G1 X84.319 Y98.894 E53.52778
G1 X85.033 Y98.67 E53.56512
G1 X85.766 Y98.523 E53.60241
G1 X86.77 Y98.451 E53.65263
G1 X93.911 Y98.451 E54.0089
G1 X93.912 Y69.955 E55.43057
G1 X93.952 Y69.208 E55.46789
G1 X94.071 Y68.469 E55.50523
G1 X94.269 Y67.748 E55.54254
G1 X94.543 Y67.052 E55.57985
G1 X94.889 Y66.388 E55.61721
G1 X95.304 Y65.766 E55.65451
G0 F7500 X95.701 Y65.905
G1 F1500 X96.245 Y65.288 E55.69555
G1 X96.362 Y65.171 E55.70381
G1 X96.903 Y64.687 E55.74002
G1 X97.494 Y64.264 E55.77628
G1 X98.128 Y63.91 E55.81251
G1 X98.797 Y63.627 E55.84875
G1 X99.493 Y63.419 E55.88499
G1 X100.208 Y63.289 E55.92125
G1 X101.029 Y63.238 E55.96229
G1 X133.224 Y63.238 E57.5685
G1 X133.949 Y63.278 E57.60473
G1 X134.666 Y63.397 E57.64099
G1 X135.365 Y63.595 E57.67723
G1 X136.038 Y63.868 E57.71347
G1 X136.677 Y64.213 E57.74969
G1 X137.274 Y64.627 E57.78594
G1 X137.822 Y65.103 E57.82215
G1 X138.315 Y65.637 E57.85841
G1 X138.745 Y66.222 E57.89463
G1 X139.109 Y66.851 E57.93089
G1 X139.402 Y67.516 E57.96715
G1 X139.62 Y68.209 E58.00339
G1 X139.76 Y68.921 E58.03959
G1 X139.824 Y69.828 E58.08496
G1 X139.941 Y150.035 E62.0865
G1 X139.902 Y150.761 E62.12278
G1 X139.784 Y151.477 E62.15898
G1 X139.587 Y152.177 E62.19526
G1 X139.315 Y152.85 E62.23147
G1 X138.971 Y153.49 E62.26772
G1 X138.558 Y154.087 E62.30394
G1 X138.008 Y154.712 E62.34548
G1 X137.891 Y154.829 E62.35373
G1 X137.35 Y155.313 E62.38995
G1 X136.759 Y155.736 E62.42621
G1 X136.125 Y156.09 E62.46243
G1 X135.456 Y156.373 E62.49867
G1 X134.76 Y156.581 E62.53491
G1 X134.045 Y156.711 E62.57117
G1 X133.224 Y156.762 E62.61221
G1 X129.458 Y156.762 E62.8001
G1 X128.733 Y156.722 E62.83632
G1 X128.016 Y156.603 E62.87258
G1 X127.317 Y156.405 E62.90883
G1 X126.644 Y156.132 E62.94506
G1 X126.005 Y155.787 E62.98129
G1 X125.408 Y155.373 E63.01753
G1 X124.791 Y154.829 E63.05857
G1 X124.674 Y154.712 E63.06683
G1 X124.19 Y154.171 E63.10304
G1 X123.767 Y153.58 E63.1393
G1 X123.413 Y152.946 E63.17553
G1 X123.13 Y152.277 E63.21177
G1 X122.922 Y151.581 E63.24801
G1 X122.792 Y150.866 E63.28427
G1 X122.741 Y150.045 E63.32531
G1 X122.741 Y116.051 E65.02127
G1 X97.253 Y116.051 E66.29287
G1 X97.253 Y150.045 E67.98884
G1 X97.213 Y150.77 E68.02507
G1 X97.094 Y151.487 E68.06133
G1 X96.896 Y152.186 E68.09757
G1 X96.623 Y152.859 E68.13381
G1 X96.278 Y153.498 E68.17004
G1 X95.864 Y154.095 E68.20628
G1 X95.32 Y154.712 E68.24732
G1 X95.203 Y154.829 E68.25558
G1 X94.662 Y155.313 E68.29179
G1 X94.071 Y155.736 E68.32805
G1 X93.437 Y156.09 E68.36428
G1 X92.768 Y156.373 E68.40052
G1 X92.072 Y156.581 E68.43676
G1 X91.357 Y156.711 E68.47301
G1 X90.536 Y156.762 E68.51405
G1 X86.77 Y156.762 E68.70194
G1 X86.045 Y156.722 E68.73817
G1 X85.328 Y156.603 E68.77443
G1 X84.629 Y156.405 E68.81067
G1 X83.956 Y156.132 E68.8469
G1 X83.317 Y155.787 E68.88313
G1 X82.72 Y155.373 E68.91938
G1 X82.103 Y154.829 E68.96042
G1 X81.986 Y154.712 E68.96867
G1 X81.502 Y154.171 E69.00489
G1 X81.079 Y153.58 E69.04115
G1 X80.725 Y152.946 E69.07737
G1 X80.442 Y152.277 E69.11361
G1 X80.234 Y151.581 E69.14986
G1 X80.104 Y150.866 E69.18611
G1 X80.053 Y150.045 E69.22715
G1 X80.053 Y105.568 E71.44612
G1 X80.093 Y104.843 E71.48234
G1 X80.212 Y104.126 E71.5186
G1 X80.41 Y103.427 E71.55485
G1 X80.683 Y102.754 E71.59108
G1 X81.028 Y102.115 E71.62731
G1 X81.442 Y101.518 E71.66356
G1 X81.986 Y100.901 E71.7046
G1 X82.103 Y100.784 E71.71285
G1 X82.644 Y100.3 E71.74907
G1 X83.235 Y99.877 E71.78532
G1 X83.869 Y99.523 E71.82155
G1 X84.538 Y99.24 E71.85779
G1 X85.234 Y99.032 E71.89403
G1 X85.949 Y98.902 E71.93029
G1 X86.77 Y98.851 E71.97133
G1 X94.311 Y98.851 E72.34755
G1 X94.312 Y69.955 E73.78918
G1 X94.352 Y69.23 E73.8254
G1 X94.471 Y68.513 E73.86166
G1 X94.669 Y67.814 E73.89791
G1 X94.942 Y67.141 E73.93414
G1 X95.287 Y66.502 E73.97037
G1 X95.701 Y65.905 E74.00662
G0 F7500 X95.686 Y66.619
G1 F1500 X96.098 Y66.048 E74.04175
G1 X96.528 Y65.571 E74.07379
G1 X96.645 Y65.454 E74.08204
G1 X97.17 Y64.985 E74.11716
G1 X97.745 Y64.579 E74.15228
G1 X98.363 Y64.241 E74.18742
G1 X99.014 Y63.974 E74.22253
G1 X99.692 Y63.784 E74.25765
G1 X100.387 Y63.671 E74.29278
G1 X101.029 Y63.638 E74.32486
G1 X133.224 Y63.638 E75.93107
G1 X133.927 Y63.678 E75.9662
G1 X134.621 Y63.797 E76.00133
G1 X135.296 Y63.995 E76.03642
G1 X135.945 Y64.267 E76.07153
G1 X136.559 Y64.612 E76.10667
G1 X137.13 Y65.023 E76.14177
G1 X137.651 Y65.497 E76.17691
G1 X138.115 Y66.027 E76.21205
G1 X138.515 Y66.606 E76.24716
G1 X138.847 Y67.227 E76.28229
G1 X139.107 Y67.881 E76.3174
G1 X139.291 Y68.561 E76.35255
G1 X139.397 Y69.257 E76.38767
G1 X139.424 Y69.829 E76.41624
G1 X139.541 Y150.036 E80.41779
G1 X139.502 Y150.739 E80.45292
G1 X139.384 Y151.433 E80.48804
G1 X139.187 Y152.109 E80.52317
G1 X138.916 Y152.758 E80.55825
G1 X138.572 Y153.373 E80.59341
G1 X138.161 Y153.944 E80.62851
G1 X137.725 Y154.429 E80.66105
G1 X137.608 Y154.546 E80.6693
G1 X137.083 Y155.015 E80.70442
G1 X136.508 Y155.421 E80.73954
G1 X135.89 Y155.759 E80.77468
G1 X135.239 Y156.026 E80.80979
G1 X134.561 Y156.216 E80.84492
G1 X133.866 Y156.329 E80.88004
