;FLAVOR:Marlin
;TIME:8078
;Filament used: 10.2585m
;Layer height: 0.4
;MINX:35.722
;MINY:78.856
;MINZ:0.3
;MAXX:184.278
;MAXY:141.144
;MAXZ:27.9
;Generated with Cura_SteamEngine 4.5.0
M140 S60
M105
M190 S60
M104 S200
M105
M109 S200
M82 ;absolute extrusion mode
G28 ;Home
G29 ;ABL
G1 Z15.0 F2000 ;Move the platform
G92 E0
G92 E0
G1 F1500 E-6.5
;LAYER_COUNT:70
;LAYER:0
M107
M204 S1000
G0 F7500 X40.744 Y103.101 Z0.3
;TYPE:SKIRT
G1 F1500 E0
G1 X41.491 Y102.846 E0.03938
G1 X42.26 Y102.667 E0.07877
G1 X43.044 Y102.567 E0.1182
G1 X43.639 Y102.544 E0.14791
G1 X123.968 Y102.544 E4.15554
G1 X123.968 Y86.773 E4.94236
G1 X124.008 Y85.984 E4.98177
G1 X124.127 Y85.204 E5.02114
G1 X124.325 Y84.439 E5.06056
G1 X124.599 Y83.699 E5.09993
G1 X124.947 Y82.99 E5.13933
G1 X125.365 Y82.319 E5.17877
G1 X125.848 Y81.695 E5.21814
G1 X126.253 Y81.258 E5.24786
G1 X126.37 Y81.141 E5.25612
G1 X126.956 Y80.611 E5.29554
G1 X127.592 Y80.144 E5.3349
G1 X128.272 Y79.743 E5.37429
G1 X128.99 Y79.413 E5.41371
G1 X129.737 Y79.158 E5.45309
G1 X130.506 Y78.979 E5.49248
G1 X131.29 Y78.879 E5.53191
G1 X131.885 Y78.856 E5.56162
G1 X176.361 Y78.856 E7.78054
G1 X177.15 Y78.896 E7.81995
G1 X177.93 Y79.015 E7.85932
G1 X178.695 Y79.213 E7.89874
G1 X179.435 Y79.487 E7.93811
G1 X180.144 Y79.835 E7.97751
G1 X180.815 Y80.253 E8.01695
G1 X181.439 Y80.736 E8.05632
G1 X181.876 Y81.141 E8.08605
G1 X181.993 Y81.258 E8.0943
G1 X182.523 Y81.844 E8.13372
G1 X182.99 Y82.48 E8.17309
G1 X183.391 Y83.16 E8.21247
G1 X183.721 Y83.878 E8.25189
G1 X183.976 Y84.625 E8.29127
G1 X184.155 Y85.394 E8.33066
G1 X184.255 Y86.178 E8.3701
G1 X184.278 Y86.773 E8.3998
G1 X184.278 Y90.539 E8.58769
G1 X184.238 Y91.328 E8.6271
G1 X184.119 Y92.108 E8.66647
G1 X183.921 Y92.873 E8.70589
G1 X183.647 Y93.613 E8.74526
G1 X183.299 Y94.322 E8.78466
G1 X182.881 Y94.993 E8.8241
G1 X182.398 Y95.617 E8.86347
G1 X181.993 Y96.054 E8.8932
G1 X181.876 Y96.171 E8.90145
G1 X181.29 Y96.701 E8.94087
G1 X180.654 Y97.168 E8.98024
G1 X179.974 Y97.569 E9.01962
G1 X179.256 Y97.899 E9.05904
G1 X178.509 Y98.154 E9.09842
G1 X177.74 Y98.333 E9.13781
G1 X176.956 Y98.433 E9.17725
G1 X176.361 Y98.456 E9.20695
G1 X143.568 Y98.456 E10.843
G1 X143.568 Y121.544 E11.99487
G1 X176.361 Y121.544 E13.63092
G1 X177.15 Y121.584 E13.67033
G1 X177.93 Y121.703 E13.70969
G1 X178.695 Y121.901 E13.74912
G1 X179.435 Y122.175 E13.78849
G1 X180.144 Y122.523 E13.82789
G1 X180.815 Y122.941 E13.86733
G1 X181.439 Y123.424 E13.9067
G1 X181.876 Y123.829 E13.93642
G1 X181.993 Y123.946 E13.94468
G1 X182.523 Y124.532 E13.9841
G1 X182.99 Y125.168 E14.02346
G1 X183.391 Y125.848 E14.06285
G1 X183.721 Y126.566 E14.10227
G1 X183.976 Y127.313 E14.14165
G1 X184.155 Y128.082 E14.18104
G1 X184.255 Y128.866 E14.22047
G1 X184.278 Y129.461 E14.25018
G1 X184.278 Y133.227 E14.43807
G1 X184.238 Y134.016 E14.47748
G1 X184.119 Y134.796 E14.51685
G1 X183.921 Y135.561 E14.55627
G1 X183.647 Y136.301 E14.59564
G1 X183.299 Y137.01 E14.63504
G1 X182.881 Y137.681 E14.67448
G1 X182.398 Y138.305 E14.71385
G1 X181.993 Y138.742 E14.74357
G1 X181.876 Y138.859 E14.75183
G1 X181.29 Y139.389 E14.79125
G1 X180.654 Y139.856 E14.83061
G1 X179.974 Y140.257 E14.87
G1 X179.256 Y140.587 E14.90942
G1 X178.509 Y140.842 E14.9488
G1 X177.74 Y141.021 E14.98819
G1 X176.956 Y141.121 E15.02762
G1 X176.361 Y141.144 E15.05733
G1 X131.885 Y141.144 E17.27625
G1 X131.096 Y141.104 E17.31566
G1 X130.316 Y140.985 E17.35503
G1 X129.551 Y140.787 E17.39445
G1 X128.811 Y140.513 E17.43382
G1 X128.102 Y140.165 E17.47322
G1 X127.431 Y139.747 E17.51266
G1 X126.807 Y139.264 E17.55203
G1 X126.37 Y138.859 E17.58176
G1 X126.253 Y138.742 E17.59001
G1 X125.723 Y138.156 E17.62943
G1 X125.256 Y137.52 E17.6688
G1 X124.855 Y136.84 E17.70818
G1 X124.525 Y136.122 E17.7476
G1 X124.27 Y135.375 E17.78698
G1 X124.091 Y134.606 E17.82637
G1 X124.032 Y134.144 E17.84961
G1 X43.639 Y134.144 E21.86043
G1 X42.85 Y134.104 E21.89985
G1 X42.07 Y133.985 E21.93921
G1 X41.305 Y133.787 E21.97864
G1 X40.565 Y133.513 E22.018
G1 X39.856 Y133.165 E22.05741
G1 X39.185 Y132.747 E22.09685
G1 X38.561 Y132.264 E22.13622
G1 X38.124 Y131.859 E22.16594
G1 X38.007 Y131.742 E22.1742
G1 X37.477 Y131.156 E22.21362
G1 X37.01 Y130.52 E22.25298
G1 X36.609 Y129.84 E22.29237
G1 X36.279 Y129.122 E22.33179
G1 X36.024 Y128.375 E22.37117
G1 X35.845 Y127.606 E22.41056
G1 X35.745 Y126.822 E22.44999
G1 X35.722 Y126.227 E22.4797
G1 X35.722 Y110.461 E23.26627
G1 X35.762 Y109.672 E23.30568
G1 X35.881 Y108.892 E23.34505
G1 X36.079 Y108.127 E23.38447
G1 X36.353 Y107.387 E23.42384
G1 X36.701 Y106.678 E23.46324
G1 X37.119 Y106.007 E23.50268
G1 X37.602 Y105.383 E23.54205
G1 X38.007 Y104.946 E23.57177
G1 X38.124 Y104.829 E23.58003
G1 X38.71 Y104.299 E23.61945
G1 X39.346 Y103.832 E23.65881
G1 X40.026 Y103.431 E23.6982
G1 X40.744 Y103.101 E23.73762
G0 F7500 X40.967 Y103.443
G1 F1500 X41.698 Y103.203 E23.77601
G1 X42.449 Y103.04 E23.81435
G1 X43.214 Y102.956 E23.85274
G1 X43.639 Y102.944 E23.87395
G1 X124.368 Y102.944 E27.90154
G1 X124.368 Y86.773 E28.70832
G1 X124.408 Y86.005 E28.74668
G1 X124.527 Y85.245 E28.78506
G1 X124.725 Y84.502 E28.82342
G1 X124.999 Y83.783 E28.86181
G1 X125.346 Y83.097 E28.90017
G1 X125.762 Y82.45 E28.93854
G1 X126.243 Y81.85 E28.97691
G1 X126.652 Y81.423 E29.00641
G1 X127.224 Y80.909 E29.04477
G1 X127.846 Y80.456 E29.08316
G1 X128.511 Y80.07 E29.12152
G1 X129.213 Y79.755 E29.15991
G1 X129.944 Y79.515 E29.19829
G1 X130.695 Y79.352 E29.23663
G1 X131.46 Y79.268 E29.27503
G1 X131.885 Y79.256 E29.29624
G1 X176.361 Y79.256 E31.51516
G1 X177.129 Y79.296 E31.55353
G1 X177.889 Y79.415 E31.5919
G1 X178.632 Y79.613 E31.63027
G1 X179.351 Y79.887 E31.66865
G1 X180.037 Y80.234 E31.70701
G1 X180.684 Y80.65 E31.74538
G1 X181.284 Y81.131 E31.78375
G1 X181.711 Y81.54 E31.81325
G1 X182.225 Y82.112 E31.85161
G1 X182.678 Y82.734 E31.89
G1 X183.064 Y83.399 E31.92836
G1 X183.379 Y84.101 E31.96675
G1 X183.619 Y84.832 E32.00514
G1 X183.782 Y85.583 E32.04348
G1 X183.866 Y86.348 E32.08187
G1 X183.878 Y86.773 E32.10308
G1 X183.878 Y90.539 E32.29097
G1 X183.838 Y91.307 E32.32934
G1 X183.719 Y92.067 E32.36772
G1 X183.521 Y92.81 E32.40608
G1 X183.247 Y93.529 E32.44447
G1 X182.9 Y94.215 E32.48282
G1 X182.484 Y94.862 E32.52119
G1 X182.003 Y95.462 E32.55956
G1 X181.594 Y95.889 E32.58906
G1 X181.022 Y96.403 E32.62743
G1 X180.4 Y96.856 E32.66581
G1 X179.735 Y97.242 E32.70418
G1 X179.033 Y97.557 E32.74256
G1 X178.302 Y97.797 E32.78095
G1 X177.551 Y97.96 E32.81929
G1 X176.786 Y98.044 E32.85768
G1 X176.361 Y98.056 E32.8789
G1 X143.168 Y98.056 E34.5349
G1 X143.168 Y121.944 E35.72668
G1 X176.361 Y121.944 E37.38268
G1 X177.129 Y121.984 E37.42105
G1 X177.889 Y122.103 E37.45943
G1 X178.632 Y122.301 E37.49779
G1 X179.351 Y122.575 E37.53618
G1 X180.037 Y122.922 E37.57453
G1 X180.684 Y123.338 E37.61291
G1 X181.284 Y123.819 E37.65127
G1 X181.711 Y124.228 E37.68077
G1 X182.225 Y124.8 E37.71914
G1 X182.678 Y125.422 E37.75753
G1 X183.064 Y126.087 E37.79589
G1 X183.379 Y126.789 E37.83428
G1 X183.619 Y127.52 E37.87266
G1 X183.782 Y128.271 E37.911
G1 X183.866 Y129.036 E37.9494
G1 X183.878 Y129.461 E37.97061
G1 X183.878 Y133.227 E38.1585
G1 X183.838 Y133.995 E38.19686
G1 X183.719 Y134.755 E38.23524
G1 X183.521 Y135.498 E38.2736
G1 X183.247 Y136.217 E38.31199
G1 X182.9 Y136.903 E38.35035
G1 X182.484 Y137.55 E38.38872
G1 X182.003 Y138.15 E38.42709
G1 X181.594 Y138.577 E38.45659
G1 X181.022 Y139.091 E38.49495
G1 X180.4 Y139.544 E38.53334
G1 X179.735 Y139.93 E38.5717
G1 X179.033 Y140.245 E38.61009
G1 X178.302 Y140.485 E38.64847
G1 X177.551 Y140.648 E38.68681
G1 X176.786 Y140.732 E38.72521
G1 X176.361 Y140.744 E38.74642
G1 X131.885 Y140.744 E40.96534
G1 X131.117 Y140.704 E41.00371
G1 X130.357 Y140.585 E41.04208
G1 X129.614 Y140.387 E41.08045
G1 X128.895 Y140.113 E41.11883
G1 X128.209 Y139.766 E41.15719
G1 X127.562 Y139.35 E41.19556
G1 X126.962 Y138.869 E41.23393
G1 X126.535 Y138.46 E41.26343
G1 X126.021 Y137.888 E41.30179
G1 X125.568 Y137.266 E41.34018
G1 X125.182 Y136.601 E41.37854
G1 X124.867 Y135.899 E41.41693
G1 X124.627 Y135.168 E41.45532
G1 X124.464 Y134.417 E41.49366
G1 X124.39 Y133.744 E41.52743
G1 X43.639 Y133.744 E45.55612
G1 X42.871 Y133.704 E45.59449
G1 X42.111 Y133.585 E45.63286
G1 X41.368 Y133.387 E45.67123
G1 X40.649 Y133.113 E45.70961
G1 X39.963 Y132.766 E45.74797
G1 X39.316 Y132.35 E45.78634
G1 X38.716 Y131.869 E45.82471
G1 X38.289 Y131.46 E45.85421
G1 X37.775 Y130.888 E45.89257
G1 X37.322 Y130.266 E45.93096
G1 X36.936 Y129.601 E45.96932
G1 X36.621 Y128.899 E46.00771
G1 X36.381 Y128.168 E46.0461
G1 X36.218 Y127.417 E46.08444
G1 X36.134 Y126.652 E46.12283
G1 X36.122 Y126.227 E46.14404
G1 X36.122 Y110.461 E46.93061
G1 X36.162 Y109.693 E46.96898
G1 X36.281 Y108.933 E47.00736
G1 X36.479 Y108.19 E47.04572
G1 X36.753 Y107.471 E47.08411
G1 X37.1 Y106.785 E47.12246
G1 X37.516 Y106.138 E47.16084
G1 X37.997 Y105.538 E47.1992
G1 X38.406 Y105.111 E47.2287
G1 X38.978 Y104.597 E47.26707
G1 X39.6 Y104.144 E47.30546
G1 X40.265 Y103.758 E47.34382
G1 X40.967 Y103.443 E47.38221
G0 F7500 X41.188 Y103.787
G1 F1500 X41.902 Y103.563 E47.41954
G1 X42.635 Y103.416 E47.45684
G1 X43.639 Y103.344 E47.50706
G1 X124.768 Y103.344 E51.5546
G1 X124.768 Y86.773 E52.38133
G1 X124.808 Y86.026 E52.41865
G1 X124.927 Y85.288 E52.45594
G1 X125.125 Y84.566 E52.4933
G1 X125.398 Y83.87 E52.53059
G1 X125.745 Y83.207 E52.56793
G1 X126.16 Y82.584 E52.60527
G1 X126.818 Y81.823 E52.65546
G1 X126.935 Y81.706 E52.66372
G1 X127.492 Y81.206 E52.70106
G1 X128.098 Y80.769 E52.73834
G1 X128.748 Y80.398 E52.77568
G1 X129.434 Y80.099 E52.81301
G1 X130.148 Y79.875 E52.85034
G1 X130.881 Y79.728 E52.88764
G1 X131.885 Y79.656 E52.93786
G1 X176.361 Y79.656 E55.15678
G1 X177.108 Y79.696 E55.1941
G1 X177.846 Y79.815 E55.23139
G1 X178.568 Y80.013 E55.26874
G1 X179.264 Y80.286 E55.30604
G1 X179.927 Y80.633 E55.34338
G1 X180.55 Y81.048 E55.38072
G1 X181.311 Y81.706 E55.43091
G1 X181.428 Y81.823 E55.43917
G1 X181.928 Y82.38 E55.47651
G1 X182.365 Y82.986 E55.51379
G1 X182.736 Y83.636 E55.55112
G1 X183.035 Y84.322 E55.58846
G1 X183.259 Y85.036 E55.62579
G1 X183.406 Y85.769 E55.66309
G1 X183.478 Y86.773 E55.71331
G1 X183.478 Y90.539 E55.90119
G1 X183.438 Y91.286 E55.93852
G1 X183.319 Y92.024 E55.97581
G1 X183.121 Y92.746 E56.01316
G1 X182.848 Y93.442 E56.05046
G1 X182.501 Y94.105 E56.08779
G1 X182.086 Y94.728 E56.12514
G1 X181.428 Y95.489 E56.17533
G1 X181.311 Y95.606 E56.18359
G1 X180.754 Y96.106 E56.22093
G1 X180.148 Y96.543 E56.2582
G1 X179.498 Y96.914 E56.29554
G1 X178.812 Y97.213 E56.33288
G1 X178.098 Y97.437 E56.37021
G1 X177.365 Y97.584 E56.40751
G1 X176.361 Y97.656 E56.45773
G1 X142.768 Y97.656 E58.13369
G1 X142.768 Y122.344 E59.36538
G1 X176.361 Y122.344 E61.04134
G1 X177.108 Y122.384 E61.07866
G1 X177.846 Y122.503 E61.11595
G1 X178.568 Y122.701 E61.15331
G1 X179.264 Y122.974 E61.1906
G1 X179.927 Y123.321 E61.22794
G1 X180.55 Y123.736 E61.26528
G1 X181.311 Y124.394 E61.31548
G1 X181.428 Y124.511 E61.32373
G1 X181.928 Y125.068 E61.36107
G1 X182.365 Y125.674 E61.39835
G1 X182.736 Y126.324 E61.43569
G1 X183.035 Y127.01 E61.47302
G1 X183.259 Y127.724 E61.51035
G1 X183.406 Y128.457 E61.54765
G1 X183.478 Y129.461 E61.59787
G1 X183.478 Y133.227 E61.78576
G1 X183.438 Y133.974 E61.82308
G1 X183.319 Y134.712 E61.86037
G1 X183.121 Y135.434 E61.89772
G1 X182.848 Y136.13 E61.93502
G1 X182.501 Y136.793 E61.97236
G1 X182.086 Y137.416 E62.0097
G1 X181.428 Y138.177 E62.05989
G1 X181.311 Y138.294 E62.06815
G1 X180.754 Y138.794 E62.10549
G1 X180.148 Y139.231 E62.14277
G1 X179.498 Y139.602 E62.1801
G1 X178.812 Y139.901 E62.21744
G1 X178.098 Y140.125 E62.25477
G1 X177.365 Y140.272 E62.29207
G1 X176.361 Y140.344 E62.34229
G1 X131.885 Y140.344 E64.56121
G1 X131.138 Y140.304 E64.59853
G1 X130.4 Y140.185 E64.63582
G1 X129.678 Y139.987 E64.67317
G1 X128.982 Y139.714 E64.71047
G1 X128.319 Y139.367 E64.7478
G1 X127.696 Y138.952 E64.78515
G1 X126.935 Y138.294 E64.83534
G1 X126.818 Y138.177 E64.8436
G1 X126.318 Y137.62 E64.88094
G1 X125.881 Y137.014 E64.91821
G1 X125.51 Y136.364 E64.95555
G1 X125.211 Y135.678 E64.99289
G1 X124.987 Y134.964 E65.03022
G1 X124.84 Y134.231 E65.06752
G1 X124.776 Y133.344 E65.11189
G1 X43.639 Y133.344 E69.15983
G1 X42.892 Y133.304 E69.19715
G1 X42.154 Y133.185 E69.23444
G1 X41.432 Y132.987 E69.27179
G1 X40.736 Y132.714 E69.30909
G1 X40.073 Y132.367 E69.34643
G1 X39.45 Y131.952 E69.38377
G1 X38.689 Y131.294 E69.43396
G1 X38.572 Y131.177 E69.44222
G1 X38.072 Y130.62 E69.47956
G1 X37.635 Y130.014 E69.51684
G1 X37.264 Y129.364 E69.55418
G1 X36.965 Y128.678 E69.59151
G1 X36.741 Y127.964 E69.62884
G1 X36.594 Y127.231 E69.66614
G1 X36.522 Y126.227 E69.71636
G1 X36.522 Y110.461 E70.50293
G1 X36.562 Y109.714 E70.54025
G1 X36.681 Y108.976 E70.57754
G1 X36.879 Y108.254 E70.61489
G1 X37.152 Y107.558 E70.65219
G1 X37.499 Y106.895 E70.68953
G1 X37.914 Y106.272 E70.72687
G1 X38.572 Y105.511 E70.77706
G1 X38.689 Y105.394 E70.78532
G1 X39.246 Y104.894 E70.82266
G1 X39.852 Y104.457 E70.85994
G1 X40.502 Y104.086 E70.89728
G1 X41.188 Y103.787 E70.93461
G0 F7500 X41.407 Y104.133
G1 F1500 X42.103 Y103.925 E70.97085
G1 X42.818 Y103.795 E71.00711
G1 X43.639 Y103.744 E71.04815
G1 X125.168 Y103.744 E75.11564
G1 X125.168 Y86.773 E75.96233
G1 X125.208 Y86.048 E75.99856
G1 X125.327 Y85.331 E76.03482
G1 X125.525 Y84.632 E76.07106
G1 X125.798 Y83.959 E76.1073
G1 X126.143 Y83.32 E76.14353
G1 X126.557 Y82.723 E76.17977
G1 X127.101 Y82.106 E76.22081
G1 X127.218 Y81.989 E76.22906
G1 X127.759 Y81.505 E76.26528
G1 X128.35 Y81.082 E76.30154
G1 X128.984 Y80.728 E76.33777
G1 X129.653 Y80.445 E76.37401
G1 X130.349 Y80.237 E76.41025
G1 X131.064 Y80.107 E76.4465
G1 X131.885 Y80.056 E76.48754
G1 X176.361 Y80.056 E78.70646
G1 X177.086 Y80.096 E78.74268
G1 X177.803 Y80.215 E78.77894
G1 X178.502 Y80.413 E78.81519
G1 X179.175 Y80.686 E78.85142
G1 X179.814 Y81.031 E78.88765
G1 X180.411 Y81.445 E78.9239
G1 X181.028 Y81.989 E78.96494
G1 X181.145 Y82.106 E78.97319
G1 X181.629 Y82.647 E79.00941
G1 X182.052 Y83.238 E79.04567
G1 X182.406 Y83.872 E79.08189
G1 X182.689 Y84.541 E79.11813
G1 X182.897 Y85.237 E79.15437
G1 X183.027 Y85.952 E79.19063
G1 X183.078 Y86.773 E79.23167
G1 X183.078 Y90.539 E79.41956
G1 X183.038 Y91.264 E79.45578
G1 X182.919 Y91.981 E79.49204
G1 X182.721 Y92.68 E79.52829
G1 X182.448 Y93.353 E79.56452
G1 X182.103 Y93.992 E79.60075
G1 X181.689 Y94.589 E79.637
G1 X181.145 Y95.206 E79.67803
G1 X181.028 Y95.323 E79.68629
G1 X180.487 Y95.807 E79.7225
G1 X179.896 Y96.23 E79.75876
G1 X179.262 Y96.584 E79.79499
G1 X178.593 Y96.867 E79.83123
G1 X177.897 Y97.075 E79.86747
G1 X177.182 Y97.205 E79.90373
G1 X176.361 Y97.256 E79.94477
G1 X142.368 Y97.256 E81.64068
G1 X142.368 Y122.744 E82.91229
G1 X176.361 Y122.744 E84.6082
G1 X177.086 Y122.784 E84.64443
G1 X177.803 Y122.903 E84.68069
G1 X178.502 Y123.101 E84.71694
G1 X179.175 Y123.374 E84.75317
G1 X179.814 Y123.719 E84.7894
G1 X180.411 Y124.133 E84.82564
G1 X181.028 Y124.677 E84.86668
G1 X181.145 Y124.794 E84.87494
G1 X181.629 Y125.335 E84.91115
G1 X182.052 Y125.926 E84.94741
G1 X182.406 Y126.56 E84.98364
G1 X182.689 Y127.229 E85.01988
G1 X182.897 Y127.925 E85.05612
G1 X183.027 Y128.64 E85.09238
G1 X183.078 Y129.461 E85.13341
G1 X183.078 Y133.227 E85.3213
G1 X183.038 Y133.952 E85.35753
G1 X182.919 Y134.669 E85.39379
G1 X182.721 Y135.368 E85.43003
G1 X182.448 Y136.041 E85.46627
G1 X182.103 Y136.68 E85.5025
G1 X181.689 Y137.277 E85.53874
G1 X181.145 Y137.894 E85.57978
G1 X181.028 Y138.011 E85.58803
G1 X180.487 Y138.495 E85.62425
G1 X179.896 Y138.918 E85.66051
G1 X179.262 Y139.272 E85.69674
G1 X178.593 Y139.555 E85.73298
G1 X177.897 Y139.763 E85.76922
G1 X177.182 Y139.893 E85.80547
G1 X176.361 Y139.944 E85.84651
G1 X131.885 Y139.944 E88.06543
G1 X131.16 Y139.904 E88.10165
G1 X130.443 Y139.785 E88.13791
G1 X129.744 Y139.587 E88.17416
G1 X129.071 Y139.314 E88.21039
G1 X128.432 Y138.969 E88.24662
G1 X127.835 Y138.555 E88.28287
G1 X127.218 Y138.011 E88.32391
G1 X127.101 Y137.894 E88.33216
G1 X126.617 Y137.353 E88.36838
G1 X126.194 Y136.762 E88.40464
G1 X125.84 Y136.128 E88.44086
G1 X125.557 Y135.459 E88.4771
G1 X125.349 Y134.763 E88.51334
